francescocufino/cufino_ws_h1_2/h1_2_pushing/output/empty_chair/positions.csv
left_arm_positions.q_1,left_arm_positions.q_2,left_arm_positions.q_3,left_arm_positions.q_4,left_arm_positions.q_5,left_arm_positions.q_6,left_arm_positions.q_7,right_arm_positions.q_1,right_arm_positions.q_2,right_arm_positions.q_3,right_arm_positions.q_4,right_arm_positions.q_5,right_arm_positions.q_6,right_arm_positions.q_7,waist_position.q_w,time.t
-0.0220637,0.201727,-0.114245,0.422671,-0.0922585,0.351051,-0.141681,-0.0129875,-0.197747,0.127693,0.442741,0.0829828,0.353196,0.16215,0.000536917,0
-0.0220637,0.201753,-0.114219,0.422646,-0.0922465,0.351039,-0.141669,-0.012996,-0.197747,0.127693,0.442741,0.0829589,0.353196,0.16215,0.000536917,0.01
-0.0220723,0.201753,-0.114219,0.422663,-0.0922706,0.351039,-0.141669,-0.0130046,-0.197721,0.127653,0.442741,0.0829828,0.353196,0.162138,0.000536917,0.02
-0.0220551,0.201735,-0.114205,0.422671,-0.0922706,0.351015,-0.141681,-0.012996,-0.19773,0.12768,0.442732,0.0829589,0.353196,0.16215,0.000562483,0.03
-0.0220723,0.201735,-0.114219,0.42268,-0.0922706,0.351015,-0.141681,-0.0130046,-0.197739,0.127693,0.442732,0.0829589,0.353184,0.16215,0.000562483,0.04
-0.0220809,0.201744,-0.114219,0.422671,-0.0922706,0.351015,-0.141681,-0.0129875,-0.197739,0.127666,0.442741,0.082947,0.353196,0.162138,0.000536917,0.05
-0.0220637,0.201735,-0.114219,0.422663,-0.0922706,0.351015,-0.141681,-0.012996,-0.197739,0.127666,0.442741,0.0829589,0.353208,0.162138,0.000562483,0.06
-0.0220637,0.201718,-0.114232,0.422697,-0.0922585,0.350991,-0.141681,-0.0129875,-0.197747,0.12764,0.442732,0.0829589,0.353196,0.16215,0.000536917,0.07
-0.0220551,0.201718,-0.114219,0.42268,-0.0922585,0.351003,-0.141681,-0.0129875,-0.19773,0.127707,0.442741,0.0829349,0.353196,0.16215,0.000536917,0.08
-0.0220723,0.201727,-0.114232,0.42268,-0.0922706,0.350991,-0.141681,-0.0129875,-0.197739,0.127666,0.442732,0.0829589,0.353196,0.16215,0.000536917,0.09
-0.0220637,0.201735,-0.114219,0.422671,-0.0922706,0.350967,-0.141681,-0.0129875,-0.197747,0.127693,0.442732,0.0829589,0.353196,0.16215,0.000536917,0.1
-0.0220723,0.201735,-0.114245,0.422671,-0.0922706,0.350967,-0.141669,-0.0129875,-0.197721,0.127707,0.44275,0.0829828,0.353196,0.16215,0.000562483,0.11
-0.0220723,0.201727,-0.114245,0.42268,-0.0922706,0.350955,-0.141681,-0.0129875,-0.19773,0.127693,0.442741,0.0829828,0.353196,0.16215,0.000536917,0.12
-0.0220723,0.201735,-0.114219,0.422671,-0.0922706,0.350967,-0.141681,-0.0130046,-0.197739,0.127707,0.442732,0.0829589,0.353196,0.16215,0.000562483,0.13
-0.0220723,0.201727,-0.114232,0.422671,-0.0922825,0.350955,-0.141681,-0.0129875,-0.19773,0.12772,0.442741,0.0829709,0.353208,0.16215,0.00051135,0.14
-0.0220551,0.201718,-0.114232,0.422688,-0.0922825,0.350955,-0.141669,-0.0129875,-0.19773,0.127733,0.442732,0.0829709,0.353184,0.162162,0.000562483,0.15
-0.0220551,0.20171,-0.114219,0.422688,-0.0922706,0.350967,-0.141669,-0.012996,-0.197739,0.127733,0.442741,0.082947,0.353196,0.162174,0.000536917,0.16
-0.0220466,0.201701,-0.114219,0.422688,-0.0922706,0.350944,-0.141669,-0.012996,-0.197747,0.127733,0.442724,0.082947,0.353208,0.16215,0.000536917,0.17
-0.0220551,0.20171,-0.114245,0.42268,-0.0922825,0.350944,-0.141669,-0.0129875,-0.197747,0.127707,0.442732,0.0829589,0.353208,0.16215,0.000536917,0.18
-0.0220551,0.201701,-0.114192,0.422697,-0.0922706,0.350944,-0.141669,-0.012996,-0.197721,0.127747,0.442741,0.082947,0.353184,0.162162,0.000536917,0.19
-0.0220466,0.201701,-0.114232,0.42268,-0.0922706,0.350932,-0.141681,-0.0129875,-0.19773,0.12776,0.442732,0.0829828,0.353196,0.162162,0.000562483,0.2
-0.0220637,0.201701,-0.114245,0.422688,-0.0922825,0.350932,-0.141681,-0.0130046,-0.197721,0.127733,0.442724,0.0829709,0.353196,0.162174,0.000536917,0.21
-0.0220637,0.201718,-0.114205,0.422688,-0.0922706,0.350919,-0.141669,-0.0130046,-0.197721,0.127733,0.442724,0.0829589,0.353196,0.162186,0.000562483,0.22
-0.0220551,0.201701,-0.114219,0.42268,-0.0922825,0.350919,-0.141657,-0.0130046,-0.197713,0.12776,0.442724,0.0829589,0.353196,0.162174,0.000562483,0.23
-0.022038,0.201701,-0.114219,0.422688,-0.0922825,0.350907,-0.141669,-0.0129875,-0.19773,0.127774,0.442724,0.0829828,0.353196,0.162174,0.000562483,0.24
-0.0220466,0.201701,-0.114219,0.422688,-0.0922585,0.350895,-0.141669,-0.0129875,-0.197721,0.127774,0.442741,0.0829709,0.353208,0.162186,0.000562483,0.25
-0.022038,0.201701,-0.114245,0.422697,-0.0922825,0.350907,-0.141669,-0.0130046,-0.197704,0.127774,0.442732,0.0829589,0.353208,0.162162,0.000562483,0.26
-0.0220466,0.201701,-0.114219,0.422697,-0.0922825,0.350907,-0.141681,-0.0129875,-0.197704,0.127787,0.442732,0.0829828,0.353208,0.162174,0.000562483,0.27
-0.0220637,0.201693,-0.114232,0.422697,-0.0922825,0.350883,-0.141669,-0.0129705,-0.197704,0.127787,0.442741,0.0829709,0.353196,0.162162,0.000536917,0.28
-0.022038,0.201693,-0.114232,0.422697,-0.0922825,0.350895,-0.141681,-0.012979,-0.197704,0.127787,0.442741,0.0829709,0.353196,0.162162,0.000562483,0.29
-0.0220551,0.201684,-0.114219,0.422671,-0.0922706,0.35086,-0.141669,-0.012979,-0.197704,0.127774,0.442741,0.0829709,0.353196,0.162174,0.000562483,0.3
-0.0220551,0.201693,-0.114245,0.422688,-0.0922825,0.350848,-0.141669,-0.012996,-0.197713,0.127774,0.442724,0.0829828,0.353208,0.162186,0.00058805,0.31
-0.0220466,0.201684,-0.114232,0.422697,-0.0922825,0.350848,-0.141681,-0.0129875,-0.197704,0.1278,0.442724,0.0829828,0.353196,0.162186,0.00058805,0.32
-0.022038,0.201693,-0.114245,0.422697,-0.0922945,0.350872,-0.141657,-0.012979,-0.197704,0.1278,0.442741,0.082947,0.353208,0.162198,0.00058805,0.33
-0.022038,0.201684,-0.114219,0.422705,-0.0922945,0.35086,-0.141657,-0.0129875,-0.197713,0.1278,0.442741,0.0829709,0.353208,0.162186,0.000562483,0.34
-0.022038,0.201684,-0.114219,0.422714,-0.0922945,0.35086,-0.141669,-0.0129705,-0.197687,0.127814,0.44275,0.0829709,0.353184,0.162186,0.000562483,0.35
-0.022038,0.201701,-0.114219,0.422688,-0.0922945,0.350835,-0.141681,-0.0129875,-0.197704,0.127814,0.442724,0.0829589,0.353208,0.162186,0.000562483,0.36
-0.0220466,0.201684,-0.114205,0.422688,-0.0922706,0.350835,-0.141681,-0.0129875,-0.197713,0.1278,0.442741,0.0829349,0.353196,0.162186,0.000562483,0.37
-0.022038,0.201693,-0.114232,0.422697,-0.0922825,0.350823,-0.141657,-0.0129875,-0.197704,0.127814,0.442732,0.0829589,0.353208,0.162186,0.00058805,0.38
-0.0220466,0.201693,-0.114232,0.422688,-0.0922706,0.350823,-0.141657,-0.012996,-0.197679,0.127827,0.442724,0.0829589,0.353196,0.162186,0.00058805,0.39
-0.022038,0.201693,-0.114219,0.422705,-0.0922945,0.350811,-0.141657,-0.012996,-0.197696,0.127854,0.442724,0.0829709,0.353196,0.162186,0.00058805,0.4
-0.0220637,0.201684,-0.114219,0.422688,-0.0922945,0.350823,-0.141669,-0.0129875,-0.197704,0.127827,0.442724,0.0829709,0.353196,0.162198,0.000613617,0.41
-0.022038,0.201684,-0.114232,0.422697,-0.0922825,0.350788,-0.141669,-0.0129875,-0.197696,0.127841,0.442732,0.0829709,0.353208,0.16221,0.00058805,0.42
-0.0220213,0.201667,-0.114232,0.422705,-0.0922825,0.3508,-0.141657,-0.0129875,-0.197687,0.127867,0.442732,0.0829709,0.353196,0.16221,0.00058805,0.43
-0.0220127,0.201684,-0.114219,0.422714,-0.0922945,0.3508,-0.141657,-0.012962,-0.197687,0.127867,0.442741,0.0829709,0.353196,0.16221,0.000562483,0.44
-0.0220466,0.201684,-0.114219,0.422697,-0.0922945,0.350776,-0.141645,-0.0129875,-0.19767,0.127867,0.44275,0.0829828,0.353208,0.162198,0.000562483,0.45
-0.0220299,0.201684,-0.114205,0.42268,-0.0922945,0.350764,-0.141657,-0.012996,-0.197653,0.127867,0.442732,0.0829828,0.353208,0.162198,0.00058805,0.46
-0.0220299,0.201684,-0.114259,0.42268,-0.0922825,0.350788,-0.141669,-0.0129875,-0.197679,0.127894,0.442741,0.0829589,0.353196,0.16221,0.000639183,0.47
-0.0220299,0.201684,-0.114219,0.422697,-0.0922945,0.350764,-0.141681,-0.0129875,-0.19767,0.127881,0.442741,0.0829709,0.353208,0.162222,0.000613617,0.48
-0.0220299,0.201667,-0.114232,0.422705,-0.0923185,0.350764,-0.141645,-0.0129875,-0.19767,0.127867,0.442732,0.0829709,0.353208,0.162222,0.00058805,0.49
-0.0220213,0.201642,-0.114219,0.422714,-0.0922945,0.350752,-0.141657,-0.0129875,-0.19767,0.127894,0.442741,0.0829828,0.353208,0.162222,0.000562483,0.5
-0.022038,0.201642,-0.114232,0.422714,-0.0922945,0.350752,-0.141669,-0.0129875,-0.197679,0.127881,0.442732,0.0829589,0.353196,0.162198,0.000562483,0.51
-0.022038,0.20165,-0.114205,0.422714,-0.0922945,0.350752,-0.141657,-0.012962,-0.19767,0.127881,0.44275,0.0829828,0.353196,0.16221,0.000562483,0.52
-0.022038,0.201659,-0.114219,0.422705,-0.0922945,0.350739,-0.141669,-0.012996,-0.197662,0.127908,0.442741,0.0829589,0.353184,0.16221,0.000562483,0.53
-0.0220299,0.201659,-0.114205,0.422697,-0.0922945,0.350728,-0.141657,-0.0129875,-0.19767,0.127921,0.442732,0.0829709,0.353208,0.16221,0.00058805,0.54
-0.0220213,0.20165,-0.114219,0.422697,-0.0922945,0.350739,-0.141669,-0.0129875,-0.19767,0.127934,0.442758,0.0829828,0.353196,0.16221,0.000613617,0.55
-0.0220213,0.201642,-0.114245,0.422714,-0.0922945,0.350728,-0.141657,-0.012996,-0.197679,0.127894,0.442741,0.0829828,0.353196,0.162222,0.000613617,0.56
-0.0220213,0.201608,-0.114245,0.422731,-0.0922945,0.350728,-0.141657,-0.0129875,-0.19767,0.127921,0.442741,0.0829589,0.353208,0.162222,0.00058805,0.57
-0.0220213,0.201591,-0.114245,0.422714,-0.0923064,0.350704,-0.141633,-0.012979,-0.197679,0.127908,0.442741,0.0829949,0.353208,0.162198,0.00058805,0.58
-0.022038,0.201574,-0.114245,0.422705,-0.0923064,0.350728,-0.141657,-0.012962,-0.19767,0.127921,0.442741,0.082947,0.353196,0.16221,0.00058805,0.59
-0.022038,0.201565,-0.114232,0.422705,-0.0923064,0.350716,-0.141645,-0.012979,-0.197662,0.127921,0.44275,0.0829828,0.353196,0.162222,0.00058805,0.6
-0.022038,0.201574,-0.114245,0.422714,-0.0922945,0.350692,-0.141669,-0.012979,-0.197662,0.127948,0.44275,0.0829709,0.353208,0.162222,0.00058805,0.61
-0.0220213,0.201574,-0.114192,0.422697,-0.0922945,0.350704,-0.141657,-0.012979,-0.197662,0.127908,0.442741,0.082947,0.353196,0.16221,0.00058805,0.62
-0.0220299,0.201574,-0.114259,0.422714,-0.0922945,0.350704,-0.141657,-0.012979,-0.197679,0.127894,0.442758,0.0829709,0.353196,0.162222,0.00058805,0.63
-0.022038,0.201556,-0.114259,0.422705,-0.0923064,0.350704,-0.141645,-0.0129875,-0.197679,0.127908,0.442741,0.0829828,0.353184,0.162222,0.00058805,0.64
-0.022038,0.201548,-0.114232,0.422705,-0.0922945,0.35068,-0.141645,-0.012996,-0.197679,0.127908,0.442724,0.0829709,0.353208,0.162222,0.00058805,0.65
-0.0220213,0.201497,-0.114232,0.422705,-0.0922825,0.350668,-0.141633,-0.012979,-0.197653,0.127894,0.442741,0.0829709,0.353196,0.16221,0.00058805,0.66
-0.0220213,0.201488,-0.114245,0.422714,-0.0922945,0.35068,-0.141645,-0.0129705,-0.19767,0.127908,0.442741,0.0829709,0.353208,0.162222,0.00058805,0.67
-0.022038,0.201471,-0.114192,0.422705,-0.0923064,0.35068,-0.141633,-0.0129875,-0.19767,0.127908,0.442741,0.0829709,0.353208,0.162222,0.00058805,0.68
-0.0220127,0.20148,-0.114245,0.422697,-0.0923185,0.350668,-0.141645,-0.012979,-0.19767,0.127894,0.44275,0.082947,0.353196,0.162222,0.00058805,0.69
-0.0220213,0.201488,-0.114219,0.422697,-0.0923064,0.350668,-0.141645,-0.0129705,-0.19767,0.127908,0.442741,0.082947,0.353196,0.162222,0.00058805,0.7
-0.0220213,0.201497,-0.114219,0.422723,-0.0922945,0.350668,-0.141633,-0.012979,-0.197687,0.127894,0.442741,0.0829828,0.353208,0.162222,0.000613617,0.71
-0.0220213,0.20148,-0.114245,0.422705,-0.0923064,0.350668,-0.141621,-0.0129705,-0.197662,0.127894,0.442758,0.0829589,0.353208,0.162222,0.00058805,0.72
-0.0220127,0.201463,-0.114219,0.422705,-0.0923185,0.350668,-0.141633,-0.012979,-0.19767,0.127881,0.44275,0.082947,0.353208,0.162222,0.000562483,0.73
-0.022038,0.201463,-0.114245,0.422697,-0.0923064,0.350632,-0.141633,-0.0129875,-0.197653,0.127881,0.44275,0.0829709,0.353184,0.162222,0.00058805,0.74
-0.0220299,0.201463,-0.114219,0.422705,-0.0923064,0.350644,-0.141633,-0.012962,-0.19767,0.127908,0.442758,0.0829828,0.353208,0.16221,0.00058805,0.75
-0.0220299,0.201463,-0.114232,0.422714,-0.0922945,0.350632,-0.141621,-0.012996,-0.19767,0.127894,0.442758,0.082947,0.353184,0.162222,0.00058805,0.76
-0.022038,0.201471,-0.114219,0.422697,-0.0923064,0.350608,-0.141621,-0.0129875,-0.19767,0.127894,0.442741,0.0829349,0.353196,0.162222,0.00058805,0.77
-0.0220299,0.201463,-0.114245,0.422705,-0.0923064,0.350608,-0.141633,-0.0129875,-0.19767,0.127908,0.44275,0.082947,0.353208,0.162222,0.000562483,0.78
-0.0220299,0.201463,-0.114232,0.422688,-0.0923185,0.350608,-0.141621,-0.0129705,-0.197645,0.127894,0.44275,0.0829709,0.353208,0.162222,0.00058805,0.79
-0.022038,0.201463,-0.114245,0.422697,-0.0923064,0.350596,-0.141633,-0.0129875,-0.197662,0.127881,0.442741,0.0829709,0.353208,0.16221,0.00058805,0.8
-0.022038,0.201437,-0.114232,0.422697,-0.0923064,0.350596,-0.141645,-0.0129875,-0.197662,0.127908,0.44275,0.0829828,0.353196,0.162222,0.00058805,0.81
-0.022038,0.201429,-0.114219,0.422688,-0.0922945,0.350596,-0.141645,-0.0129705,-0.197653,0.127908,0.442741,0.0829589,0.353184,0.162198,0.000562483,0.82
-0.0220299,0.201429,-0.114219,0.422688,-0.0922945,0.350596,-0.141633,-0.0129875,-0.19767,0.127948,0.442741,0.0829828,0.353208,0.162222,0.00058805,0.83
-0.022038,0.201437,-0.114219,0.422705,-0.0923064,0.350596,-0.141657,-0.0129875,-0.197662,0.127921,0.442741,0.0829709,0.353196,0.162222,0.00058805,0.839999
-0.0220213,0.201437,-0.114219,0.422714,-0.0923064,0.35056,-0.141633,-0.0129875,-0.197679,0.127881,0.442741,0.082947,0.353184,0.162222,0.00058805,0.849999
-0.0220299,0.201429,-0.114205,0.422697,-0.0922945,0.35056,-0.141621,-0.0129705,-0.19767,0.127908,0.442741,0.0829709,0.353196,0.16221,0.000562483,0.859999
-0.0220213,0.20142,-0.114245,0.422714,-0.0923064,0.350596,-0.141621,-0.012979,-0.197662,0.127894,0.442741,0.0829589,0.353196,0.16221,0.000536917,0.869999
-0.0220213,0.20142,-0.114259,0.422714,-0.0923064,0.350572,-0.141645,-0.012962,-0.197679,0.127894,0.442741,0.0829709,0.353196,0.162222,0.00058805,0.879999
-0.0220127,0.20142,-0.114219,0.422714,-0.0922825,0.35056,-0.141645,-0.0129875,-0.197645,0.127894,0.442741,0.0829828,0.353196,0.162222,0.000562483,0.889999
-0.0220213,0.201429,-0.114205,0.422705,-0.0923185,0.35056,-0.141621,-0.0129705,-0.197662,0.127894,0.442741,0.0829709,0.353196,0.162222,0.000562483,0.899999
-0.0220299,0.201437,-0.114245,0.422714,-0.0923064,0.350536,-0.141621,-0.0129705,-0.19767,0.127908,0.44275,0.0829709,0.353196,0.162222,0.000562483,0.909999
-0.022038,0.20142,-0.114245,0.422705,-0.0923064,0.350536,-0.141633,-0.012979,-0.197687,0.127921,0.44275,0.0829709,0.353196,0.16221,0.000613617,0.919999
-0.022038,0.20142,-0.114245,0.422697,-0.0923064,0.350548,-0.141633,-0.012979,-0.19767,0.127894,0.44275,0.0829589,0.353196,0.162222,0.000613617,0.929999
-0.0220299,0.201395,-0.114232,0.422714,-0.0922945,0.350524,-0.141633,-0.012979,-0.197653,0.127894,0.442741,0.0829709,0.353196,0.162222,0.000536917,0.939999
-0.0220299,0.201403,-0.114219,0.422705,-0.0923064,0.3505,-0.141621,-0.0129705,-0.197662,0.127908,0.44275,0.0829589,0.353196,0.162222,0.000562483,0.949999
-0.0220127,0.201378,-0.114272,0.422705,-0.0923064,0.3505,-0.141633,-0.012962,-0.197653,0.127894,0.442741,0.0829709,0.353196,0.162222,0.000562483,0.959999
-0.0220127,0.201386,-0.114245,0.422705,-0.0923064,0.350512,-0.141633,-0.012962,-0.197653,0.127908,0.44275,0.0829709,0.353196,0.162198,0.00058805,0.969999
-0.0219955,0.201386,-0.114245,0.422705,-0.0922825,0.3505,-0.141645,-0.0129705,-0.197653,0.127908,0.442741,0.082947,0.353196,0.162222,0.000562483,0.979999
-0.0220213,0.201403,-0.114245,0.422697,-0.0923064,0.350488,-0.141633,-0.012962,-0.197645,0.127908,0.44275,0.0829709,0.353208,0.16221,0.00058805,0.989999
-0.0220299,0.201378,-0.114245,0.422688,-0.0923185,0.350488,-0.141645,-0.0129875,-0.19767,0.127908,0.44275,0.0829709,0.353196,0.162222,0.000613617,0.999999
-0.0220127,0.201386,-0.114232,0.422705,-0.0923064,0.350488,-0.141609,-0.0129705,-0.197645,0.127908,0.44275,0.082947,0.353196,0.16221,0.000562483,1.01
-0.0220041,0.201378,-0.114259,0.422697,-0.0923064,0.350476,-0.141633,-0.0129705,-0.19767,0.127894,0.44275,0.0829709,0.353196,0.162222,0.000562483,1.02
-0.0220041,0.201369,-0.114245,0.422697,-0.0923064,0.350488,-0.141645,-0.012962,-0.197662,0.127908,0.442732,0.0829589,0.353196,0.162222,0.000562483,1.03
-0.0220299,0.20136,-0.114245,0.422697,-0.0923064,0.350476,-0.141621,-0.0129705,-0.197653,0.127881,0.442741,0.0829709,0.353208,0.162222,0.00058805,1.04
-0.0220127,0.20136,-0.114245,0.422697,-0.0923064,0.350464,-0.141609,-0.0129705,-0.197662,0.127908,0.442732,0.0829828,0.353196,0.162222,0.00058805,1.05
-0.0220299,0.20136,-0.114219,0.422697,-0.0923064,0.35044,-0.141621,-0.012962,-0.19767,0.127894,0.442758,0.0829828,0.353196,0.162222,0.00058805,1.06
-0.0220127,0.201369,-0.114245,0.422705,-0.0923064,0.350452,-0.141621,-0.0129534,-0.19767,0.127894,0.442741,0.0829828,0.353196,0.162222,0.000562483,1.07
-0.0220213,0.201369,-0.114219,0.422697,-0.0923064,0.350452,-0.141621,-0.012979,-0.19767,0.127881,0.442758,0.0829589,0.353208,0.16221,0.000562483,1.08
-0.0220127,0.201369,-0.114245,0.422714,-0.0923064,0.350452,-0.141633,-0.0129705,-0.197653,0.127894,0.442758,0.0829828,0.353208,0.162222,0.000562483,1.09
-0.0220041,0.20136,-0.114259,0.422714,-0.0923064,0.35044,-0.141609,-0.0129875,-0.197645,0.127894,0.442758,0.0829589,0.353196,0.162222,0.00058805,1.1
-0.0220127,0.201335,-0.114259,0.422697,-0.0922945,0.35044,-0.141609,-0.012962,-0.197662,0.127867,0.44275,0.0829589,0.353208,0.162222,0.000562483,1.11
-0.0220127,0.201335,-0.114245,0.422705,-0.0923064,0.350428,-0.141621,-0.012979,-0.197662,0.127894,0.442767,0.0829589,0.353184,0.16221,0.00058805,1.12
-0.0220127,0.201335,-0.114205,0.422723,-0.0922945,0.350428,-0.141633,-0.012979,-0.197653,0.127908,0.44275,0.0829589,0.353208,0.162222,0.00058805,1.13
-0.0219955,0.201335,-0.114245,0.422697,-0.0923064,0.350428,-0.141621,-0.012979,-0.197653,0.127908,0.442741,0.0829709,0.353208,0.162222,0.00058805,1.14
-0.0220041,0.201335,-0.114245,0.422731,-0.0923185,0.350416,-0.141609,-0.012962,-0.197653,0.127894,0.44275,0.0829709,0.353208,0.162222,0.000562483,1.15
-0.0220213,0.201335,-0.114232,0.422705,-0.0922945,0.350428,-0.141609,-0.0129705,-0.197662,0.127881,0.442767,0.0829709,0.353208,0.162222,0.00058805,1.16
-0.0220041,0.201343,-0.114245,0.422705,-0.0923064,0.350404,-0.141609,-0.0129705,-0.19767,0.127894,0.442741,0.0829709,0.353196,0.162222,0.000562483,1.17
-0.0220127,0.201326,-0.114259,0.422688,-0.0922945,0.350404,-0.141609,-0.0129705,-0.197662,0.127894,0.442741,0.0829589,0.353208,0.162222,0.00058805,1.18
-0.0220127,0.201335,-0.114245,0.422697,-0.0923064,0.350404,-0.141609,-0.0129705,-0.197653,0.127881,0.442767,0.0829709,0.353184,0.162222,0.00058805,1.19
-0.0220041,0.201335,-0.114259,0.422705,-0.0923064,0.350392,-0.141609,-0.012979,-0.197653,0.127921,0.44275,0.0829709,0.353208,0.162222,0.00058805,1.2
-0.0219955,0.201335,-0.114245,0.422697,-0.0923064,0.350368,-0.141597,-0.0129705,-0.19767,0.127921,0.44275,0.0829709,0.353208,0.162222,0.00058805,1.21
-0.0219955,0.201335,-0.114245,0.422723,-0.0923064,0.350392,-0.141609,-0.0129875,-0.197653,0.127908,0.44275,0.0829709,0.353208,0.16221,0.000562483,1.22
-0.0220127,0.201335,-0.114259,0.422714,-0.0923064,0.350368,-0.141609,-0.012962,-0.197662,0.127894,0.44275,0.0829709,0.353208,0.162222,0.000562483,1.23
-0.0220041,0.201335,-0.114245,0.422697,-0.0922825,0.350368,-0.141609,-0.012962,-0.197653,0.127921,0.442732,0.0829589,0.353184,0.162222,0.000562483,1.24
-0.0220041,0.201335,-0.114205,0.422688,-0.0923064,0.350368,-0.141597,-0.012979,-0.197662,0.127908,0.442741,0.0829828,0.353208,0.162222,0.000562483,1.25
-0.0220127,0.201335,-0.114232,0.422705,-0.0923064,0.350368,-0.141621,-0.0129705,-0.197653,0.127908,0.44275,0.0829828,0.353196,0.162222,0.00058805,1.26
-0.0219955,0.201326,-0.114245,0.422705,-0.0923064,0.350344,-0.141597,-0.012979,-0.197662,0.127921,0.442732,0.0829589,0.353196,0.162222,0.00058805,1.27
-0.022038,0.201335,-0.114232,0.422705,-0.0923185,0.350332,-0.141621,-0.012979,-0.197662,0.127934,0.442732,0.082947,0.353208,0.162222,0.00058805,1.28
-0.0220041,0.201326,-0.114232,0.422705,-0.0923064,0.350332,-0.141633,-0.0129534,-0.197662,0.127921,0.442732,0.0829709,0.353196,0.162222,0.00058805,1.29
-0.0220213,0.201318,-0.114245,0.422697,-0.0923064,0.350344,-0.141621,-0.012962,-0.197679,0.127908,0.442741,0.0829709,0.353196,0.162222,0.00058805,1.3
-0.0220127,0.201335,-0.114245,0.422714,-0.0922945,0.35032,-0.141609,-0.0129705,-0.197653,0.127921,0.442741,0.0829589,0.353196,0.16221,0.00058805,1.31
-0.0220213,0.201318,-0.114259,0.422705,-0.0923185,0.350308,-0.141609,-0.0129875,-0.197645,0.127921,0.44275,0.0829709,0.353196,0.162222,0.00058805,1.32
-0.0220127,0.201335,-0.114245,0.422697,-0.0923185,0.350296,-0.141633,-0.012962,-0.197645,0.127948,0.442732,0.082947,0.353196,0.162234,0.00058805,1.33
-0.0220041,0.201326,-0.114219,0.422697,-0.0923064,0.350296,-0.141621,-0.0129705,-0.197662,0.127948,0.442758,0.0829709,0.353196,0.162222,0.00058805,1.34
-0.0219955,0.201318,-0.114245,0.422714,-0.0922825,0.350296,-0.141609,-0.0129705,-0.197662,0.127948,0.442741,0.0829709,0.353208,0.162222,0.00058805,1.35
-0.0220041,0.201326,-0.114245,0.422705,-0.0923185,0.350296,-0.141609,-0.012979,-0.197662,0.127934,0.442741,0.0829709,0.353196,0.162222,0.00058805,1.36
-0.0219955,0.201335,-0.114245,0.422705,-0.0923064,0.350296,-0.141609,-0.012962,-0.19767,0.127934,0.442732,0.0829589,0.353196,0.162222,0.00058805,1.37
-0.021987,0.201318,-0.114232,0.422705,-0.0923185,0.350308,-0.141597,-0.012979,-0.197645,0.127934,0.442741,0.0829589,0.353196,0.162222,0.000562483,1.38
-0.0219955,0.201318,-0.114245,0.422705,-0.0922945,0.350308,-0.141609,-0.0129705,-0.19767,0.127934,0.442741,0.0829589,0.353208,0.162222,0.000613617,1.39
-0.0220041,0.201318,-0.114245,0.422688,-0.0923185,0.350296,-0.141621,-0.012979,-0.197653,0.127934,0.442732,0.0829709,0.353208,0.162222,0.00058805,1.4
-0.0219955,0.201326,-0.114219,0.422705,-0.0923185,0.350272,-0.141609,-0.012962,-0.197662,0.127921,0.442741,0.0829709,0.353208,0.162222,0.00058805,1.41
-0.0220041,0.201318,-0.114232,0.422705,-0.0923064,0.350284,-0.141609,-0.012979,-0.197653,0.127934,0.442741,0.0829589,0.353208,0.162222,0.00058805,1.42
-0.0219955,0.201326,-0.114245,0.422705,-0.0923064,0.350284,-0.141597,-0.0129705,-0.197662,0.127921,0.442741,0.0829709,0.353208,0.16221,0.00058805,1.43
-0.0220041,0.201318,-0.114245,0.422705,-0.0923064,0.350284,-0.141609,-0.012962,-0.197662,0.127934,0.442741,0.0829709,0.353196,0.162222,0.00058805,1.44
-0.0219955,0.201309,-0.114232,0.422705,-0.0922945,0.350284,-0.141621,-0.0129875,-0.197662,0.127934,0.44275,0.0829709,0.353184,0.162222,0.00058805,1.45
-0.0220041,0.201326,-0.114245,0.422705,-0.0923064,0.350284,-0.141621,-0.0129705,-0.197662,0.127934,0.442741,0.082947,0.353208,0.162222,0.00058805,1.46
-0.0219955,0.201326,-0.114219,0.422705,-0.0923064,0.350284,-0.141597,-0.0129705,-0.197662,0.127934,0.442741,0.0829709,0.353196,0.162222,0.00058805,1.47
-0.0219955,0.201318,-0.114205,0.422731,-0.0923064,0.350296,-0.141621,-0.012962,-0.19767,0.127921,0.44275,0.0829709,0.353196,0.162222,0.00058805,1.48
-0.0219955,0.201309,-0.114232,0.422697,-0.0923185,0.350284,-0.141609,-0.012979,-0.197662,0.127921,0.442758,0.082947,0.353208,0.162222,0.000562483,1.49
-0.0220041,0.201318,-0.114245,0.422714,-0.0923185,0.350272,-0.141609,-0.012962,-0.197653,0.127934,0.442741,0.0829709,0.353196,0.162222,0.000562483,1.5
-0.0219955,0.201318,-0.114245,0.422714,-0.0923064,0.350284,-0.141609,-0.0129705,-0.19767,0.127921,0.442741,0.0829828,0.353196,0.162222,0.00058805,1.51
-0.0219955,0.201309,-0.114219,0.422697,-0.0923064,0.350272,-0.141597,-0.012979,-0.197653,0.127934,0.442758,0.0829589,0.353208,0.16221,0.00058805,1.52
-0.0219955,0.201318,-0.114232,0.422705,-0.0923064,0.350272,-0.141609,-0.0129705,-0.197653,0.127934,0.442758,0.0829709,0.353196,0.162222,0.00058805,1.53
-0.0219955,0.201318,-0.114232,0.422705,-0.0923064,0.350272,-0.141621,-0.0129875,-0.19767,0.127934,0.44275,0.0829709,0.353196,0.162222,0.000613617,1.54
-0.0220041,0.201309,-0.114219,0.422714,-0.0923064,0.350284,-0.141609,-0.012979,-0.19767,0.127921,0.44275,0.0829709,0.353196,0.162222,0.000562483,1.55
-0.0219955,0.201309,-0.114259,0.422723,-0.0922945,0.35026,-0.141621,-0.012962,-0.197662,0.127921,0.442758,0.0829709,0.353196,0.162222,0.000562483,1.56
-0.0220041,0.201309,-0.114245,0.422697,-0.0922945,0.350272,-0.141597,-0.012962,-0.197662,0.127921,0.44275,0.0829589,0.353208,0.162222,0.000562483,1.57
-0.0220041,0.201284,-0.114245,0.422714,-0.0922945,0.35026,-0.141609,-0.012962,-0.19767,0.127921,0.442741,0.0829589,0.353196,0.162222,0.00058805,1.58
-0.0220127,0.201301,-0.114245,0.422731,-0.0923064,0.350272,-0.141621,-0.012962,-0.19767,0.127921,0.442741,0.082947,0.353196,0.162222,0.00058805,1.59
-0.0219955,0.201309,-0.114245,0.422705,-0.0922945,0.350272,-0.141621,-0.012962,-0.19767,0.127934,0.442741,0.082947,0.353196,0.162222,0.000562483,1.6
-0.021987,0.201301,-0.114245,0.422714,-0.0923064,0.35026,-0.141585,-0.0129705,-0.197653,0.127921,0.442758,0.0829589,0.353196,0.162222,0.000562483,1.61
-0.0219784,0.201292,-0.114245,0.422705,-0.0923064,0.350272,-0.141609,-0.012962,-0.197662,0.127921,0.44275,0.0829589,0.353196,0.16221,0.000562483,1.62
-0.0219955,0.201301,-0.114232,0.422705,-0.0923064,0.350272,-0.141597,-0.012962,-0.197662,0.127934,0.44275,0.0829709,0.353196,0.16221,0.000562483,1.63
-0.0220041,0.201284,-0.114259,0.422697,-0.0923064,0.350272,-0.141597,-0.012962,-0.197662,0.127934,0.442758,0.0829828,0.353208,0.162222,0.00058805,1.64
-0.0219955,0.201292,-0.114245,0.422697,-0.0923185,0.35026,-0.141597,-0.012962,-0.19767,0.127934,0.442741,0.0829709,0.353208,0.162222,0.00058805,1.65
-0.021987,0.201292,-0.114245,0.422705,-0.0923064,0.35026,-0.141609,-0.0129705,-0.197653,0.127921,0.44275,0.0829349,0.353196,0.162234,0.000562483,1.66
-0.0219955,0.201284,-0.114245,0.422723,-0.0922945,0.35026,-0.141597,-0.012962,-0.197645,0.127894,0.44275,0.0829589,0.353196,0.162222,0.000536917,1.67
-0.0219955,0.201301,-0.114245,0.422723,-0.0923064,0.350272,-0.141597,-0.012962,-0.197653,0.127934,0.442741,0.0829589,0.353196,0.162234,0.000562483,1.68
-0.0219955,0.201292,-0.114232,0.422697,-0.0923064,0.35026,-0.141609,-0.0129705,-0.19767,0.127934,0.44275,0.0829709,0.353208,0.162222,0.000562483,1.69
-0.0219955,0.201284,-0.114205,0.422705,-0.0923064,0.35026,-0.141597,-0.012979,-0.197653,0.127921,0.442741,0.0829589,0.353196,0.162234,0.00058805,1.7
-0.0219955,0.201284,-0.114245,0.422697,-0.0922945,0.35026,-0.141609,-0.012962,-0.19767,0.127908,0.442758,0.0829709,0.353196,0.162222,0.000562483,1.71
-0.0220127,0.201301,-0.114232,0.422705,-0.0922945,0.35026,-0.141597,-0.012979,-0.197662,0.127934,0.44275,0.0829709,0.353208,0.162222,0.000562483,1.72
-0.0219955,0.201284,-0.114245,0.422705,-0.0922945,0.350236,-0.141585,-0.012979,-0.19767,0.127921,0.44275,0.0829828,0.353208,0.162234,0.000562483,1.73
-0.0219955,0.201258,-0.114245,0.422723,-0.0922945,0.350248,-0.141597,-0.012979,-0.19767,0.127934,0.442741,0.0829589,0.353208,0.162222,0.000562483,1.74
-0.0220127,0.201267,-0.114232,0.422705,-0.0923185,0.350248,-0.141585,-0.0129705,-0.197628,0.127934,0.442767,0.0829709,0.353208,0.162222,0.00058805,1.75
-0.0220127,0.201267,-0.114245,0.422723,-0.0923064,0.35026,-0.141597,-0.0129705,-0.197653,0.127921,0.442741,0.0829709,0.353208,0.162234,0.00058805,1.76
-0.0219955,0.201267,-0.114245,0.422697,-0.0922945,0.350224,-0.141597,-0.012962,-0.197662,0.127934,0.442758,0.0829589,0.35322,0.162234,0.000562483,1.77
-0.021987,0.201275,-0.114232,0.422714,-0.0922945,0.350236,-0.141609,-0.012979,-0.197653,0.127921,0.44275,0.0829828,0.353196,0.162222,0.000562483,1.78
-0.021987,0.201267,-0.114245,0.422705,-0.0923064,0.350236,-0.141609,-0.012979,-0.197653,0.127921,0.44275,0.0829828,0.353196,0.162222,0.000562483,1.79
-0.0219955,0.201267,-0.114245,0.422705,-0.0922945,0.35026,-0.141609,-0.012962,-0.197645,0.127934,0.442741,0.0829709,0.353196,0.162222,0.00058805,1.8
-0.0220041,0.20125,-0.114245,0.422731,-0.0922945,0.350248,-0.141609,-0.012962,-0.197679,0.127948,0.442741,0.0829589,0.353208,0.162198,0.00058805,1.81
-0.0219955,0.201241,-0.114232,0.422714,-0.0922945,0.350236,-0.141609,-0.012979,-0.197662,0.127934,0.442741,0.0829589,0.353208,0.162246,0.000562483,1.82
-0.021987,0.20125,-0.114245,0.422705,-0.0922945,0.350248,-0.141609,-0.012979,-0.197662,0.127921,0.44275,0.0829709,0.353208,0.162222,0.000562483,1.83
-0.0219955,0.201241,-0.114219,0.422731,-0.0922945,0.350236,-0.141609,-0.012962,-0.197653,0.127948,0.44275,0.0829709,0.353208,0.162234,0.000562483,1.84
-0.021987,0.20125,-0.114259,0.422697,-0.0922945,0.350224,-0.141597,-0.012962,-0.197662,0.127934,0.442767,0.0829709,0.353196,0.162222,0.000562483,1.85
-0.0220127,0.20125,-0.114219,0.422697,-0.0922945,0.350248,-0.141597,-0.012962,-0.197645,0.127934,0.442758,0.0829349,0.353196,0.162234,0.00058805,1.86
-0.0219955,0.20125,-0.114259,0.422723,-0.0923185,0.350236,-0.141609,-0.012979,-0.197662,0.127934,0.442758,0.0829709,0.353208,0.162222,0.000562483,1.87
-0.0219955,0.20125,-0.114245,0.422723,-0.0923185,0.350248,-0.141609,-0.0129875,-0.19767,0.127948,0.44275,0.082947,0.353196,0.162234,0.00058805,1.88
-0.021987,0.201241,-0.114245,0.422714,-0.0922945,0.350236,-0.141597,-0.012979,-0.197653,0.127948,0.44275,0.0829709,0.353196,0.162222,0.00058805,1.89
-0.0219955,0.201241,-0.114259,0.422714,-0.0922945,0.350236,-0.141585,-0.0129705,-0.197653,0.127934,0.442758,0.0829589,0.353208,0.162222,0.000562483,1.9
-0.021987,0.201233,-0.114245,0.422723,-0.0923185,0.350248,-0.141585,-0.0129875,-0.197645,0.127948,0.442741,0.082947,0.353196,0.162222,0.00058805,1.91
-0.0219955,0.201233,-0.114245,0.422697,-0.0922945,0.350236,-0.141597,-0.0129875,-0.197636,0.127934,0.442758,0.0829709,0.353208,0.162222,0.00058805,1.92
-0.0219955,0.201241,-0.114245,0.422714,-0.0922945,0.350236,-0.141597,-0.0129705,-0.197653,0.127921,0.442741,0.0829828,0.353208,0.162222,0.00058805,1.93
-0.021987,0.201241,-0.114219,0.422705,-0.0923185,0.350224,-0.141585,-0.012962,-0.197662,0.127961,0.442767,0.0829709,0.353196,0.162234,0.000562483,1.94
-0.0219955,0.20125,-0.114259,0.422697,-0.0922945,0.350236,-0.141597,-0.012979,-0.197645,0.127948,0.442758,0.0829709,0.353196,0.162234,0.000562483,1.95
-0.0219955,0.201241,-0.114259,0.422705,-0.0922945,0.350224,-0.141597,-0.012962,-0.197645,0.127948,0.442767,0.0829709,0.353196,0.162246,0.00058805,1.96
-0.0219955,0.201216,-0.114232,0.422714,-0.0922945,0.350236,-0.141585,-0.012979,-0.197645,0.127934,0.44275,0.0829709,0.353196,0.162222,0.00058805,1.97
-0.0219955,0.201216,-0.114245,0.422688,-0.0923064,0.350213,-0.141597,-0.0129705,-0.197636,0.127961,0.442741,0.082947,0.353208,0.162222,0.00058805,1.98
-0.0219955,0.201207,-0.114245,0.422697,-0.0922945,0.350224,-0.141585,-0.0129875,-0.197645,0.127948,0.442758,0.0829709,0.353196,0.162234,0.00058805,1.99
-0.0219955,0.201224,-0.114245,0.422714,-0.0922945,0.350224,-0.141621,-0.0129705,-0.197653,0.127948,0.44275,0.0829828,0.353196,0.162222,0.00058805,2
-0.0219955,0.201216,-0.114259,0.422688,-0.0923185,0.350224,-0.141597,-0.012962,-0.197645,0.127921,0.442758,0.0829828,0.353208,0.162234,0.000562483,2.01
-0.0219955,0.201216,-0.114245,0.422705,-0.0922945,0.350213,-0.141585,-0.0129534,-0.197645,0.127948,0.44275,0.0829828,0.353196,0.162222,0.00058805,2.02
-0.021987,0.201207,-0.114259,0.422697,-0.0923064,0.350236,-0.141597,-0.0129705,-0.197653,0.127921,0.442758,0.0829709,0.353196,0.162222,0.000562483,2.03
-0.0219955,0.201207,-0.114245,0.422697,-0.0922945,0.350224,-0.141597,-0.0129705,-0.197662,0.127921,0.442758,0.0829589,0.353208,0.162222,0.000562483,2.04
-0.0219955,0.201207,-0.114245,0.422697,-0.0922945,0.350213,-0.141609,-0.0129705,-0.197653,0.127921,0.442758,0.0829709,0.353196,0.162222,0.000562483,2.05
-0.021987,0.201207,-0.114245,0.422688,-0.0923064,0.350224,-0.141597,-0.0129534,-0.197662,0.127934,0.44275,0.0829709,0.353208,0.162222,0.000562483,2.06
-0.0220127,0.201207,-0.114245,0.422688,-0.0922945,0.350224,-0.141585,-0.0129534,-0.197653,0.127921,0.44275,0.0829709,0.353208,0.162234,0.000562483,2.07
-0.0220041,0.201182,-0.114245,0.422705,-0.0922945,0.350224,-0.141609,-0.012962,-0.197662,0.127921,0.442767,0.0829709,0.353196,0.162222,0.000562483,2.08
-0.0220127,0.20119,-0.114245,0.422697,-0.0922945,0.350213,-0.141597,-0.012962,-0.197636,0.127921,0.442741,0.0829589,0.353196,0.162234,0.000536917,2.09
-0.0220213,0.201199,-0.114245,0.42268,-0.0923064,0.350213,-0.141609,-0.012979,-0.197645,0.127921,0.442758,0.0829589,0.353208,0.162222,0.000562483,2.1
-0.0220041,0.201207,-0.114245,0.422671,-0.0922945,0.350213,-0.141597,-0.0129705,-0.197636,0.127921,0.44275,0.0829709,0.353208,0.162234,0.000562483,2.11
-0.0220127,0.201182,-0.114232,0.42268,-0.0922945,0.350224,-0.141609,-0.0129449,-0.197645,0.127921,0.442758,0.0829828,0.353208,0.162222,0.000536917,2.12
-0.0219955,0.201182,-0.114245,0.422688,-0.0923185,0.350213,-0.141609,-0.0129705,-0.19767,0.127921,0.442767,0.0829589,0.353208,0.162234,0.000562483,2.13
-0.0220041,0.201182,-0.114245,0.422697,-0.0922945,0.3502,-0.141597,-0.0129705,-0.197653,0.127921,0.44275,0.082947,0.353196,0.162234,0.000562483,2.14
-0.0220127,0.201173,-0.114245,0.42268,-0.0922825,0.3502,-0.141597,-0.012962,-0.197662,0.127881,0.442758,0.0829828,0.353208,0.162222,0.000562483,2.15
-0.0219955,0.201164,-0.114259,0.422697,-0.0923064,0.350188,-0.141621,-0.012962,-0.197653,0.127894,0.442741,0.0829709,0.353208,0.162222,0.000562483,2.16
-0.0220127,0.201147,-0.114245,0.422697,-0.0922825,0.350176,-0.141597,-0.012962,-0.197662,0.127908,0.44275,0.0829709,0.353208,0.162222,0.000536917,2.17
-0.0219955,0.201156,-0.114259,0.422705,-0.0922945,0.350213,-0.141597,-0.0129705,-0.197662,0.127881,0.442767,0.0829709,0.353196,0.162234,0.000536917,2.18
-0.0219955,0.201139,-0.114245,0.422688,-0.0923185,0.350213,-0.141609,-0.012962,-0.19767,0.127881,0.442767,0.0829828,0.353208,0.162222,0.00051135,2.19
-0.0220041,0.201139,-0.114245,0.422697,-0.0923064,0.3502,-0.141609,-0.012962,-0.197662,0.127908,0.442758,0.0829828,0.353196,0.162222,0.000562483,2.2
-0.0219955,0.201122,-0.114259,0.422688,-0.0923185,0.350188,-0.141585,-0.012962,-0.197662,0.127894,0.442767,0.0829828,0.353196,0.162222,0.000536917,2.21
-0.0220041,0.20113,-0.114259,0.422697,-0.0922945,0.350164,-0.141609,-0.012962,-0.197645,0.127854,0.442767,0.0829709,0.353208,0.162222,0.000536917,2.22
-0.0220041,0.201122,-0.114245,0.422697,-0.0923064,0.350176,-0.141609,-0.012979,-0.197662,0.127881,0.442767,0.0829828,0.353208,0.162234,0.000536917,2.23
-0.0220127,0.201122,-0.114272,0.422697,-0.0923064,0.350176,-0.141609,-0.012962,-0.197653,0.127881,0.442758,0.0829709,0.35322,0.162234,0.000536917,2.24
-0.0219784,0.201122,-0.114285,0.422714,-0.0922945,0.350176,-0.141597,-0.012962,-0.197653,0.127881,0.442767,0.0829828,0.353208,0.162222,0.000536917,2.25
-0.0219955,0.201122,-0.114245,0.422697,-0.0923064,0.350176,-0.141597,-0.012962,-0.197645,0.127867,0.442775,0.0829589,0.353196,0.162234,0.000562483,2.26
-0.0219955,0.20113,-0.114259,0.422697,-0.0922945,0.350188,-0.141597,-0.0129449,-0.197636,0.127867,0.442775,0.0829709,0.353208,0.162222,0.000536917,2.27
-0.0220041,0.201122,-0.114259,0.422688,-0.0923185,0.350176,-0.141585,-0.0129705,-0.197662,0.127894,0.442775,0.0829828,0.353196,0.162222,0.00058805,2.28
-0.0220041,0.201122,-0.114245,0.422697,-0.0922945,0.350176,-0.141597,-0.0129705,-0.19767,0.127867,0.442792,0.0829709,0.35322,0.162222,0.000536917,2.29
-0.0220127,0.201113,-0.114259,0.422705,-0.0922945,0.350176,-0.141597,-0.012962,-0.19767,0.127867,0.442767,0.0829589,0.353196,0.162222,0.000536917,2.3
-0.0219955,0.201122,-0.114259,0.422714,-0.0923064,0.350164,-0.141597,-0.0129449,-0.197653,0.127881,0.442775,0.0829709,0.353208,0.162234,0.00051135,2.31
-0.0219955,0.20113,-0.114245,0.422714,-0.0923185,0.350164,-0.141585,-0.0129534,-0.197662,0.127908,0.442792,0.0829589,0.353208,0.162222,0.000536917,2.32
-0.0219955,0.201122,-0.114245,0.422697,-0.0922825,0.350164,-0.141609,-0.012962,-0.197653,0.127908,0.442758,0.082947,0.353196,0.162222,0.000562483,2.33
-0.021987,0.201113,-0.114245,0.422714,-0.0922945,0.350164,-0.141597,-0.0129534,-0.197645,0.127921,0.442784,0.0829709,0.353208,0.162222,0.00058805,2.34
-0.0219955,0.20113,-0.114245,0.422697,-0.0922945,0.350152,-0.141597,-0.012962,-0.197653,0.127921,0.442784,0.0829589,0.353196,0.162234,0.00058805,2.35
-0.0220041,0.201122,-0.114259,0.422705,-0.0923185,0.350164,-0.141597,-0.0129705,-0.197662,0.127908,0.442775,0.082947,0.353208,0.162222,0.000562483,2.36
-0.0219955,0.201113,-0.114245,0.422714,-0.0922945,0.350152,-0.141609,-0.012962,-0.197653,0.127921,0.442758,0.0829589,0.353196,0.162222,0.000562483,2.37
-0.0220041,0.201105,-0.114245,0.422714,-0.0923185,0.350152,-0.141609,-0.0129705,-0.197662,0.127921,0.442767,0.082947,0.353208,0.162234,0.000562483,2.38
-0.0219955,0.201122,-0.114232,0.422697,-0.0922945,0.350164,-0.141609,-0.012962,-0.197645,0.127934,0.442775,0.0829709,0.353208,0.162234,0.000536917,2.39
-0.0219955,0.201122,-0.114205,0.422697,-0.0922945,0.350152,-0.141609,-0.0129449,-0.197636,0.127975,0.442775,0.0829828,0.353208,0.162222,0.000562483,2.4
-0.0219955,0.201139,-0.114259,0.422697,-0.0922945,0.350152,-0.141609,-0.0129534,-0.197619,0.127988,0.442784,0.0829589,0.353208,0.162234,0.000639183,2.41
-0.0219955,0.201122,-0.114232,0.422723,-0.0923185,0.350152,-0.141597,-0.012962,-0.197645,0.127961,0.442775,0.0829589,0.353196,0.162222,0.000613617,2.42
-0.0219955,0.20113,-0.114259,0.422705,-0.0922945,0.350152,-0.141585,-0.0129705,-0.197645,0.127961,0.442758,0.0829828,0.353196,0.162222,0.000639183,2.43
-0.021987,0.201105,-0.114259,0.422714,-0.0922945,0.350141,-0.141609,-0.012979,-0.197662,0.127961,0.442741,0.0829589,0.353208,0.162222,0.000562483,2.44
-0.021987,0.201122,-0.114272,0.422705,-0.0923064,0.350152,-0.141609,-0.012979,-0.197636,0.127961,0.442767,0.0829709,0.353208,0.162246,0.00058805,2.45
-0.0219955,0.201113,-0.114245,0.422714,-0.0922945,0.350152,-0.141609,-0.0129449,-0.197636,0.127975,0.44275,0.0829589,0.353196,0.162234,0.00058805,2.46
-0.021987,0.201122,-0.114245,0.422714,-0.0922945,0.350141,-0.141585,-0.0129534,-0.197619,0.127975,0.442758,0.0829828,0.353196,0.162234,0.00058805,2.47
-0.021987,0.20113,-0.114245,0.422688,-0.0922945,0.350129,-0.141609,-0.012962,-0.197636,0.127961,0.442758,0.0829828,0.353208,0.162246,0.000613617,2.48
-0.021987,0.201147,-0.114245,0.422705,-0.0922945,0.350141,-0.141597,-0.012979,-0.19761,0.128001,0.442767,0.0829709,0.353196,0.162246,0.000613617,2.49
-0.0219784,0.201139,-0.114259,0.422697,-0.0922945,0.350141,-0.141585,-0.0129705,-0.19761,0.127988,0.442758,0.0829828,0.353196,0.162234,0.000613617,2.5
-0.0219784,0.20113,-0.114219,0.422723,-0.0922945,0.350141,-0.141597,-0.012962,-0.197645,0.127988,0.44275,0.0829828,0.353208,0.162222,0.000613617,2.51
-0.0219955,0.20113,-0.114259,0.422697,-0.0922945,0.350141,-0.141597,-0.012979,-0.197636,0.127961,0.442758,0.0829828,0.353208,0.162246,0.000639183,2.52
-0.021987,0.201105,-0.114245,0.422697,-0.0922945,0.350141,-0.141585,-0.0129705,-0.197619,0.127975,0.44275,0.0829709,0.353172,0.162246,0.000613617,2.53
-0.021987,0.201122,-0.114232,0.422697,-0.0922945,0.350152,-0.141597,-0.012962,-0.197636,0.127988,0.442767,0.0829709,0.353208,0.162246,0.000639183,2.54
-0.0219955,0.201139,-0.114245,0.422697,-0.0922945,0.350164,-0.141597,-0.012962,-0.197628,0.127961,0.442775,0.0829828,0.353196,0.162246,0.000613617,2.55
-0.0219784,0.20113,-0.114219,0.422697,-0.0922945,0.350141,-0.141597,-0.0129705,-0.197602,0.127988,0.442758,0.0829709,0.353208,0.162246,0.00058805,2.56
-0.021987,0.201139,-0.114245,0.422697,-0.0922945,0.350152,-0.141573,-0.0129705,-0.197619,0.127988,0.442758,0.0829828,0.353196,0.162246,0.000613617,2.57
-0.0219955,0.20113,-0.114245,0.422697,-0.0922945,0.350141,-0.141597,-0.0129705,-0.197619,0.127988,0.442767,0.0829828,0.353208,0.162246,0.00058805,2.58
-0.0219955,0.20113,-0.114245,0.422697,-0.0922945,0.350141,-0.141585,-0.0129534,-0.197628,0.127975,0.442741,0.0829828,0.353196,0.162246,0.00058805,2.59
-0.021987,0.201105,-0.114245,0.422705,-0.0922945,0.350117,-0.141597,-0.0129705,-0.197628,0.127975,0.442767,0.0829709,0.353208,0.162222,0.000613617,2.6
-0.0219955,0.201105,-0.114272,0.422705,-0.0923064,0.350129,-0.141609,-0.012979,-0.197636,0.128001,0.44275,0.082947,0.353208,0.162246,0.000613617,2.61
-0.0219955,0.201113,-0.114245,0.422697,-0.0922945,0.350129,-0.141585,-0.0129705,-0.197645,0.127988,0.442741,0.0829709,0.353196,0.162246,0.00058805,2.62
-0.021987,0.201105,-0.114245,0.422697,-0.0922945,0.350117,-0.141597,-0.012962,-0.197636,0.127988,0.442741,0.0829709,0.353196,0.162234,0.00058805,2.63
-0.0219955,0.201113,-0.114245,0.422705,-0.0922945,0.350117,-0.141585,-0.0129449,-0.197628,0.127988,0.442767,0.082947,0.353208,0.162246,0.000562483,2.64
-0.0219955,0.201113,-0.114245,0.422705,-0.0922945,0.350117,-0.141597,-0.0129449,-0.197628,0.127975,0.442767,0.0829828,0.353196,0.162234,0.000562483,2.65
-0.0219955,0.201105,-0.114259,0.422697,-0.0922945,0.350117,-0.141597,-0.0129534,-0.197636,0.127975,0.442767,0.0829709,0.353184,0.162234,0.000562483,2.66
-0.0219955,0.201113,-0.114245,0.422688,-0.0922945,0.350117,-0.141597,-0.012962,-0.197628,0.127961,0.442758,0.0829709,0.353196,0.162246,0.00058805,2.67
-0.0219955,0.201105,-0.114245,0.422688,-0.0922945,0.350117,-0.141597,-0.0129534,-0.197645,0.127961,0.442767,0.0829709,0.353208,0.162246,0.00058805,2.68
-0.0219955,0.201079,-0.114245,0.422697,-0.0922945,0.350092,-0.141561,-0.012962,-0.197636,0.127948,0.44275,0.0829589,0.353196,0.162234,0.000562483,2.69
-0.0220127,0.201088,-0.114245,0.422697,-0.0922945,0.350104,-0.141585,-0.0129705,-0.197645,0.127961,0.44275,0.0829828,0.353196,0.162246,0.000562483,2.7
-0.0219955,0.201088,-0.114232,0.422697,-0.0922945,0.350092,-0.141597,-0.012962,-0.197628,0.127961,0.442767,0.0829828,0.353196,0.162246,0.000562483,2.71
-0.0219955,0.201079,-0.114245,0.422697,-0.0922945,0.35008,-0.141573,-0.0129534,-0.197645,0.127975,0.44275,0.082947,0.353208,0.162246,0.000562483,2.72
-0.0219784,0.201088,-0.114245,0.422697,-0.0923185,0.35008,-0.141597,-0.012962,-0.197619,0.127934,0.442767,0.0829709,0.353196,0.162246,0.000536917,2.73
-0.021987,0.201096,-0.114245,0.422688,-0.0923185,0.350092,-0.141597,-0.0129449,-0.197628,0.127948,0.442767,0.0829709,0.353196,0.162234,0.000536917,2.74
-0.0219955,0.201088,-0.114272,0.422697,-0.0922945,0.350069,-0.141597,-0.012962,-0.197636,0.127934,0.442758,0.0829709,0.353196,0.162234,0.000536917,2.75
-0.0219955,0.201079,-0.114259,0.422688,-0.0923064,0.350092,-0.141609,-0.012962,-0.197619,0.127908,0.442767,0.0829828,0.353208,0.162246,0.000536917,2.76
-0.0220041,0.201088,-0.114259,0.422697,-0.0922945,0.35008,-0.141597,-0.0129705,-0.197619,0.127921,0.442767,0.0829828,0.353208,0.162246,0.000536917,2.77
-0.0220127,0.201079,-0.114285,0.422671,-0.0923064,0.35008,-0.141597,-0.012962,-0.197619,0.127921,0.442775,0.0829828,0.353196,0.162246,0.000536917,2.78
-0.0220213,0.201079,-0.114285,0.42268,-0.0922945,0.35008,-0.141609,-0.012962,-0.197636,0.127908,0.442775,0.0829709,0.353196,0.162234,0.000562483,2.79
-0.021987,0.201079,-0.114259,0.422705,-0.0922945,0.350069,-0.141609,-0.012962,-0.197628,0.127921,0.442784,0.0829828,0.353208,0.162246,0.000536917,2.8
-0.0219955,0.201079,-0.114299,0.422705,-0.0922945,0.350057,-0.141597,-0.0129705,-0.197636,0.127894,0.442775,0.0829709,0.353208,0.162246,0.000485785,2.81
-0.0220041,0.201079,-0.114259,0.422705,-0.0922945,0.35008,-0.141585,-0.012962,-0.197628,0.127934,0.442775,0.0829709,0.353208,0.162234,0.00051135,2.82
-0.0219955,0.201079,-0.114272,0.422688,-0.0923185,0.350069,-0.141609,-0.0129449,-0.197645,0.127894,0.442775,0.0829828,0.353208,0.162246,0.00051135,2.83
-0.0220041,0.201071,-0.114259,0.422688,-0.0923185,0.350069,-0.141609,-0.0129449,-0.197628,0.127921,0.442767,0.0829828,0.353196,0.162246,0.00051135,2.84
-0.0219955,0.201079,-0.114259,0.422688,-0.0922945,0.350057,-0.141609,-0.012962,-0.197645,0.127921,0.442775,0.0829709,0.353196,0.162258,0.000536917,2.85
-0.0219955,0.201079,-0.114272,0.422697,-0.0922945,0.350069,-0.141597,-0.012962,-0.197645,0.127921,0.442767,0.0829709,0.353196,0.162246,0.000536917,2.86
-0.0219955,0.201079,-0.114272,0.422688,-0.0922945,0.350033,-0.141597,-0.012962,-0.197628,0.127921,0.442784,0.0829709,0.353184,0.162234,0.000536917,2.87
-0.021987,0.201071,-0.114259,0.422697,-0.0923185,0.350045,-0.141609,-0.012962,-0.197628,0.127908,0.442784,0.0829709,0.353196,0.162246,0.000536917,2.88
-0.0219955,0.201079,-0.114285,0.422697,-0.0922945,0.350057,-0.141597,-0.0129449,-0.197645,0.127881,0.442767,0.0829828,0.353208,0.162234,0.00051135,2.89
-0.0219955,0.201054,-0.114272,0.422739,-0.0922945,0.350033,-0.141597,-0.0129534,-0.197628,0.127894,0.442775,0.0829828,0.353196,0.162222,0.00051135,2.9
-0.0220041,0.201062,-0.114272,0.422705,-0.0922945,0.350045,-0.141597,-0.0129449,-0.197619,0.127921,0.442758,0.0829709,0.353208,0.162234,0.00051135,2.91
-0.0219955,0.201062,-0.114272,0.422697,-0.0922945,0.350033,-0.141609,-0.012962,-0.197628,0.127921,0.442767,0.0829709,0.353208,0.162222,0.000536917,2.92
-0.0219955,0.201079,-0.114272,0.422697,-0.0922945,0.350033,-0.141597,-0.012962,-0.197636,0.127921,0.442767,0.0829709,0.353208,0.162246,0.000536917,2.93
-0.0219955,0.201062,-0.114285,0.422697,-0.0922825,0.350045,-0.141585,-0.012962,-0.197662,0.127908,0.442775,0.0829709,0.353196,0.162246,0.000536917,2.94
-0.0219955,0.201062,-0.114285,0.422697,-0.0922945,0.350033,-0.141597,-0.0129534,-0.197619,0.127908,0.442784,0.0829828,0.353208,0.162246,0.000536917,2.95
-0.0219955,0.201054,-0.114259,0.422705,-0.0922945,0.350045,-0.141585,-0.0129449,-0.197636,0.127921,0.442775,0.0829589,0.353208,0.162258,0.000536917,2.96
-0.0219698,0.201054,-0.114285,0.422697,-0.0922945,0.350057,-0.141597,-0.0129534,-0.197636,0.127908,0.442784,0.082947,0.353196,0.162246,0.000536917,2.97
-0.021987,0.201062,-0.114299,0.422705,-0.0922945,0.350045,-0.141597,-0.0129534,-0.197628,0.127908,0.442784,0.0829709,0.353196,0.162246,0.000536917,2.98
-0.0219784,0.201062,-0.114259,0.422714,-0.0922945,0.350033,-0.141597,-0.012962,-0.197636,0.127921,0.442767,0.0829709,0.353196,0.162246,0.00051135,2.99
-0.021987,0.201079,-0.114299,0.422697,-0.0923064,0.350045,-0.141609,-0.012962,-0.197628,0.127921,0.442792,0.0829709,0.353208,0.162234,0.00051135,3
-0.0219955,0.201062,-0.114285,0.422697,-0.0923185,0.350033,-0.141609,-0.0129534,-0.197636,0.127921,0.442784,0.0829709,0.353196,0.162234,0.000536917,3.01
-0.0220041,0.201062,-0.114259,0.422697,-0.0923185,0.350033,-0.141609,-0.012962,-0.197628,0.127934,0.442775,0.0829589,0.353208,0.162258,0.000536917,3.02
-0.0219955,0.201062,-0.114285,0.422714,-0.0923185,0.350033,-0.141597,-0.012962,-0.197628,0.127921,0.442775,0.0829709,0.353208,0.162246,0.000536917,3.03
-0.0220041,0.201054,-0.114272,0.422723,-0.0922945,0.35002,-0.141561,-0.012962,-0.197619,0.127921,0.442767,0.0829709,0.353196,0.162234,0.000562483,3.04
-0.021987,0.201062,-0.114272,0.422705,-0.0922945,0.350033,-0.141597,-0.012962,-0.197628,0.127921,0.442775,0.0829709,0.353196,0.162234,0.000562483,3.05
-0.0219698,0.201079,-0.114259,0.422714,-0.0922945,0.350033,-0.141585,-0.012962,-0.197628,0.127934,0.442775,0.0829349,0.353184,0.162234,0.000536917,3.06
-0.021987,0.201071,-0.114245,0.422697,-0.0922945,0.35002,-0.141573,-0.012962,-0.197628,0.127921,0.442775,0.0829709,0.353196,0.162234,0.000562483,3.07
-0.021987,0.201062,-0.114245,0.422705,-0.0922945,0.350033,-0.141597,-0.012962,-0.197636,0.127948,0.442784,0.0829709,0.353208,0.162234,0.000562483,3.08
-0.0219784,0.201079,-0.114259,0.422705,-0.0922945,0.350033,-0.141573,-0.012962,-0.197636,0.127948,0.442767,0.0829709,0.353196,0.162246,0.000536917,3.09
-0.021987,0.201071,-0.114259,0.422714,-0.0922945,0.350033,-0.141597,-0.012962,-0.197602,0.127948,0.442775,0.0829709,0.353208,0.162246,0.000562483,3.1
-0.021987,0.201071,-0.114285,0.422697,-0.0923185,0.350033,-0.141585,-0.012962,-0.197628,0.127975,0.442767,0.0829828,0.353196,0.162246,0.000562483,3.11
-0.0219955,0.201071,-0.114272,0.422697,-0.0922945,0.350033,-0.141609,-0.012962,-0.197636,0.128001,0.442775,0.0829709,0.353196,0.162246,0.00058805,3.12
-0.0220213,0.201062,-0.114299,0.422714,-0.0922945,0.35002,-0.141597,-0.0129534,-0.197628,0.127961,0.44275,0.0829709,0.353208,0.162246,0.00058805,3.13
-0.021987,0.201071,-0.114285,0.422697,-0.0922945,0.35002,-0.141573,-0.0129705,-0.197628,0.127948,0.442758,0.0829709,0.353184,0.162246,0.00058805,3.14
-0.021987,0.201062,-0.114299,0.422705,-0.0923185,0.350033,-0.141585,-0.0129705,-0.197636,0.127961,0.44275,0.0829828,0.353208,0.162234,0.000536917,3.15
-0.021987,0.201071,-0.114259,0.422697,-0.0922945,0.350008,-0.141585,-0.0129705,-0.197636,0.127948,0.44275,0.0829709,0.353208,0.162234,0.000562483,3.16
-0.021987,0.201071,-0.114259,0.422705,-0.0922945,0.350008,-0.141597,-0.012962,-0.197636,0.127948,0.442758,0.0829828,0.353208,0.162246,0.000562483,3.17
-0.021987,0.201071,-0.114245,0.422714,-0.0922945,0.350008,-0.141585,-0.0129534,-0.197628,0.127975,0.442767,0.0829828,0.353196,0.162246,0.00058805,3.18
-0.0219784,0.201071,-0.114259,0.422697,-0.0922825,0.350033,-0.141597,-0.012962,-0.19761,0.127961,0.442767,0.0829828,0.353208,0.162246,0.000562483,3.19
-0.021987,0.201062,-0.114259,0.422688,-0.0922945,0.350008,-0.141585,-0.012962,-0.197619,0.127975,0.442767,0.0829589,0.353208,0.162234,0.000562483,3.2
-0.0219784,0.201079,-0.114272,0.422705,-0.0923185,0.350033,-0.141597,-0.012962,-0.197628,0.127975,0.442758,0.0829828,0.353208,0.162246,0.00058805,3.21
-0.0219784,0.201054,-0.114259,0.42268,-0.0922945,0.35002,-0.141609,-0.012979,-0.197628,0.127961,0.442767,0.0829709,0.353196,0.162234,0.000562483,3.22
-0.0219955,0.201071,-0.114245,0.422697,-0.0922945,0.35002,-0.141585,-0.0129705,-0.197636,0.127975,0.44275,0.0829828,0.353208,0.162246,0.000562483,3.23
-0.0219784,0.201079,-0.114259,0.422731,-0.0922945,0.350008,-0.141573,-0.012962,-0.197636,0.127961,0.442767,0.0829589,0.353208,0.162246,0.000562483,3.24
-0.0219784,0.201071,-0.114245,0.422714,-0.0922945,0.349997,-0.141609,-0.0129534,-0.197636,0.127988,0.442767,0.0829709,0.353208,0.162246,0.00058805,3.25
-0.021987,0.201062,-0.114245,0.422705,-0.0923185,0.349997,-0.141609,-0.012962,-0.197628,0.127961,0.442775,0.0829828,0.353208,0.162246,0.00058805,3.26
-0.0219784,0.201062,-0.114272,0.422697,-0.0922945,0.350008,-0.141585,-0.012962,-0.197636,0.127961,0.442767,0.0829709,0.353208,0.162246,0.000562483,3.27
-0.021987,0.201062,-0.114245,0.422705,-0.0923185,0.350008,-0.141585,-0.0129534,-0.19761,0.127961,0.442767,0.0829709,0.35322,0.162246,0.00051135,3.28
-0.021987,0.201079,-0.114245,0.422723,-0.0922945,0.349997,-0.141609,-0.012962,-0.197645,0.127975,0.442767,0.0829709,0.353196,0.162246,0.000562483,3.29
-0.0219784,0.201062,-0.114272,0.422697,-0.0922945,0.349997,-0.141597,-0.012962,-0.197628,0.127961,0.442767,0.0829828,0.353196,0.162246,0.000562483,3.3
-0.0219955,0.201062,-0.114259,0.422688,-0.0922825,0.350008,-0.141609,-0.012962,-0.197636,0.127948,0.442775,0.0829828,0.353196,0.162246,0.000562483,3.31
-0.021987,0.201062,-0.114245,0.422705,-0.0922945,0.349997,-0.141585,-0.012962,-0.197636,0.127961,0.442758,0.0829589,0.353208,0.162246,0.000562483,3.32
-0.0219955,0.201062,-0.114299,0.422697,-0.0923185,0.350008,-0.141609,-0.012962,-0.197628,0.127961,0.442775,0.0829709,0.35322,0.162246,0.000562483,3.33
-0.021987,0.201062,-0.114259,0.422731,-0.0922945,0.349997,-0.141585,-0.012962,-0.197619,0.127948,0.442784,0.0829709,0.353196,0.162246,0.000562483,3.34
-0.0219955,0.201054,-0.114259,0.422688,-0.0922825,0.350008,-0.141585,-0.0129534,-0.197628,0.127961,0.442767,0.0829709,0.353208,0.162246,0.000562483,3.35
-0.0219955,0.201062,-0.114272,0.422723,-0.0922945,0.350008,-0.141585,-0.012962,-0.197619,0.127934,0.442775,0.0829709,0.353208,0.162246,0.000536917,3.36
-0.0219955,0.201062,-0.114272,0.422697,-0.0922945,0.349997,-0.141573,-0.0129534,-0.197628,0.127975,0.442767,0.0829709,0.353196,0.162246,0.000536917,3.37
-0.0219955,0.201062,-0.114285,0.422697,-0.0922945,0.350008,-0.141597,-0.012962,-0.197628,0.127948,0.442775,0.0829709,0.353208,0.162246,0.000562483,3.38
-0.0219955,0.201062,-0.114272,0.422697,-0.0922945,0.349997,-0.141597,-0.0129534,-0.197636,0.127948,0.442767,0.0829709,0.353208,0.162246,0.000562483,3.39
-0.021987,0.201062,-0.114272,0.422697,-0.0922945,0.349997,-0.141585,-0.012962,-0.197628,0.127921,0.442758,0.0829828,0.353184,0.162246,0.000562483,3.4
-0.0219784,0.201062,-0.114272,0.422697,-0.0923064,0.349997,-0.141585,-0.012962,-0.197628,0.127961,0.442775,0.0829709,0.353196,0.162234,0.000536917,3.41
-0.021987,0.201062,-0.114272,0.422697,-0.0922945,0.349997,-0.141609,-0.0129449,-0.197636,0.127948,0.442775,0.0829949,0.353208,0.162234,0.000536917,3.42
-0.021987,0.201062,-0.114285,0.422697,-0.0922945,0.349997,-0.141597,-0.0129534,-0.197636,0.127921,0.442775,0.0829709,0.353208,0.162234,0.000562483,3.43
-0.0219784,0.201062,-0.114285,0.422697,-0.0922945,0.350008,-0.141573,-0.012962,-0.197636,0.127921,0.442767,0.0829709,0.353208,0.162246,0.00051135,3.44
-0.021987,0.201062,-0.114272,0.422714,-0.0922945,0.349973,-0.141585,-0.012962,-0.197636,0.127934,0.442767,0.0829828,0.353208,0.162234,0.000536917,3.45
-0.021987,0.201062,-0.114219,0.422714,-0.0923185,0.349997,-0.141597,-0.012962,-0.197628,0.127921,0.442775,0.0829709,0.353184,0.162246,0.00051135,3.46
-0.021987,0.201062,-0.114259,0.422705,-0.0922945,0.349997,-0.141585,-0.0129705,-0.19761,0.127921,0.442784,0.0829709,0.353208,0.162222,0.000562483,3.47
-0.0219955,0.201062,-0.114259,0.422697,-0.0923064,0.349985,-0.141573,-0.0129534,-0.197628,0.127908,0.442784,0.0829709,0.353208,0.162234,0.000562483,3.48
-0.0219955,0.201062,-0.114272,0.422723,-0.0922945,0.349997,-0.141597,-0.0129705,-0.197636,0.127934,0.442784,0.0829589,0.353208,0.162234,0.000562483,3.49
-0.0219784,0.201071,-0.114259,0.422697,-0.0922945,0.349973,-0.141609,-0.012962,-0.197619,0.127934,0.442775,0.0829709,0.353208,0.162246,0.000562483,3.5
-0.0219531,0.201054,-0.114272,0.422714,-0.0922945,0.349985,-0.141609,-0.012962,-0.197628,0.127934,0.442784,0.0829828,0.35322,0.162246,0.000536917,3.51
-0.0219784,0.201062,-0.114272,0.422748,-0.0922945,0.349985,-0.141585,-0.012962,-0.197619,0.127934,0.442784,0.0829709,0.353196,0.162246,0.00051135,3.52
-0.021987,0.201071,-0.114299,0.422714,-0.0922945,0.349985,-0.141597,-0.0129534,-0.19761,0.127948,0.442775,0.0829589,0.35322,0.162246,0.000536917,3.53
-0.021987,0.201062,-0.114285,0.422714,-0.0922945,0.349973,-0.141597,-0.0129449,-0.197628,0.127961,0.442784,0.0829709,0.353196,0.162234,0.000536917,3.54
-0.0219784,0.201062,-0.114272,0.422723,-0.0922945,0.349973,-0.141585,-0.0129534,-0.197628,0.127988,0.442775,0.0829709,0.353184,0.162234,0.000562483,3.55
-0.0219617,0.201071,-0.114272,0.422705,-0.0922945,0.349973,-0.141573,-0.012962,-0.197636,0.127961,0.442801,0.0829709,0.353208,0.162246,0.00058805,3.56
-0.021987,0.201062,-0.114272,0.422705,-0.0922945,0.349985,-0.141585,-0.012979,-0.197645,0.127961,0.442784,0.0829589,0.353208,0.162246,0.000562483,3.57
-0.0219784,0.201054,-0.114272,0.422714,-0.0922706,0.349985,-0.141585,-0.012962,-0.197636,0.127961,0.442775,0.0829709,0.353208,0.162234,0.000562483,3.58
-0.021987,0.201037,-0.114259,0.422723,-0.0922945,0.349973,-0.141609,-0.012962,-0.197636,0.127961,0.442784,0.0829709,0.353196,0.162246,0.000562483,3.59
-0.021987,0.201045,-0.114259,0.422723,-0.0922945,0.349985,-0.141573,-0.012962,-0.197636,0.127975,0.442784,0.0829709,0.353196,0.162246,0.000536917,3.6
-0.021987,0.201071,-0.114285,0.422723,-0.0922945,0.349985,-0.141597,-0.012962,-0.197619,0.127961,0.442784,0.0829709,0.353208,0.162246,0.000562483,3.61
-0.0219784,0.201062,-0.114259,0.422723,-0.0922945,0.349985,-0.141585,-0.012962,-0.197628,0.127961,0.442792,0.0829828,0.353208,0.162246,0.000562483,3.62
-0.0219784,0.201062,-0.114272,0.422731,-0.0922945,0.349949,-0.141609,-0.012962,-0.19761,0.127988,0.442775,0.0829709,0.353196,0.162234,0.000562483,3.63
-0.0219784,0.201071,-0.114245,0.422723,-0.0922945,0.349961,-0.141597,-0.0129705,-0.197628,0.127961,0.442784,0.0829949,0.353208,0.162234,0.000562483,3.64
-0.0219784,0.201062,-0.114259,0.422714,-0.0922945,0.349985,-0.141585,-0.0129534,-0.197628,0.127975,0.442784,0.0829709,0.353196,0.162246,0.000562483,3.65
-0.0219784,0.201045,-0.114259,0.422723,-0.0922945,0.349973,-0.141573,-0.012962,-0.197628,0.127948,0.442784,0.0829709,0.353196,0.162246,0.00058805,3.66
-0.0219698,0.201045,-0.114299,0.422731,-0.0922945,0.349973,-0.141573,-0.012962,-0.197628,0.127988,0.442767,0.0829828,0.353208,0.162246,0.00058805,3.67
-0.0219531,0.201054,-0.114272,0.422723,-0.0922945,0.349973,-0.141585,-0.0129705,-0.197619,0.127975,0.442784,0.0829828,0.353196,0.162246,0.00058805,3.68
-0.0219531,0.201054,-0.114245,0.422723,-0.0922945,0.349961,-0.141573,-0.012962,-0.197619,0.127975,0.442775,0.0829828,0.353196,0.162234,0.000562483,3.69
-0.0219784,0.201071,-0.114245,0.422723,-0.0922945,0.349973,-0.141609,-0.012962,-0.197628,0.127961,0.442775,0.0829828,0.353208,0.162246,0.000562483,3.7
-0.0219698,0.201088,-0.114245,0.422714,-0.0922945,0.349973,-0.141585,-0.012962,-0.197602,0.127988,0.442775,0.0829828,0.353196,0.162246,0.000562483,3.71
-0.0219784,0.201071,-0.114259,0.422723,-0.0922945,0.349973,-0.141597,-0.0129705,-0.19761,0.127961,0.442784,0.0829709,0.353196,0.162246,0.00058805,3.72
-0.0219698,0.201079,-0.114259,0.422697,-0.0922825,0.349961,-0.141573,-0.012979,-0.19761,0.127988,0.442784,0.0829828,0.353196,0.162246,0.00058805,3.73
-0.0219531,0.201079,-0.114245,0.422714,-0.0922945,0.349961,-0.141585,-0.012962,-0.197619,0.127988,0.442767,0.0829828,0.353208,0.162246,0.000536917,3.74
-0.0219531,0.201071,-0.114259,0.422714,-0.0922945,0.349961,-0.141609,-0.012962,-0.197602,0.127975,0.442784,0.0829709,0.353208,0.162234,0.000639183,3.75
-0.0219531,0.201071,-0.114259,0.422697,-0.0922945,0.349949,-0.141597,-0.012962,-0.197628,0.127975,0.442767,0.0829949,0.353208,0.162246,0.00058805,3.76
-0.0219617,0.201071,-0.114245,0.422714,-0.0923064,0.349973,-0.141597,-0.012979,-0.197628,0.127988,0.442767,0.0829709,0.353196,0.162246,0.00058805,3.77
-0.0219445,0.201071,-0.114245,0.422705,-0.0922945,0.349961,-0.141597,-0.012962,-0.197619,0.127988,0.442767,0.0829709,0.353208,0.162246,0.000562483,3.78
-0.0219531,0.201079,-0.114272,0.422723,-0.0922706,0.349973,-0.141585,-0.012962,-0.197619,0.127975,0.442784,0.0829709,0.353196,0.162246,0.000562483,3.79
-0.0219617,0.201071,-0.114245,0.422714,-0.0922945,0.349961,-0.141621,-0.012962,-0.197619,0.127975,0.442775,0.0829709,0.353208,0.162246,0.00058805,3.8
-0.0219531,0.201079,-0.114272,0.422723,-0.0922945,0.349961,-0.141585,-0.012962,-0.197619,0.127975,0.442775,0.0829709,0.353196,0.162246,0.00058805,3.81
-0.0219531,0.201071,-0.114259,0.422705,-0.0922945,0.349973,-0.141573,-0.0129534,-0.197628,0.127975,0.442784,0.0829828,0.353208,0.162258,0.000562483,3.82
-0.0219784,0.201062,-0.114259,0.422714,-0.0922825,0.349949,-0.141585,-0.012962,-0.197628,0.127975,0.442775,0.0829709,0.353208,0.162258,0.000562483,3.83
-0.0219784,0.201062,-0.114259,0.422705,-0.0922945,0.349949,-0.141597,-0.012962,-0.197619,0.127975,0.442767,0.0829709,0.353184,0.162246,0.00058805,3.84
-0.0219784,0.201062,-0.114259,0.422723,-0.0922945,0.349961,-0.141597,-0.012979,-0.197636,0.127975,0.442767,0.0829589,0.353196,0.162246,0.00058805,3.85
-0.0219784,0.201079,-0.114245,0.422714,-0.0922945,0.349961,-0.141573,-0.012962,-0.197619,0.127988,0.442767,0.082947,0.353196,0.162246,0.000562483,3.86
-0.0219617,0.201079,-0.114272,0.422723,-0.0922945,0.349949,-0.141585,-0.012962,-0.19761,0.128001,0.442792,0.0829828,0.353196,0.162246,0.00058805,3.87
-0.0219531,0.201071,-0.114272,0.422723,-0.0922945,0.349949,-0.141609,-0.0129534,-0.197619,0.127988,0.442784,0.0829709,0.353208,0.162234,0.000562483,3.88
-0.021987,0.201079,-0.114259,0.422714,-0.0922945,0.349961,-0.141585,-0.012962,-0.197628,0.127988,0.442775,0.0829709,0.353196,0.162246,0.000562483,3.89
-0.0219445,0.201062,-0.114259,0.422731,-0.0922945,0.349961,-0.141573,-0.0129534,-0.197619,0.127988,0.442775,0.0829828,0.353208,0.162246,0.000562483,3.9
-0.0219698,0.201062,-0.114259,0.422723,-0.0922945,0.349949,-0.141585,-0.0129534,-0.197628,0.127988,0.442784,0.0829709,0.353208,0.162246,0.00058805,3.91
-0.0219698,0.201079,-0.114259,0.422697,-0.0922945,0.349925,-0.141585,-0.012962,-0.19761,0.128001,0.442792,0.0829828,0.353196,0.162246,0.000562483,3.92
-0.0219784,0.201062,-0.114259,0.422697,-0.0922945,0.349937,-0.141609,-0.012962,-0.197628,0.127975,0.442784,0.0829709,0.353208,0.162258,0.00058805,3.93
-0.0219698,0.201062,-0.114259,0.422697,-0.0922945,0.349937,-0.141597,-0.012962,-0.197636,0.127975,0.442784,0.0829828,0.353208,0.162246,0.000562483,3.94
-0.021987,0.201062,-0.114259,0.422714,-0.0923185,0.349949,-0.141609,-0.0129534,-0.197628,0.127975,0.442784,0.0829709,0.353208,0.162246,0.000562483,3.95
-0.0219617,0.201062,-0.114259,0.422731,-0.0922945,0.349925,-0.141585,-0.012962,-0.197636,0.127988,0.442792,0.0829709,0.353208,0.162246,0.000536917,3.96
-0.0219445,0.201079,-0.114272,0.422705,-0.0922945,0.349949,-0.141597,-0.012962,-0.197619,0.127975,0.442784,0.0829589,0.353196,0.162246,0.000562483,3.97
-0.0219784,0.201062,-0.114272,0.422705,-0.0922945,0.349925,-0.141585,-0.0129449,-0.197636,0.127975,0.442775,0.0829709,0.353208,0.162234,0.000562483,3.98
-0.0219784,0.201062,-0.114285,0.422705,-0.0922945,0.349925,-0.141597,-0.0129449,-0.197619,0.127975,0.442784,0.0829828,0.353196,0.162246,0.000562483,3.99
-0.0219531,0.201054,-0.114259,0.422714,-0.0922945,0.349925,-0.141597,-0.012962,-0.197628,0.127988,0.442784,0.0829828,0.35322,0.162258,0.000536917,4
-0.0219617,0.201062,-0.114272,0.422739,-0.0922945,0.349937,-0.141609,-0.0129534,-0.197628,0.127975,0.442784,0.0829828,0.353196,0.162246,0.000562483,4.01
-0.021987,0.201062,-0.114245,0.422705,-0.0922945,0.349937,-0.141573,-0.012962,-0.19761,0.127961,0.442784,0.0829709,0.353196,0.162246,0.000536917,4.02
-0.0219698,0.201071,-0.114285,0.422697,-0.0922945,0.349937,-0.141561,-0.0129449,-0.197628,0.127975,0.442784,0.0829709,0.353208,0.162246,0.000536917,4.03
-0.021987,0.201071,-0.114272,0.422714,-0.0922945,0.349925,-0.141573,-0.0129534,-0.197628,0.127948,0.442792,0.0829709,0.353196,0.162246,0.00051135,4.04
-0.0219784,0.201071,-0.114285,0.422723,-0.0922945,0.349937,-0.141585,-0.0129534,-0.197619,0.127975,0.442784,0.0829828,0.353196,0.162246,0.000562483,4.05
-0.0219784,0.201037,-0.114272,0.422731,-0.0923185,0.349937,-0.141609,-0.012962,-0.197636,0.127948,0.442775,0.0829709,0.353208,0.162246,0.000562483,4.06
-0.0219698,0.201062,-0.114272,0.422723,-0.0922945,0.349913,-0.141597,-0.012962,-0.197645,0.127961,0.442784,0.082947,0.353208,0.162258,0.00051135,4.07
-0.0219531,0.201062,-0.114285,0.422723,-0.0922945,0.349913,-0.141585,-0.012962,-0.197619,0.127988,0.442775,0.0829709,0.353208,0.162246,0.00051135,4.08
-0.0219617,0.201054,-0.114272,0.422723,-0.0922945,0.349913,-0.141585,-0.0129534,-0.197636,0.127961,0.442784,0.0829709,0.353208,0.162246,0.000536917,4.09
-0.0219617,0.201054,-0.114259,0.422697,-0.0922945,0.349901,-0.141585,-0.012962,-0.197619,0.127975,0.442792,0.0829709,0.353196,0.162246,0.000562483,4.1
-0.0219531,0.201062,-0.114285,0.422705,-0.0923185,0.349913,-0.141585,-0.012962,-0.19761,0.127948,0.442784,0.0829709,0.353208,0.162246,0.000536917,4.11
-0.0219617,0.201062,-0.114259,0.422705,-0.0922945,0.349949,-0.141585,-0.0129534,-0.197628,0.127961,0.442784,0.0829709,0.353208,0.162246,0.000562483,4.12
-0.0219617,0.201062,-0.114272,0.422723,-0.0922945,0.349949,-0.141573,-0.012962,-0.197645,0.127988,0.442784,0.082947,0.35322,0.162246,0.000562483,4.13
-0.0219617,0.201071,-0.114285,0.422714,-0.0922945,0.349913,-0.141573,-0.012962,-0.197619,0.127975,0.442775,0.0829709,0.353208,0.162234,0.000562483,4.14
-0.0219617,0.201062,-0.114272,0.422705,-0.0922945,0.349913,-0.141597,-0.012962,-0.197619,0.127975,0.442775,0.0829709,0.353184,0.162246,0.00051135,4.15
-0.0219617,0.201071,-0.114285,0.422705,-0.0922945,0.349913,-0.141597,-0.0129449,-0.19761,0.127975,0.442784,0.0829709,0.353208,0.162246,0.000536917,4.16
-0.0219617,0.201062,-0.114285,0.422714,-0.0922945,0.349913,-0.141609,-0.012962,-0.197628,0.127975,0.442775,0.0829709,0.35322,0.162234,0.000536917,4.17
-0.0219617,0.201054,-0.114285,0.422723,-0.0922945,0.349901,-0.141585,-0.012962,-0.197628,0.127961,0.442784,0.0829589,0.353196,0.162246,0.000562483,4.18
-0.021987,0.201054,-0.114272,0.422723,-0.0923064,0.349925,-0.141597,-0.0129705,-0.197619,0.127961,0.442775,0.0829709,0.353208,0.162246,0.000536917,4.19
-0.0219698,0.201054,-0.114272,0.422723,-0.0922945,0.349913,-0.141585,-0.012962,-0.197628,0.127975,0.442784,0.0829709,0.353208,0.162246,0.000536917,4.2
-0.0219698,0.201054,-0.114245,0.422714,-0.0922945,0.349913,-0.141597,-0.012962,-0.197628,0.127988,0.442775,0.0829709,0.353208,0.162246,0.000562483,4.21
-0.0219617,0.201062,-0.114272,0.422723,-0.0922945,0.349913,-0.141585,-0.0129534,-0.197628,0.127988,0.442784,0.0829709,0.353196,0.162246,0.000562483,4.22
-0.0219617,0.201062,-0.114259,0.422723,-0.0922945,0.349913,-0.141597,-0.012962,-0.197636,0.127988,0.442775,0.0829709,0.353196,0.162246,0.000562483,4.23
-0.0219531,0.201062,-0.114272,0.422723,-0.0922945,0.349913,-0.141597,-0.012979,-0.197619,0.127988,0.442775,0.0829828,0.353208,0.162258,0.000562483,4.24
-0.0219531,0.201062,-0.114272,0.422723,-0.0922945,0.349901,-0.141585,-0.012962,-0.197628,0.127975,0.442775,0.0829589,0.353196,0.162234,0.000562483,4.25
-0.0219784,0.201062,-0.114285,0.422705,-0.0922945,0.349913,-0.141597,-0.012962,-0.197619,0.128001,0.442792,0.0829828,0.353208,0.162234,0.00058805,4.26
-0.0219784,0.201062,-0.114259,0.422705,-0.0922945,0.349913,-0.141597,-0.0129705,-0.197628,0.128001,0.442775,0.0829828,0.353196,0.162246,0.00058805,4.27
-0.0219617,0.201062,-0.114272,0.422705,-0.0922825,0.349913,-0.141585,-0.012962,-0.197628,0.127988,0.442775,0.0829589,0.353196,0.162246,0.00058805,4.28
-0.0219698,0.201062,-0.114259,0.422714,-0.0922825,0.349901,-0.141597,-0.012962,-0.19761,0.127988,0.442758,0.0829589,0.353208,0.162246,0.00058805,4.29
-0.0219531,0.201062,-0.114245,0.422723,-0.0922945,0.349901,-0.141585,-0.012962,-0.197619,0.127975,0.442767,0.0829589,0.353196,0.162246,0.00058805,4.3
-0.0219698,0.201062,-0.114245,0.422723,-0.0922825,0.349913,-0.141585,-0.012962,-0.197628,0.127988,0.442767,0.0829709,0.353196,0.162246,0.00058805,4.31
-0.0219698,0.201054,-0.114259,0.422723,-0.0922945,0.349913,-0.141573,-0.0129705,-0.19761,0.128001,0.442767,0.0829589,0.353208,0.162246,0.000562483,4.32
-0.0219698,0.201062,-0.114259,0.422714,-0.0922945,0.349913,-0.141585,-0.012962,-0.197619,0.128001,0.442767,0.0829709,0.353196,0.162246,0.000562483,4.33
-0.0219531,0.201062,-0.114272,0.422705,-0.0922945,0.349913,-0.141597,-0.012962,-0.19761,0.128028,0.442767,0.0829709,0.353208,0.162246,0.00058805,4.34
-0.0219445,0.201062,-0.114272,0.422723,-0.0922945,0.349901,-0.141573,-0.0129534,-0.19761,0.128015,0.442775,0.0829709,0.353208,0.162246,0.00058805,4.35
-0.0219617,0.201079,-0.114245,0.422705,-0.0922945,0.349913,-0.141597,-0.012962,-0.197628,0.128001,0.442775,0.0829709,0.353196,0.16227,0.000562483,4.36
-0.0219531,0.201062,-0.114259,0.422723,-0.0922945,0.349913,-0.141585,-0.012962,-0.19761,0.127988,0.442775,0.0829709,0.353208,0.162246,0.00058805,4.37001
-0.0219445,0.201062,-0.114259,0.422723,-0.0922945,0.349913,-0.141597,-0.012979,-0.197619,0.128001,0.442784,0.0829828,0.353196,0.162246,0.000613617,4.38001
-0.0219698,0.201062,-0.114272,0.422739,-0.0923185,0.349901,-0.141573,-0.012979,-0.197619,0.127988,0.442775,0.0829828,0.353208,0.162246,0.00058805,4.39001
-0.0219617,0.201062,-0.114272,0.422697,-0.0922945,0.349901,-0.141597,-0.012962,-0.19761,0.128015,0.442767,0.0829709,0.353208,0.162246,0.00058805,4.40001
-0.0219698,0.201062,-0.114272,0.422723,-0.0922945,0.349913,-0.141597,-0.0129705,-0.197619,0.127975,0.442767,0.0829709,0.353208,0.162246,0.000562483,4.41001
-0.0219531,0.201062,-0.114272,0.422731,-0.0922945,0.349901,-0.141585,-0.012962,-0.197619,0.128001,0.442775,0.0829828,0.353208,0.162246,0.000562483,4.42001
-0.0219531,0.201079,-0.114259,0.422723,-0.0922945,0.349901,-0.141585,-0.0129534,-0.19761,0.128001,0.442775,0.0829709,0.353208,0.162246,0.000562483,4.43001
-0.0219531,0.201062,-0.114272,0.422739,-0.0922825,0.349901,-0.141585,-0.012962,-0.197619,0.128015,0.442784,0.0829828,0.353208,0.162246,0.000562483,4.44001
-0.0219698,0.201062,-0.114299,0.422731,-0.0923185,0.349913,-0.141585,-0.0129534,-0.197602,0.127988,0.442767,0.0829709,0.353208,0.162246,0.000562483,4.45001
-0.0219698,0.201062,-0.114285,0.422723,-0.0923185,0.349913,-0.141585,-0.012962,-0.19761,0.127961,0.442784,0.0829589,0.353196,0.162246,0.000562483,4.46001
-0.0219698,0.201062,-0.114285,0.422723,-0.0922945,0.349925,-0.141585,-0.012962,-0.197628,0.128001,0.442792,0.0829709,0.353208,0.162258,0.00058805,4.47001
-0.0219531,0.201062,-0.114285,0.422705,-0.0922945,0.349913,-0.141597,-0.012962,-0.197619,0.127988,0.442784,0.0829709,0.353208,0.16227,0.00058805,4.48001
-0.0219617,0.201062,-0.114299,0.422714,-0.0922945,0.349889,-0.141585,-0.012962,-0.197619,0.127975,0.442784,0.0829709,0.353208,0.162246,0.000562483,4.49001
-0.021987,0.201054,-0.114285,0.422714,-0.0922945,0.349901,-0.141597,-0.012962,-0.197619,0.127988,0.442775,0.0829589,0.353196,0.162234,0.000536917,4.50001
-0.0219617,0.201062,-0.114285,0.422714,-0.0922945,0.349901,-0.141585,-0.0129534,-0.197619,0.127988,0.442775,0.0829709,0.353196,0.162246,0.000536917,4.51001
-0.0219698,0.201079,-0.114272,0.422723,-0.0922945,0.349913,-0.141609,-0.012962,-0.197619,0.127988,0.442775,0.0829709,0.353208,0.162246,0.000536917,4.52001
-0.0219617,0.201045,-0.114272,0.422723,-0.0922945,0.349901,-0.141597,-0.012962,-0.197628,0.127975,0.442784,0.0829709,0.353196,0.162246,0.000562483,4.53001
-0.0219531,0.201062,-0.114272,0.422731,-0.0922945,0.349901,-0.141585,-0.012962,-0.197628,0.127988,0.442784,0.0829589,0.353208,0.162246,0.000562483,4.54001
-0.0219617,0.201062,-0.114299,0.422731,-0.0923064,0.349913,-0.141573,-0.012962,-0.197628,0.127988,0.442801,0.0829828,0.353196,0.162234,0.000536917,4.55001
-0.0219617,0.201062,-0.114299,0.422714,-0.0922945,0.349901,-0.141585,-0.012962,-0.197619,0.127961,0.442775,0.0829709,0.353208,0.162246,0.000536917,4.56001
-0.0219617,0.201045,-0.114285,0.422714,-0.0922945,0.349901,-0.141597,-0.012962,-0.197619,0.127961,0.442775,0.0829828,0.35322,0.162246,0.000562483,4.57001
-0.0219531,0.201045,-0.114299,0.422723,-0.0922945,0.349913,-0.141585,-0.012962,-0.197619,0.127975,0.442801,0.0829709,0.353208,0.162246,0.000536917,4.58001
-0.0219784,0.201054,-0.114299,0.422714,-0.0922945,0.349901,-0.141597,-0.012979,-0.197619,0.127975,0.442801,0.0829828,0.353196,0.162234,0.000536917,4.59001
-0.0219617,0.201054,-0.114285,0.422697,-0.0922945,0.349925,-0.141609,-0.012962,-0.19761,0.127988,0.442784,0.082947,0.353208,0.162246,0.000536917,4.60001
-0.0219531,0.201071,-0.114285,0.422714,-0.0922945,0.349889,-0.141597,-0.012962,-0.19761,0.127975,0.442784,0.082947,0.353196,0.162246,0.000536917,4.61001
-0.0219617,0.201054,-0.114272,0.422714,-0.0922945,0.349901,-0.141585,-0.012962,-0.197636,0.127948,0.442784,0.0829709,0.353196,0.162246,0.000536917,4.62001
-0.0219784,0.201054,-0.114272,0.422705,-0.0922945,0.349889,-0.141597,-0.012962,-0.197645,0.127975,0.442784,0.0829709,0.353208,0.162258,0.000536917,4.63001
-0.0219698,0.201045,-0.114272,0.422697,-0.0922945,0.349901,-0.141597,-0.012962,-0.197628,0.127975,0.442784,0.0829709,0.353208,0.162258,0.000536917,4.64001
-0.0219531,0.201054,-0.114285,0.422723,-0.0922945,0.349901,-0.141597,-0.0129449,-0.197628,0.127961,0.442784,0.0829589,0.353208,0.162246,0.000536917,4.65001
-0.0219698,0.201054,-0.114285,0.422714,-0.0922945,0.349889,-0.141573,-0.012962,-0.197619,0.127961,0.442792,0.0829709,0.35322,0.162246,0.00058805,4.66001
-0.0219617,0.201062,-0.114285,0.422723,-0.0922825,0.349889,-0.141597,-0.012962,-0.197619,0.127948,0.442784,0.0829828,0.353196,0.162246,0.000562483,4.67001
-0.0219698,0.201045,-0.114285,0.422723,-0.0922945,0.349913,-0.141585,-0.012962,-0.19761,0.127975,0.442775,0.0829709,0.353208,0.162246,0.000562483,4.68001
-0.0219617,0.201045,-0.114272,0.422714,-0.0922945,0.349901,-0.141597,-0.012962,-0.197619,0.127975,0.442784,0.0829828,0.353196,0.162246,0.000536917,4.69001
-0.0219531,0.201062,-0.114285,0.422731,-0.0922945,0.349889,-0.141585,-0.0129449,-0.19761,0.127975,0.442775,0.0829709,0.353196,0.162246,0.000536917,4.70001
-0.0219617,0.201054,-0.114285,0.422697,-0.0922825,0.349901,-0.141573,-0.012962,-0.197602,0.127975,0.442792,0.0829828,0.353196,0.162246,0.00051135,4.71001
-0.0219531,0.201062,-0.114272,0.422723,-0.0922945,0.349901,-0.141585,-0.0129449,-0.197628,0.127988,0.442767,0.0829709,0.353196,0.162258,0.000536917,4.72001
-0.0219617,0.201054,-0.114285,0.422714,-0.0922945,0.349913,-0.141597,-0.0129534,-0.197628,0.127961,0.442792,0.0829709,0.353208,0.162246,0.00058805,4.73001
-0.0219617,0.201054,-0.114299,0.422723,-0.0922825,0.349901,-0.141585,-0.012962,-0.197636,0.127975,0.442775,0.0829709,0.353208,0.162246,0.000562483,4.74001
-0.0219445,0.201062,-0.114272,0.422714,-0.0923185,0.349901,-0.141573,-0.012979,-0.197628,0.127988,0.442767,0.0829828,0.353196,0.162246,0.000562483,4.75001
-0.0219698,0.201037,-0.114285,0.422705,-0.0922945,0.349901,-0.141609,-0.012979,-0.197628,0.127948,0.442775,0.0829828,0.353196,0.162246,0.000562483,4.76001
-0.0219698,0.201045,-0.114272,0.422714,-0.0922825,0.349901,-0.141585,-0.0129875,-0.197645,0.128001,0.442758,0.0829709,0.353208,0.162246,0.000562483,4.77001
-0.0219698,0.201062,-0.114259,0.422723,-0.0922945,0.349913,-0.141585,-0.012962,-0.197619,0.127988,0.442775,0.0829589,0.353196,0.162246,0.000562483,4.78001
-0.0219784,0.201062,-0.114272,0.422714,-0.0922825,0.349901,-0.141573,-0.0129534,-0.197636,0.127975,0.442775,0.082947,0.353208,0.162246,0.00058805,4.79001
-0.0219784,0.201062,-0.114232,0.422714,-0.0922945,0.349901,-0.141585,-0.012962,-0.19761,0.127988,0.442784,0.0829828,0.353196,0.162246,0.00058805,4.80001
-0.0219617,0.201062,-0.114285,0.422697,-0.0922945,0.349889,-0.141597,-0.012962,-0.19761,0.127988,0.442784,0.0829828,0.353208,0.16227,0.000562483,4.81002
-0.0219531,0.201054,-0.114259,0.422723,-0.0922945,0.349901,-0.141585,-0.012962,-0.197619,0.128001,0.442775,0.0829709,0.353196,0.162246,0.00058805,4.82002
-0.0219784,0.201054,-0.114272,0.422697,-0.0922945,0.349901,-0.141597,-0.012962,-0.197628,0.127988,0.442775,0.0829589,0.353184,0.162246,0.000562483,4.83002
-0.0219784,0.201071,-0.114259,0.422714,-0.0922945,0.349889,-0.141573,-0.012962,-0.19761,0.127988,0.442775,0.0829828,0.353196,0.162246,0.000562483,4.84002
-0.0219784,0.201062,-0.114259,0.422731,-0.0922825,0.349889,-0.141597,-0.012962,-0.197619,0.127988,0.442775,0.0829709,0.353196,0.162246,0.000562483,4.85002
-0.0219617,0.201062,-0.114272,0.422705,-0.0922945,0.349877,-0.141585,-0.012962,-0.197619,0.127988,0.442775,0.0829589,0.353196,0.162246,0.000562483,4.86002
-0.0219531,0.201054,-0.114285,0.422697,-0.0922945,0.349889,-0.141597,-0.0129705,-0.197619,0.127988,0.442758,0.0829709,0.353196,0.162246,0.000562483,4.87002
-0.0219531,0.201054,-0.114259,0.422705,-0.0922945,0.349889,-0.141597,-0.0129449,-0.19761,0.127975,0.442775,0.0829828,0.353196,0.162258,0.000562483,4.88002
-0.021987,0.201062,-0.114259,0.422714,-0.0922945,0.349889,-0.141573,-0.0129449,-0.197619,0.127988,0.442775,0.0829828,0.353208,0.162246,0.000562483,4.89002
-0.0219531,0.201054,-0.114272,0.422705,-0.0922945,0.349889,-0.141573,-0.012962,-0.197628,0.127988,0.442767,0.0829828,0.353208,0.162246,0.00058805,4.90002
-0.0219698,0.201062,-0.114272,0.422705,-0.0922825,0.349877,-0.141573,-0.012962,-0.197628,0.127988,0.442775,0.0829949,0.353208,0.162246,0.000562483,4.91002
-0.0219531,0.201062,-0.114272,0.422723,-0.0922945,0.349877,-0.141597,-0.012962,-0.197619,0.127988,0.442758,0.0829949,0.353208,0.162258,0.00058805,4.92002
-0.0219698,0.201062,-0.114272,0.422705,-0.0923185,0.349889,-0.141573,-0.0129534,-0.19761,0.127988,0.442767,0.0829709,0.353196,0.162234,0.00058805,4.93002
-0.0219698,0.201054,-0.114272,0.422705,-0.0922945,0.349877,-0.141573,-0.012962,-0.197619,0.127988,0.442775,0.0829589,0.353208,0.162246,0.00058805,4.94002
-0.0219445,0.201045,-0.114259,0.422731,-0.0922945,0.349889,-0.141585,-0.012962,-0.197628,0.127975,0.442775,0.0829589,0.353196,0.162258,0.000562483,4.95002
-0.0219445,0.201054,-0.114272,0.422697,-0.0922945,0.349889,-0.141573,-0.0129449,-0.197628,0.127988,0.442767,0.082947,0.353184,0.162246,0.000536917,4.96002
-0.0219531,0.201071,-0.114285,0.422705,-0.0922945,0.349877,-0.141585,-0.0129449,-0.197619,0.127988,0.442775,0.0829709,0.353196,0.162258,0.000536917,4.97002
-0.0219531,0.201062,-0.114272,0.422723,-0.0922945,0.349877,-0.141573,-0.0129449,-0.19761,0.127988,0.442784,0.0829709,0.353208,0.16227,0.000562483,4.98002
-0.0219531,0.201062,-0.114272,0.422714,-0.0922945,0.349889,-0.141585,-0.0129449,-0.19761,0.127975,0.442792,0.0829709,0.353184,0.162246,0.00058805,4.99002
-0.0219698,0.201079,-0.114272,0.422705,-0.0922945,0.349901,-0.141597,-0.012962,-0.197619,0.128001,0.442775,0.0829828,0.353196,0.162246,0.00058805,5.00002
-0.0219698,0.201071,-0.114299,0.422714,-0.0922945,0.349865,-0.141573,-0.012962,-0.197619,0.127975,0.442792,0.0829709,0.353208,0.162246,0.000613617,5.01002
-0.0219531,0.201045,-0.114272,0.422714,-0.0922945,0.349877,-0.141597,-0.0129705,-0.19761,0.127988,0.442784,0.0829349,0.353208,0.162258,0.000562483,5.02002
-0.0219531,0.201054,-0.114285,0.422705,-0.0922945,0.349865,-0.141597,-0.012962,-0.19761,0.127988,0.442792,0.0829828,0.353196,0.162246,0.000562483,5.03002
-0.0219617,0.201062,-0.114285,0.422714,-0.0922945,0.349889,-0.141573,-0.012962,-0.197602,0.127988,0.442775,0.0829709,0.353208,0.162258,0.00051135,5.04002
-0.0219617,0.201062,-0.114285,0.422705,-0.0922825,0.349877,-0.141573,-0.0129534,-0.197619,0.128001,0.442801,0.0829709,0.353196,0.162246,0.000536917,5.05002
-0.0219617,0.201062,-0.114285,0.422714,-0.0922945,0.349901,-0.141573,-0.0129449,-0.197619,0.127988,0.442792,0.0829709,0.353196,0.162246,0.000562483,5.06002
-0.0219698,0.201062,-0.114259,0.422714,-0.0922945,0.349889,-0.141585,-0.012962,-0.19761,0.127975,0.442801,0.0829589,0.353208,0.162246,0.000536917,5.07002
-0.0219531,0.201054,-0.114272,0.422723,-0.0923185,0.349877,-0.141585,-0.012962,-0.197619,0.127988,0.442792,0.0829828,0.353208,0.162246,0.000562483,5.08002
-0.0219531,0.201045,-0.114272,0.422705,-0.0922825,0.349865,-0.141609,-0.012962,-0.197619,0.127988,0.442784,0.0829709,0.353208,0.162246,0.000536917,5.09002
-0.0219445,0.201037,-0.114285,0.422705,-0.0923185,0.349865,-0.141597,-0.012962,-0.197619,0.127961,0.442784,0.0829828,0.353208,0.162246,0.000536917,5.10002
-0.0219531,0.20102,-0.114272,0.422705,-0.0922945,0.349889,-0.141597,-0.012962,-0.197619,0.127975,0.442784,0.0829709,0.353208,0.162258,0.000536917,5.11002
-0.0219617,0.201045,-0.114272,0.422723,-0.0922945,0.349877,-0.141597,-0.0129449,-0.19761,0.127975,0.442775,0.0829949,0.353208,0.162246,0.000536917,5.12002
-0.0219617,0.201054,-0.114272,0.422723,-0.0922945,0.349889,-0.141597,-0.012962,-0.19761,0.127975,0.442784,0.0829828,0.353184,0.162246,0.000536917,5.13002
-0.0219531,0.201071,-0.114272,0.422723,-0.0922945,0.349889,-0.141597,-0.012962,-0.197619,0.127988,0.442784,0.0829709,0.353208,0.162246,0.000562483,5.14002
-0.0219617,0.201054,-0.114299,0.422731,-0.0922945,0.349889,-0.141609,-0.0129534,-0.197619,0.127975,0.442775,0.0829709,0.353196,0.162246,0.000562483,5.15002
-0.0219617,0.201062,-0.114299,0.422714,-0.0922945,0.349877,-0.141585,-0.012962,-0.197619,0.127975,0.442784,0.0829709,0.353208,0.162246,0.000536917,5.16002
-0.0219531,0.201054,-0.114272,0.422723,-0.0922945,0.349877,-0.141561,-0.012962,-0.19761,0.127975,0.442792,0.0829709,0.353208,0.162258,0.000536917,5.17002
-0.0219698,0.201045,-0.114285,0.422714,-0.0922945,0.349889,-0.141585,-0.012962,-0.197619,0.127961,0.442775,0.0829828,0.353208,0.162246,0.000562483,5.18002
-0.0219531,0.201054,-0.114272,0.422697,-0.0922945,0.349877,-0.141573,-0.012962,-0.19761,0.127988,0.442784,0.0829709,0.353196,0.162258,0.000536917,5.19002
-0.0219445,0.201054,-0.114285,0.422705,-0.0922825,0.349865,-0.141597,-0.012962,-0.19761,0.127988,0.442784,0.0829709,0.353196,0.162246,0.000562483,5.20002
-0.0219445,0.201054,-0.114299,0.422697,-0.0922945,0.349877,-0.141585,-0.0129449,-0.19761,0.127975,0.442784,0.0829709,0.353208,0.162246,0.000562483,5.21002
-0.0219531,0.201062,-0.114285,0.422697,-0.0922945,0.349865,-0.141609,-0.012962,-0.197619,0.127988,0.442767,0.0829709,0.353196,0.162246,0.000562483,5.22002
-0.0219784,0.201054,-0.114272,0.422697,-0.0922945,0.349853,-0.141573,-0.0129449,-0.19761,0.127988,0.442784,0.0829828,0.353208,0.16227,0.000536917,5.23002
-0.0219617,0.201054,-0.114285,0.422723,-0.0923185,0.349877,-0.141585,-0.012962,-0.197619,0.127975,0.442784,0.0829828,0.353196,0.162234,0.000562483,5.24003
-0.0219617,0.201045,-0.114272,0.422723,-0.0922945,0.349853,-0.141597,-0.0129534,-0.197619,0.127948,0.442775,0.0829828,0.353208,0.162246,0.000536917,5.25003
-0.0219531,0.201045,-0.114285,0.422697,-0.0922945,0.349853,-0.141585,-0.0129705,-0.197619,0.127988,0.442767,0.0829828,0.353208,0.162246,0.000562483,5.26003
-0.0219698,0.201037,-0.114285,0.422697,-0.0922945,0.349865,-0.141597,-0.012962,-0.19761,0.127975,0.442767,0.0829709,0.353208,0.16227,0.000536917,5.27003
-0.0219531,0.201054,-0.114272,0.422705,-0.0922945,0.349889,-0.141573,-0.012962,-0.197619,0.127975,0.442775,0.0829828,0.353208,0.162258,0.000536917,5.28003
-0.0219531,0.201045,-0.114285,0.422705,-0.0922945,0.349853,-0.141585,-0.012962,-0.19761,0.127975,0.442775,0.0829709,0.353196,0.162246,0.000536917,5.29003
-0.0219698,0.201054,-0.114272,0.422705,-0.0922945,0.349877,-0.141585,-0.0129534,-0.197628,0.127948,0.442775,0.0829589,0.353196,0.162246,0.000536917,5.30003
-0.0219698,0.201045,-0.114272,0.422705,-0.0922825,0.349877,-0.141585,-0.012962,-0.19761,0.127988,0.442792,0.0829709,0.353208,0.162246,0.000562483,5.31003
-0.0219698,0.201054,-0.114285,0.422705,-0.0922945,0.349877,-0.141597,-0.012962,-0.19761,0.127975,0.442784,0.0829709,0.353208,0.162258,0.000536917,5.32003
-0.0219445,0.201045,-0.114272,0.422714,-0.0922945,0.349865,-0.141597,-0.0129449,-0.19761,0.127975,0.442784,0.0829709,0.353208,0.162246,0.000536917,5.33003
-0.0219531,0.201062,-0.114285,0.422731,-0.0922825,0.349865,-0.141597,-0.0129534,-0.19761,0.127988,0.442758,0.0829709,0.353208,0.162246,0.000536917,5.34003
-0.0219531,0.201045,-0.114285,0.422714,-0.0922945,0.349865,-0.141597,-0.0129364,-0.19761,0.127988,0.442775,0.0829828,0.353208,0.162258,0.000536917,5.35003
-0.0219617,0.201037,-0.114285,0.422705,-0.0922825,0.349853,-0.141597,-0.0129449,-0.197602,0.127948,0.442784,0.0829589,0.353208,0.162246,0.000536917,5.36003
-0.0219698,0.201054,-0.114272,0.422723,-0.0922945,0.349853,-0.141597,-0.0129449,-0.19761,0.127975,0.442784,0.082947,0.353196,0.162246,0.000536917,5.37003
-0.0219955,0.201045,-0.114285,0.422714,-0.0922945,0.349853,-0.141585,-0.0129449,-0.19761,0.127988,0.442784,0.0829828,0.353196,0.162258,0.000562483,5.38003
-0.0219617,0.201045,-0.114285,0.422714,-0.0922825,0.349853,-0.141585,-0.012962,-0.197619,0.127988,0.442784,0.0829709,0.353208,0.162246,0.000536917,5.39003
-0.0219531,0.201045,-0.114299,0.422714,-0.0922945,0.349865,-0.141585,-0.012962,-0.19761,0.127975,0.442758,0.0829828,0.353208,0.162246,0.000536917,5.40003
-0.0219445,0.201037,-0.114259,0.422714,-0.0922825,0.349841,-0.141597,-0.012962,-0.19761,0.128001,0.442775,0.0829709,0.353196,0.162246,0.000536917,5.41003
-0.0219531,0.201045,-0.114299,0.422723,-0.0922945,0.349841,-0.141585,-0.0129449,-0.19761,0.127975,0.442775,0.0829828,0.353208,0.162246,0.000536917,5.42003
-0.0219617,0.201028,-0.114272,0.422714,-0.0922945,0.349853,-0.141585,-0.012962,-0.197619,0.127988,0.442784,0.0829589,0.353208,0.162246,0.000562483,5.43003
-0.0219784,0.201037,-0.114272,0.422705,-0.0922945,0.349841,-0.141585,-0.0129534,-0.197628,0.127988,0.442784,0.0829828,0.353208,0.162246,0.00051135,5.44003
-0.0219698,0.201045,-0.114285,0.422714,-0.0922945,0.349853,-0.141597,-0.012962,-0.19761,0.127988,0.442784,0.0829589,0.353208,0.16227,0.000562483,5.45003
-0.0219784,0.201037,-0.114299,0.422739,-0.0922945,0.349865,-0.141573,-0.012962,-0.19761,0.127988,0.442775,0.0829709,0.353196,0.162258,0.000536917,5.46003
-0.0219617,0.201037,-0.114285,0.422723,-0.0922825,0.349841,-0.141597,-0.012962,-0.197619,0.127988,0.442784,0.0829828,0.353208,0.162246,0.000536917,5.47003
-0.0219531,0.201037,-0.114245,0.422739,-0.0922825,0.349841,-0.141597,-0.012962,-0.19761,0.127988,0.442775,0.0829709,0.353208,0.162246,0.000536917,5.48003
-0.0219531,0.20102,-0.114312,0.422723,-0.0922825,0.349865,-0.141597,-0.012962,-0.19761,0.127975,0.442767,0.0829709,0.353196,0.162246,0.000536917,5.49003
-0.0219698,0.201028,-0.114272,0.422723,-0.0922825,0.349865,-0.141597,-0.012962,-0.19761,0.127988,0.442775,0.0829709,0.353208,0.162246,0.000562483,5.50003
-0.0219698,0.201028,-0.114272,0.422714,-0.0922825,0.349841,-0.141585,-0.012962,-0.19761,0.127975,0.442775,0.0829709,0.353196,0.162258,0.000536917,5.51003
-0.0219531,0.201045,-0.114272,0.422723,-0.0922945,0.349865,-0.141573,-0.0129534,-0.19761,0.127988,0.442784,0.0829709,0.353208,0.162246,0.000562483,5.52003
-0.0219617,0.201045,-0.114272,0.422714,-0.0922945,0.349853,-0.141573,-0.012962,-0.19761,0.127988,0.442792,0.0829709,0.353196,0.162258,0.000562483,5.53003
-0.0219531,0.201037,-0.114285,0.422731,-0.0922825,0.349853,-0.141585,-0.0129705,-0.19761,0.127948,0.442784,0.0829709,0.353208,0.162246,0.000536917,5.54003
-0.0219531,0.201028,-0.114272,0.422714,-0.0922945,0.349865,-0.141597,-0.0129449,-0.197619,0.127988,0.442775,0.0829828,0.353208,0.162246,0.000536917,5.55003
-0.0219531,0.201037,-0.114285,0.422697,-0.0922945,0.349841,-0.141585,-0.012962,-0.19761,0.127988,0.442784,0.0829709,0.353208,0.162246,0.000562483,5.56003
-0.0219617,0.201037,-0.114299,0.422723,-0.0922945,0.349853,-0.141573,-0.0129534,-0.197619,0.127988,0.442792,0.0829709,0.353208,0.162246,0.000562483,5.57003
-0.0219531,0.201028,-0.114259,0.422705,-0.0922945,0.349841,-0.141585,-0.012962,-0.19761,0.128001,0.442784,0.0829709,0.353196,0.162246,0.00058805,5.58003
-0.0219531,0.201037,-0.114272,0.422723,-0.0922945,0.349829,-0.141585,-0.0129534,-0.19761,0.127975,0.442775,0.0829709,0.353208,0.162246,0.000536917,5.59003
-0.0219698,0.201037,-0.114272,0.422723,-0.0922945,0.349841,-0.141597,-0.012962,-0.19761,0.127988,0.442775,0.0829709,0.353196,0.162258,0.000536917,5.60003
-0.0219531,0.201054,-0.114285,0.422723,-0.0922945,0.349853,-0.141597,-0.012962,-0.19761,0.127988,0.442784,0.0829709,0.353196,0.16227,0.000536917,5.61003
-0.0219531,0.201045,-0.114272,0.422723,-0.0922945,0.349841,-0.141597,-0.0129449,-0.19761,0.127988,0.442784,0.0829709,0.353196,0.162246,0.000536917,5.62003
-0.0219531,0.201045,-0.114272,0.422739,-0.0922825,0.349853,-0.141585,-0.012962,-0.19761,0.127988,0.442792,0.0829709,0.353208,0.162246,0.000562483,5.63003
-0.0219617,0.201037,-0.114299,0.422739,-0.0923185,0.349829,-0.141573,-0.0129534,-0.197619,0.128001,0.442775,0.0829828,0.353208,0.162246,0.00058805,5.64003
-0.0219531,0.201037,-0.114272,0.422731,-0.0922945,0.349853,-0.141597,-0.012962,-0.197619,0.128001,0.442792,0.0829709,0.353208,0.162246,0.00058805,5.65003
-0.0219531,0.201037,-0.114272,0.422723,-0.0922945,0.349841,-0.141585,-0.0129534,-0.19761,0.127988,0.442775,0.082947,0.353208,0.162246,0.00058805,5.66003
-0.0219359,0.201045,-0.114272,0.422739,-0.0922825,0.349841,-0.141585,-0.012962,-0.197619,0.128001,0.442792,0.0829828,0.353208,0.162246,0.000562483,5.67003
-0.0219531,0.201028,-0.114272,0.422748,-0.0922945,0.349853,-0.141585,-0.0129449,-0.19761,0.128001,0.442784,0.0829709,0.353196,0.162246,0.000562483,5.68004
-0.0219698,0.201054,-0.114299,0.422739,-0.0922945,0.349841,-0.141585,-0.0129449,-0.19761,0.128001,0.442784,0.0829709,0.353196,0.162246,0.000562483,5.69004
-0.0219617,0.201037,-0.114259,0.422739,-0.0922945,0.349853,-0.141597,-0.012962,-0.197619,0.128015,0.442784,0.0829709,0.353196,0.162246,0.000562483,5.70004
-0.0219617,0.201037,-0.114272,0.422739,-0.0922945,0.349841,-0.141585,-0.0129449,-0.197619,0.128001,0.442775,0.0829709,0.353208,0.162246,0.000562483,5.71004
-0.0219445,0.201037,-0.114272,0.422739,-0.0922825,0.349841,-0.141585,-0.012962,-0.19761,0.128001,0.442792,0.0829949,0.353196,0.162258,0.00058805,5.72004
-0.0219445,0.201037,-0.114299,0.422723,-0.0922945,0.349853,-0.141573,-0.012962,-0.19761,0.128028,0.442775,0.0829709,0.353208,0.162246,0.00058805,5.73004
-0.0219531,0.201045,-0.114259,0.422723,-0.0922945,0.349841,-0.141561,-0.012962,-0.19761,0.128028,0.442775,0.0829828,0.353196,0.16227,0.00058805,5.74004
-0.0219617,0.201028,-0.114285,0.422739,-0.0922945,0.349841,-0.141585,-0.012962,-0.19761,0.128001,0.442784,0.0829589,0.353196,0.162246,0.00058805,5.75004
-0.0219531,0.201037,-0.114245,0.422739,-0.0922825,0.349841,-0.141585,-0.0129449,-0.19761,0.128028,0.442784,0.0829709,0.353208,0.162246,0.000562483,5.76004
-0.0219617,0.201045,-0.114299,0.422731,-0.0922945,0.349841,-0.141573,-0.012962,-0.197602,0.128015,0.442784,0.0829828,0.353208,0.162246,0.000562483,5.77004
-0.0219531,0.201045,-0.114259,0.422731,-0.0922945,0.349841,-0.141597,-0.012979,-0.19761,0.128015,0.442775,0.0829709,0.353184,0.162246,0.000562483,5.78004
-0.0219445,0.201045,-0.114245,0.422714,-0.0922945,0.349841,-0.141585,-0.0129705,-0.19761,0.128028,0.442784,0.0829828,0.353208,0.162258,0.000562483,5.79004
-0.0219445,0.201062,-0.114259,0.422731,-0.0922945,0.349853,-0.141585,-0.012962,-0.197602,0.128015,0.442784,0.0829589,0.353196,0.162246,0.000562483,5.80004
-0.0219445,0.201037,-0.114285,0.422723,-0.0922945,0.349829,-0.141585,-0.012962,-0.19761,0.128015,0.442801,0.0829828,0.353208,0.162246,0.000562483,5.81004
-0.0219531,0.201028,-0.114285,0.422739,-0.0922945,0.349853,-0.141597,-0.0129705,-0.197602,0.128015,0.442784,0.0829709,0.353208,0.162258,0.00058805,5.82004
-0.021987,0.201045,-0.114285,0.422723,-0.0922945,0.349841,-0.141597,-0.012962,-0.197619,0.128015,0.442801,0.0829709,0.353208,0.162258,0.00058805,5.83004
-0.0219445,0.201045,-0.114312,0.422731,-0.0922945,0.349841,-0.141585,-0.012962,-0.197619,0.128015,0.442775,0.082947,0.353208,0.162246,0.000562483,5.84004
-0.0219531,0.201045,-0.114272,0.422723,-0.0922945,0.349817,-0.141585,-0.012962,-0.19761,0.128028,0.442775,0.0829709,0.353196,0.162246,0.00058805,5.85004
-0.0219359,0.201037,-0.114285,0.422731,-0.0922825,0.349829,-0.141585,-0.012962,-0.19761,0.128041,0.442775,0.0829709,0.353196,0.162246,0.000562483,5.86004
-0.0219359,0.201037,-0.114272,0.422723,-0.0922945,0.349841,-0.141609,-0.0129875,-0.197628,0.128015,0.442784,0.0829709,0.353208,0.162246,0.000562483,5.87004
-0.0219531,0.201045,-0.114245,0.422731,-0.0922945,0.349841,-0.141597,-0.0129449,-0.197628,0.128015,0.442767,0.0829828,0.353196,0.162246,0.000536917,5.88004
-0.0219359,0.201045,-0.114272,0.422723,-0.0922945,0.349829,-0.141585,-0.0129534,-0.19761,0.128001,0.442784,0.0829709,0.353196,0.162258,0.000562483,5.89004
-0.0219445,0.201045,-0.114285,0.422731,-0.0922945,0.349841,-0.141597,-0.0129449,-0.19761,0.127988,0.442784,0.0829828,0.353184,0.162258,0.000536917,5.90004
-0.0219617,0.201028,-0.114285,0.422723,-0.0922945,0.349817,-0.141597,-0.012962,-0.197602,0.128015,0.442792,0.0829589,0.35322,0.162246,0.000562483,5.91004
-0.0219531,0.201028,-0.114285,0.422731,-0.0922945,0.349841,-0.141585,-0.012962,-0.197602,0.128015,0.442775,0.0829709,0.353208,0.162246,0.000562483,5.92004
-0.0219531,0.201037,-0.114285,0.422731,-0.0922825,0.349841,-0.141597,-0.012962,-0.197619,0.128001,0.442792,0.0829589,0.353208,0.162246,0.000562483,5.93004
-0.0219617,0.201028,-0.114272,0.422723,-0.0922945,0.349829,-0.141585,-0.0129705,-0.197619,0.127975,0.442784,0.0829709,0.353196,0.162246,0.000536917,5.94004
-0.0219445,0.201028,-0.114299,0.422714,-0.0922945,0.349829,-0.141597,-0.0129534,-0.197619,0.127988,0.442784,0.0829828,0.353184,0.16227,0.000562483,5.95004
-0.0219698,0.201037,-0.114299,0.422739,-0.0922945,0.349829,-0.141573,-0.0129534,-0.197636,0.127975,0.442775,0.0829709,0.353208,0.162246,0.000536917,5.96004
-0.0219531,0.201037,-0.114285,0.422739,-0.0922945,0.349841,-0.141609,-0.0129449,-0.197628,0.127988,0.442792,0.0829709,0.353208,0.162246,0.000536917,5.97004
-0.0219531,0.201028,-0.114272,0.422723,-0.0922945,0.349817,-0.141585,-0.0129449,-0.197619,0.128001,0.442784,0.0829709,0.353196,0.162258,0.000536917,5.98004
-0.0219531,0.201037,-0.114299,0.422739,-0.0922945,0.349829,-0.141585,-0.0129705,-0.197619,0.128001,0.442792,0.082947,0.353208,0.162258,0.000562483,5.99004
-0.0219531,0.201028,-0.114299,0.422739,-0.0922945,0.349817,-0.141597,-0.012962,-0.197602,0.127988,0.442801,0.0829828,0.353208,0.162246,0.000536917,6.00004
-0.0219445,0.201037,-0.114285,0.422723,-0.0922945,0.349853,-0.141585,-0.012962,-0.197619,0.127975,0.442792,0.0829589,0.353208,0.162246,0.000562483,6.01004
-0.0219531,0.20102,-0.114272,0.422731,-0.0922825,0.349829,-0.141597,-0.012962,-0.197628,0.128001,0.442784,0.0829589,0.353208,0.162246,0.000536917,6.02004
-0.0219531,0.201045,-0.114259,0.422731,-0.0922825,0.349841,-0.141597,-0.0129534,-0.197619,0.127988,0.442792,0.0829709,0.353196,0.162246,0.000536917,6.03004
-0.0219617,0.201028,-0.114272,0.422731,-0.0922945,0.349817,-0.141597,-0.012962,-0.197619,0.127988,0.442784,0.0829828,0.353196,0.162246,0.00051135,6.04004
-0.0219445,0.201037,-0.114299,0.422739,-0.0922825,0.349841,-0.141597,-0.012962,-0.197619,0.128001,0.442801,0.0829709,0.353208,0.162246,0.00051135,6.05004
-0.0219445,0.20102,-0.114272,0.422739,-0.0922945,0.349841,-0.141597,-0.0129705,-0.197602,0.127975,0.442792,0.082947,0.353208,0.162246,0.000536917,6.06004
-0.0219531,0.201028,-0.114272,0.422723,-0.0922825,0.349841,-0.141585,-0.012962,-0.19761,0.128001,0.442801,0.0829709,0.353208,0.162246,0.000536917,6.07004
-0.0219359,0.20102,-0.114272,0.422723,-0.0922825,0.349817,-0.141585,-0.0129449,-0.19761,0.128001,0.442792,0.0829709,0.353208,0.16227,0.00058805,6.08004
-0.0219531,0.20102,-0.114299,0.422731,-0.0922945,0.349805,-0.141585,-0.012962,-0.197619,0.127975,0.442792,0.0829709,0.35322,0.162246,0.000562483,6.09004
-0.0219445,0.201028,-0.114285,0.422756,-0.0922825,0.349829,-0.141585,-0.012979,-0.197619,0.127988,0.442784,0.0829589,0.353208,0.162258,0.000562483,6.10004
-0.0219359,0.201028,-0.114312,0.422739,-0.0922945,0.349841,-0.141573,-0.0129705,-0.19761,0.127988,0.442801,0.0829709,0.35322,0.162258,0.000536917,6.11004
-0.0219531,0.201028,-0.114272,0.422739,-0.0922825,0.349829,-0.141573,-0.0129534,-0.19761,0.128001,0.442792,0.0829709,0.353196,0.162246,0.000536917,6.12005
-0.0219698,0.201028,-0.114285,0.422731,-0.0922945,0.349841,-0.141585,-0.012962,-0.19761,0.128001,0.442784,0.082947,0.353208,0.162246,0.000562483,6.13005
-0.0219617,0.201028,-0.114272,0.422739,-0.0923185,0.349829,-0.141597,-0.0129705,-0.19761,0.128001,0.442784,0.0829709,0.353208,0.16227,0.000536917,6.14005
-0.0219784,0.201054,-0.114285,0.422739,-0.0922945,0.349817,-0.141585,-0.0129534,-0.19761,0.128001,0.442784,0.0829709,0.353208,0.162246,0.000562483,6.15005
-0.0219531,0.201037,-0.114285,0.422739,-0.0922945,0.349817,-0.141597,-0.012962,-0.197619,0.128028,0.442775,0.0829709,0.353208,0.162246,0.000536917,6.16005
-0.0219531,0.201037,-0.114299,0.422739,-0.0922945,0.349841,-0.141597,-0.012962,-0.197602,0.128001,0.442784,0.0829828,0.353208,0.162246,0.000562483,6.17005
-0.0219445,0.20102,-0.114285,0.422739,-0.0922945,0.349817,-0.141609,-0.012962,-0.197619,0.128015,0.442784,0.0829709,0.353196,0.162246,0.000562483,6.18005
-0.0219531,0.201028,-0.114272,0.422739,-0.0922945,0.349829,-0.141585,-0.012962,-0.197619,0.128028,0.442792,0.0829709,0.353196,0.162246,0.00058805,6.19005
-0.0219531,0.201045,-0.114272,0.422731,-0.0922825,0.349817,-0.141585,-0.012962,-0.197594,0.128028,0.442784,0.0829709,0.353208,0.162258,0.00058805,6.20005
-0.0219531,0.201037,-0.114285,0.422739,-0.0922945,0.349829,-0.141585,-0.012962,-0.197602,0.128028,0.442775,0.0829828,0.353208,0.162246,0.000562483,6.21005
-0.0219359,0.201045,-0.114299,0.422739,-0.0922945,0.349829,-0.141585,-0.0129534,-0.19761,0.128028,0.442775,0.0829709,0.353196,0.162246,0.00058805,6.22005
-0.0219445,0.201028,-0.114272,0.422739,-0.0922825,0.349829,-0.141597,-0.012962,-0.197594,0.128041,0.442784,0.0829709,0.353196,0.16227,0.00058805,6.23005
-0.0219445,0.201037,-0.114285,0.422739,-0.0922945,0.349841,-0.141573,-0.0129449,-0.19761,0.128055,0.442775,0.0829828,0.353208,0.162246,0.000562483,6.24005
-0.0219359,0.201045,-0.114272,0.422739,-0.0922825,0.349829,-0.141573,-0.012962,-0.197602,0.128068,0.442801,0.0829709,0.353208,0.162246,0.00058805,6.25005
-0.0219531,0.201054,-0.114285,0.422756,-0.0922825,0.349817,-0.141597,-0.012962,-0.19761,0.128041,0.442792,0.0829709,0.353196,0.162258,0.000613617,6.26005
-0.0219531,0.201037,-0.114285,0.422739,-0.0922825,0.349817,-0.141573,-0.012962,-0.19761,0.128068,0.442784,0.0829709,0.353196,0.162246,0.000613617,6.27005
-0.0219445,0.201037,-0.114299,0.422739,-0.0922825,0.349817,-0.141573,-0.0129705,-0.197619,0.128082,0.442775,0.0829709,0.353208,0.162258,0.000613617,6.28005
-0.0219617,0.201037,-0.114272,0.422739,-0.0922825,0.349829,-0.141573,-0.012979,-0.19761,0.128082,0.442775,0.0829709,0.353208,0.162258,0.00058805,6.29005
-0.0219531,0.201037,-0.114259,0.422739,-0.0922945,0.349817,-0.141585,-0.012962,-0.197602,0.128082,0.442784,0.0829828,0.353196,0.162258,0.000613617,6.30005
-0.0219531,0.201045,-0.114272,0.422739,-0.0922945,0.349829,-0.141585,-0.0129534,-0.197619,0.128095,0.442767,0.0829709,0.353196,0.162258,0.000613617,6.31005
-0.0219531,0.201037,-0.114272,0.422739,-0.0922825,0.349829,-0.141585,-0.012962,-0.197619,0.128108,0.442792,0.0829709,0.353196,0.162258,0.00058805,6.32005
-0.0219531,0.201054,-0.114259,0.422739,-0.0922945,0.349817,-0.141597,-0.0129534,-0.19761,0.128082,0.442775,0.0829709,0.353196,0.162258,0.00058805,6.33005
-0.0219445,0.201045,-0.114259,0.422739,-0.0922945,0.349817,-0.141597,-0.012979,-0.197619,0.128095,0.442784,0.0829709,0.353196,0.162258,0.00058805,6.34005
-0.0219531,0.201045,-0.114272,0.422739,-0.0922945,0.349817,-0.141585,-0.012962,-0.19761,0.128108,0.442775,0.0829589,0.353196,0.162246,0.000613617,6.35005
-0.0219531,0.201037,-0.114285,0.422739,-0.0922945,0.349841,-0.141597,-0.012962,-0.19761,0.128108,0.442784,0.082947,0.353208,0.16227,0.00058805,6.36005
-0.0219359,0.201037,-0.114285,0.422748,-0.0922825,0.349829,-0.141585,-0.012962,-0.19761,0.128082,0.442767,0.0829709,0.353208,0.162258,0.000613617,6.37005
-0.0219617,0.201045,-0.114245,0.422731,-0.0922825,0.349817,-0.141585,-0.0129534,-0.19761,0.128082,0.442792,0.0829709,0.353196,0.162258,0.00058805,6.38005
-0.0219531,0.201045,-0.114259,0.422723,-0.0922825,0.349817,-0.141585,-0.0129705,-0.197594,0.128108,0.442784,0.0829589,0.353196,0.162258,0.000613617,6.39005
-0.0219617,0.201037,-0.114272,0.422739,-0.0922945,0.349781,-0.141585,-0.012962,-0.197619,0.128095,0.442784,0.0829709,0.35322,0.162258,0.000613617,6.40005
-0.0219531,0.201045,-0.114299,0.422739,-0.0922825,0.349817,-0.141573,-0.012979,-0.197628,0.128095,0.442775,0.0829828,0.353196,0.162258,0.00058805,6.41005
-0.0219445,0.201037,-0.114299,0.422739,-0.0922825,0.349817,-0.141585,-0.012962,-0.19761,0.128108,0.442775,0.0829709,0.353208,0.162246,0.000562483,6.42005
-0.0219531,0.201045,-0.114272,0.422739,-0.0922825,0.349817,-0.141585,-0.0129449,-0.197602,0.128095,0.442775,0.0829709,0.353196,0.16227,0.000562483,6.43005
-0.0219531,0.201028,-0.114272,0.422739,-0.0922945,0.349817,-0.141573,-0.0129449,-0.19761,0.128095,0.442775,0.0829828,0.353184,0.162246,0.000562483,6.44005
-0.0219531,0.201037,-0.114285,0.422739,-0.0922825,0.349805,-0.141597,-0.0129449,-0.19761,0.128108,0.442792,0.0829828,0.353208,0.162246,0.000562483,6.45005
-0.0219445,0.201028,-0.114259,0.422739,-0.0922945,0.349805,-0.141585,-0.0129449,-0.197619,0.128108,0.442784,0.0829709,0.353208,0.16227,0.00058805,6.46005
-0.0219617,0.201037,-0.114272,0.422739,-0.0922945,0.349829,-0.141561,-0.0129534,-0.197602,0.128095,0.442784,0.0829709,0.353208,0.162258,0.00058805,6.47005
-0.0219445,0.201037,-0.114285,0.422731,-0.0922825,0.349805,-0.141585,-0.012962,-0.19761,0.128095,0.442784,0.0829709,0.35322,0.162258,0.00058805,6.48005
-0.0219531,0.201037,-0.114285,0.422723,-0.0922945,0.349817,-0.141585,-0.012962,-0.197619,0.128055,0.442784,0.0829828,0.353208,0.162246,0.00058805,6.49005
-0.0219784,0.201037,-0.114259,0.422723,-0.0922825,0.349817,-0.141597,-0.0129449,-0.197619,0.128082,0.442784,0.0829949,0.353208,0.162246,0.000562483,6.50005
-0.0219784,0.20102,-0.114272,0.422723,-0.0922706,0.349829,-0.141597,-0.0129705,-0.19761,0.128068,0.442801,0.0829949,0.353208,0.162246,0.000562483,6.51005
-0.0219617,0.201011,-0.114272,0.422731,-0.0922825,0.349793,-0.141573,-0.012962,-0.197602,0.128068,0.442775,0.0829709,0.353208,0.162246,0.000536917,6.52005
-0.0219531,0.201028,-0.114272,0.422723,-0.0922945,0.349817,-0.141585,-0.012962,-0.19761,0.128041,0.442784,0.0829709,0.353196,0.162246,0.000536917,6.53005
