francescocufino/cufino_ws_h1_2/h1_2_pushing/output/positions.csv
left_arm_positions.q_1,left_arm_positions.q_2,left_arm_positions.q_3,left_arm_positions.q_4,left_arm_positions.q_5,left_arm_positions.q_6,left_arm_positions.q_7,right_arm_positions.q_1,right_arm_positions.q_2,right_arm_positions.q_3,right_arm_positions.q_4,right_arm_positions.q_5,right_arm_positions.q_6,right_arm_positions.q_7,waist_position.q_w,time.t
-0.00204515,0.202008,-0.12433,0.452635,-0.0618427,0.362305,-0.140027,0.00706502,-0.202059,0.129729,0.476949,0.0648029,0.38263,0.134754,0.000460219,0
-0.00204515,0.202008,-0.124343,0.452644,-0.0618305,0.36234,-0.140015,0.00706502,-0.202059,0.129715,0.476949,0.0648029,0.38263,0.134754,0.000434654,0.01
-0.00204515,0.202,-0.124356,0.452626,-0.0618906,0.362329,-0.140015,0.0070565,-0.202085,0.129729,0.47694,0.0648029,0.38263,0.134754,0.000460219,0.02
-0.00205374,0.202,-0.12437,0.452626,-0.0618427,0.362329,-0.140039,0.00704797,-0.202076,0.129702,0.476957,0.0647788,0.38263,0.134742,0.000460219,0.03
-0.00204515,0.202,-0.12437,0.452644,-0.0618784,0.362317,-0.140039,0.00704797,-0.202059,0.129729,0.476957,0.0647788,0.38263,0.134742,0.000460219,0.04
-0.00205374,0.202008,-0.12437,0.452652,-0.0618305,0.362329,-0.140027,0.00703093,-0.202085,0.129729,0.476949,0.0647907,0.38263,0.134754,0.000460219,0.05
-0.00204515,0.202008,-0.124356,0.452635,-0.0618665,0.362329,-0.140027,0.00702241,-0.202051,0.129742,0.47694,0.0648029,0.38263,0.134754,0.000434654,0.06
-0.00204515,0.202008,-0.124343,0.452652,-0.0618546,0.362352,-0.140027,0.00704797,-0.202051,0.129742,0.476949,0.0648029,0.382642,0.134754,0.000460219,0.07
-0.00206232,0.202008,-0.124356,0.452644,-0.0618784,0.362352,-0.140027,0.00707354,-0.202059,0.129742,0.476949,0.0647669,0.38263,0.134754,0.000460219,0.08
-0.0020709,0.202,-0.12437,0.452626,-0.0618546,0.362376,-0.140027,0.00709058,-0.202068,0.129715,0.476949,0.0647907,0.38263,0.13473,0.000460219,0.09
-0.00205374,0.202025,-0.124356,0.452635,-0.0618305,0.362352,-0.140027,0.00709058,-0.202059,0.129742,0.476949,0.0647907,0.382642,0.134766,0.000434654,0.1
-0.00206232,0.202008,-0.12437,0.452635,-0.0618546,0.36234,-0.140015,0.00707354,-0.202068,0.129729,0.476949,0.0647669,0.382642,0.134754,0.000434654,0.11
-0.00206232,0.202008,-0.124356,0.452652,-0.0618546,0.362352,-0.140027,0.00706502,-0.202076,0.129729,0.476949,0.0647907,0.38263,0.134754,0.000434654,0.12
-0.00205374,0.202,-0.12437,0.452635,-0.0618546,0.362376,-0.140039,0.0070565,-0.202059,0.129715,0.476957,0.0648029,0.38263,0.134754,0.000434654,0.13
-0.00204515,0.202008,-0.124356,0.452635,-0.0618665,0.362376,-0.140027,0.00706502,-0.202076,0.129715,0.476957,0.0648029,0.38263,0.134742,0.000460219,0.14
-0.00205374,0.201983,-0.12437,0.452635,-0.0618665,0.362388,-0.140027,0.0070565,-0.202059,0.129715,0.476949,0.0648029,0.38263,0.134742,0.000460219,0.15
-0.00206232,0.201983,-0.12437,0.452635,-0.0618546,0.362388,-0.140027,0.00706502,-0.202068,0.129729,0.476949,0.0647907,0.38263,0.134742,0.000434654,0.16
-0.00206232,0.201983,-0.124356,0.452635,-0.0618546,0.362376,-0.140027,0.00706502,-0.202076,0.129729,0.47694,0.0647788,0.38263,0.13473,0.000434654,0.17
-0.00207949,0.201991,-0.124356,0.452635,-0.0618665,0.362376,-0.140027,0.00707354,-0.202059,0.129769,0.476949,0.0648029,0.38263,0.134742,0.000434654,0.18
-0.00206232,0.201991,-0.124356,0.452652,-0.0618546,0.362412,-0.140015,0.00707354,-0.202059,0.129755,0.47694,0.0648029,0.382642,0.134766,0.000460219,0.19
-0.00205374,0.202008,-0.12433,0.452626,-0.0618784,0.362401,-0.140003,0.00707354,-0.202051,0.129742,0.476949,0.0648029,0.38263,0.134742,0.000485785,0.2
-0.00206232,0.202008,-0.124343,0.452626,-0.0618427,0.362401,-0.140015,0.0070565,-0.202076,0.129742,0.476957,0.0648029,0.38263,0.134742,0.000511352,0.21
-0.00204515,0.202008,-0.124343,0.452635,-0.0618305,0.362401,-0.140027,0.00703945,-0.202068,0.129715,0.476949,0.0648029,0.38263,0.134742,0.000460219,0.22
-0.00204515,0.202,-0.12437,0.452635,-0.0618665,0.362388,-0.140039,0.00702241,-0.202068,0.129715,0.476932,0.0648029,0.38263,0.134754,0.000460219,0.23
-0.00203657,0.201991,-0.12437,0.452635,-0.0618546,0.362412,-0.140015,0.0070565,-0.202093,0.129742,0.476949,0.0647788,0.382618,0.134766,0.000409087,0.24
-0.00204515,0.201983,-0.124383,0.452626,-0.0618427,0.362412,-0.140027,0.0070565,-0.202085,0.129729,0.476966,0.0647669,0.38263,0.134754,0.000434654,0.25
-0.00205374,0.201974,-0.124383,0.452635,-0.0618546,0.362424,-0.140015,0.00707354,-0.202068,0.129742,0.476957,0.0647788,0.382642,0.13473,0.000434654,0.26
-0.00205374,0.201974,-0.12437,0.452635,-0.0618546,0.362448,-0.140027,0.00706502,-0.202068,0.129742,0.476949,0.0648029,0.382642,0.134742,0.000460219,0.27
-0.00205374,0.201991,-0.12437,0.452635,-0.0618305,0.362436,-0.140027,0.00708206,-0.202059,0.129755,0.476957,0.0648029,0.382654,0.134766,0.000434654,0.28
-0.00203657,0.201991,-0.124356,0.452626,-0.0618427,0.362436,-0.140027,0.00707354,-0.202051,0.129769,0.476949,0.0648029,0.382642,0.134754,0.000434654,0.29
-0.00204515,0.202,-0.12437,0.452635,-0.0618427,0.362448,-0.140015,0.0070565,-0.202076,0.129742,0.47694,0.0648029,0.382642,0.134742,0.000434654,0.3
-0.00204515,0.202,-0.124356,0.452635,-0.0618305,0.362436,-0.140015,0.00708206,-0.202076,0.129742,0.476966,0.0647788,0.38263,0.13473,0.000434654,0.31
-0.00205374,0.202,-0.124343,0.452635,-0.0618546,0.362436,-0.140015,0.0070565,-0.202085,0.129715,0.476957,0.0648029,0.382642,0.134742,0.000409087,0.32
-0.0020709,0.202,-0.124356,0.452635,-0.0618546,0.362436,-0.140027,0.0070565,-0.202085,0.129742,0.47694,0.0648029,0.38263,0.134754,0.000434654,0.33
-0.00206232,0.202,-0.124356,0.452635,-0.0618546,0.362448,-0.140027,0.00704797,-0.202068,0.129742,0.476957,0.0647669,0.382654,0.134754,0.000434654,0.34
-0.00205374,0.201983,-0.124356,0.452644,-0.0618427,0.362448,-0.140027,0.00706502,-0.202068,0.129729,0.476949,0.0647788,0.382654,0.134766,0.000460219,0.35
-0.00204515,0.202008,-0.124343,0.452644,-0.0618305,0.362448,-0.140027,0.00708206,-0.202068,0.129755,0.476949,0.0648029,0.382642,0.134754,0.000485785,0.36
-0.00203657,0.201991,-0.12437,0.452644,-0.0618546,0.36246,-0.140027,0.00707354,-0.202059,0.129729,0.476949,0.0648029,0.38263,0.134766,0.000434654,0.37
-0.00202847,0.201991,-0.124383,0.452644,-0.0618546,0.362484,-0.140027,0.00707354,-0.202068,0.129742,0.476949,0.0648029,0.382654,0.13473,0.000434654,0.38
-0.00203657,0.201991,-0.124383,0.452644,-0.0618665,0.362472,-0.140039,0.00707354,-0.202076,0.129729,0.476957,0.0647788,0.382654,0.134754,0.000434654,0.39
-0.00201988,0.201991,-0.124383,0.452635,-0.0618427,0.362472,-0.140027,0.00704797,-0.202076,0.129729,0.476957,0.0648148,0.382642,0.134742,0.000434654,0.4
-0.00204515,0.202008,-0.124356,0.452626,-0.0618665,0.36246,-0.140027,0.00704797,-0.202068,0.129715,0.476957,0.0648029,0.38263,0.134754,0.000485785,0.41
-0.00205374,0.202,-0.124356,0.452635,-0.0618546,0.36246,-0.140027,0.00703945,-0.202076,0.129742,0.476957,0.0648029,0.382642,0.134742,0.000460219,0.42
-0.00206232,0.202017,-0.124356,0.452635,-0.0618546,0.36246,-0.140039,0.00703945,-0.202059,0.129729,0.476957,0.0648029,0.38263,0.134754,0.000460219,0.43
-0.0020709,0.202017,-0.12437,0.452635,-0.0618427,0.362484,-0.140027,0.0070565,-0.202068,0.129742,0.476949,0.0648029,0.382654,0.134754,0.000485785,0.44
-0.0020709,0.202008,-0.12433,0.452635,-0.0618546,0.36246,-0.140015,0.00704797,-0.202059,0.129755,0.476949,0.0648029,0.382642,0.134742,0.000460219,0.45
-0.00205374,0.202008,-0.124356,0.452635,-0.0618305,0.362484,-0.140027,0.0070565,-0.202076,0.129729,0.47694,0.0647788,0.382642,0.134754,0.000485785,0.46
-0.00204515,0.202,-0.12437,0.452644,-0.0618546,0.362484,-0.140027,0.0070565,-0.202085,0.129729,0.476949,0.0648029,0.382642,0.134766,0.000434654,0.47
-0.00204515,0.202,-0.124383,0.452644,-0.0618546,0.362508,-0.140027,0.00703945,-0.202068,0.129769,0.476949,0.0648029,0.382642,0.134766,0.000460219,0.48
-0.0020709,0.201991,-0.124383,0.452644,-0.0618546,0.362508,-0.140015,0.0070565,-0.202068,0.129729,0.476949,0.0647907,0.382642,0.134754,0.000434654,0.49
-0.00204515,0.201991,-0.124396,0.452652,-0.0618305,0.362508,-0.140027,0.0070565,-0.202076,0.129729,0.476957,0.0648029,0.382642,0.134754,0.000434654,0.5
-0.00204515,0.202,-0.12441,0.452626,-0.0618427,0.362508,-0.140027,0.00706502,-0.202068,0.129742,0.476949,0.0647788,0.382654,0.134754,0.000434654,0.51
-0.00206232,0.202,-0.124396,0.452635,-0.0618427,0.362508,-0.140039,0.0070565,-0.202042,0.129742,0.476949,0.0648029,0.38263,0.134766,0.000409087,0.52
-0.0020709,0.202008,-0.124356,0.452644,-0.0618665,0.362532,-0.140039,0.00707354,-0.202068,0.129729,0.476949,0.0648029,0.382654,0.134754,0.000460219,0.53
-0.00209665,0.202008,-0.124343,0.452635,-0.0618546,0.362508,-0.140015,0.00706502,-0.202059,0.129729,0.476966,0.0648029,0.382642,0.134754,0.000460219,0.54
-0.00209665,0.202017,-0.124383,0.452635,-0.0618546,0.362532,-0.140027,0.0070565,-0.202059,0.129729,0.476949,0.0648029,0.38263,0.134766,0.000460219,0.55
-0.00208807,0.202008,-0.12437,0.452635,-0.0618305,0.362532,-0.140015,0.00707354,-0.202076,0.129729,0.476957,0.0648029,0.382654,0.134766,0.000460219,0.56
-0.00206232,0.202008,-0.124383,0.452635,-0.0618784,0.362556,-0.140039,0.00706502,-0.202076,0.129715,0.47694,0.0648029,0.382642,0.134754,0.000434654,0.57
-0.00204515,0.202008,-0.124383,0.452652,-0.0618546,0.362544,-0.140027,0.0070565,-0.202068,0.129715,0.47694,0.0647907,0.382642,0.134742,0.000434654,0.58
-0.00204515,0.201991,-0.124383,0.452652,-0.0618546,0.362556,-0.140015,0.00704797,-0.202085,0.129715,0.476957,0.0648029,0.382654,0.134742,0.000460219,0.59
-0.00206232,0.201991,-0.124396,0.452635,-0.0618546,0.362544,-0.140027,0.0070565,-0.202076,0.129742,0.476957,0.0647788,0.382642,0.134754,0.000460219,0.6
-0.00206232,0.201991,-0.12441,0.452635,-0.0618665,0.362544,-0.140027,0.00704797,-0.202059,0.129702,0.47694,0.0648029,0.382642,0.134742,0.000434654,0.61
-0.00205374,0.201991,-0.124396,0.452635,-0.0618427,0.362568,-0.140027,0.00703945,-0.202051,0.129742,0.476949,0.0648029,0.382642,0.134766,0.000460219,0.62
-0.00206232,0.202008,-0.124383,0.452635,-0.0618665,0.36258,-0.140027,0.00703945,-0.202085,0.129742,0.476949,0.0647788,0.38263,0.134766,0.000460219,0.63
-0.00206232,0.202,-0.124396,0.452635,-0.0618546,0.362568,-0.140015,0.00703945,-0.202059,0.129742,0.47694,0.0648029,0.382654,0.134754,0.000485785,0.64
-0.00203657,0.202,-0.12437,0.452626,-0.0618546,0.362568,-0.140039,0.00706502,-0.202068,0.129729,0.476957,0.0648029,0.38263,0.134754,0.000460219,0.65
-0.00206232,0.202008,-0.124383,0.452652,-0.0618546,0.36258,-0.140027,0.00707354,-0.202059,0.129742,0.476949,0.0648029,0.382642,0.134766,0.000460219,0.66
-0.00205374,0.202,-0.12437,0.452635,-0.0618427,0.36258,-0.140015,0.00708206,-0.202076,0.129729,0.476949,0.0648029,0.382666,0.134754,0.000460219,0.67
-0.00205374,0.202,-0.124383,0.452635,-0.0618784,0.362568,-0.140027,0.00707354,-0.202068,0.129702,0.476949,0.0648029,0.382654,0.134754,0.000460219,0.68
-0.00206232,0.202008,-0.124396,0.452635,-0.0618546,0.362568,-0.140027,0.00704797,-0.202068,0.129715,0.476949,0.0647788,0.382666,0.134754,0.000434654,0.69
-0.00206232,0.201991,-0.124396,0.452635,-0.0618427,0.36258,-0.140027,0.00703945,-0.202059,0.129729,0.47694,0.0648029,0.382642,0.134766,0.000434654,0.7
-0.00205374,0.202,-0.124396,0.452635,-0.0618665,0.36258,-0.140015,0.00703945,-0.202051,0.129742,0.476949,0.0648029,0.382642,0.134742,0.000434654,0.71
-0.00204515,0.201991,-0.12441,0.452644,-0.0618665,0.362568,-0.140027,0.00703093,-0.202068,0.129729,0.47694,0.0648029,0.382642,0.134754,0.000434654,0.72
-0.00204515,0.201991,-0.124396,0.452635,-0.0618546,0.362568,-0.140027,0.00704797,-0.202085,0.129729,0.476949,0.0648029,0.382642,0.134754,0.000434654,0.73
-0.00205374,0.201991,-0.124396,0.452635,-0.0618427,0.362568,-0.140027,0.00704797,-0.202085,0.129729,0.476957,0.0648029,0.382654,0.134766,0.000434654,0.74
-0.00206232,0.202008,-0.124383,0.452635,-0.0618665,0.362568,-0.140027,0.00707354,-0.202068,0.129715,0.476949,0.0648029,0.38263,0.134742,0.000434654,0.75
-0.0020709,0.202,-0.124383,0.452635,-0.0618546,0.36258,-0.140027,0.00708206,-0.202068,0.129729,0.476957,0.0647788,0.382654,0.134742,0.000460219,0.76
-0.00206232,0.202008,-0.124383,0.452635,-0.0618665,0.36258,-0.140027,0.00708206,-0.202059,0.129715,0.476949,0.0648029,0.382642,0.134766,0.000434654,0.77
-0.00206232,0.202017,-0.124383,0.452626,-0.0618427,0.362592,-0.140027,0.00706502,-0.202076,0.129729,0.476932,0.0647788,0.382642,0.134754,0.000434654,0.78
-0.00206232,0.202008,-0.124383,0.452635,-0.0618546,0.362592,-0.140027,0.0070565,-0.202076,0.129715,0.47694,0.0648029,0.38263,0.134766,0.000434654,0.79
-0.00207949,0.201991,-0.124396,0.452635,-0.0618665,0.362592,-0.140027,0.0070565,-0.202068,0.129715,0.476957,0.0648029,0.382642,0.134766,0.000460219,0.8
-0.00205374,0.201983,-0.12441,0.452626,-0.0618427,0.362604,-0.140015,0.0070565,-0.202068,0.129715,0.476957,0.0647907,0.38263,0.134742,0.000434654,0.81
-0.00206232,0.201983,-0.124424,0.452635,-0.0618427,0.362592,-0.140003,0.0070565,-0.202085,0.129729,0.476957,0.0648029,0.382642,0.134754,0.000434654,0.82
-0.00204515,0.201991,-0.12441,0.452635,-0.0618665,0.362604,-0.140027,0.00704797,-0.202076,0.129715,0.476966,0.0647788,0.382642,0.134754,0.000434654,0.83
-0.00204515,0.201991,-0.12441,0.452652,-0.0618427,0.362592,-0.140027,0.00704797,-0.202068,0.129729,0.476949,0.0648029,0.382654,0.134754,0.000460219,0.839999
-0.00204515,0.201991,-0.12441,0.452652,-0.0618427,0.362592,-0.140027,0.0070565,-0.202068,0.129742,0.47694,0.0648029,0.382618,0.134754,0.000460219,0.849999
-0.00205374,0.202008,-0.124396,0.452635,-0.0618546,0.362592,-0.140027,0.00707354,-0.202068,0.129755,0.476949,0.0647788,0.38263,0.134754,0.000460219,0.859999
-0.00206232,0.202008,-0.124396,0.452635,-0.0618665,0.362592,-0.140039,0.00707354,-0.202059,0.129729,0.47694,0.0648029,0.382642,0.134778,0.000460219,0.869999
-0.00207949,0.202,-0.124396,0.452644,-0.0618665,0.362592,-0.140027,0.00708206,-0.202059,0.129729,0.476949,0.0647788,0.382654,0.134754,0.000434654,0.879999
-0.0020709,0.202,-0.124396,0.452635,-0.0618546,0.362616,-0.140027,0.0070565,-0.202068,0.129755,0.476949,0.0647788,0.382642,0.134754,0.000434654,0.889999
-0.0020709,0.202008,-0.12441,0.452635,-0.0618665,0.362616,-0.140015,0.0070565,-0.202068,0.129715,0.476949,0.0648029,0.382642,0.134754,0.000434654,0.899999
-0.00205374,0.202,-0.12441,0.452635,-0.0618546,0.362592,-0.140027,0.00703945,-0.202085,0.129755,0.47694,0.0648029,0.382654,0.134742,0.000434654,0.909999
-0.00205374,0.202,-0.12441,0.452644,-0.0618427,0.362616,-0.140027,0.00703945,-0.202076,0.129729,0.47694,0.0648029,0.382654,0.13473,0.000409087,0.919999
-0.0020709,0.201991,-0.124424,0.452644,-0.0618665,0.362616,-0.140003,0.00703945,-0.202068,0.129755,0.47694,0.0647788,0.382654,0.134754,0.000460219,0.929999
-0.00205374,0.201991,-0.12441,0.452635,-0.0618546,0.362604,-0.140027,0.00707354,-0.202068,0.129742,0.476949,0.0647788,0.382654,0.134754,0.000434654,0.939999
-0.00205374,0.202008,-0.124424,0.452635,-0.0618665,0.362616,-0.140027,0.00708206,-0.202051,0.129729,0.476957,0.0647788,0.382654,0.134742,0.000460219,0.949999
-0.00205374,0.202,-0.12441,0.452626,-0.0618427,0.362616,-0.140027,0.00708206,-0.202059,0.129702,0.47694,0.0647788,0.382642,0.134766,0.000460219,0.959999
-0.00206232,0.202,-0.124396,0.452635,-0.0618546,0.362616,-0.140039,0.00708206,-0.202076,0.129729,0.476932,0.0647907,0.382642,0.134742,0.000434654,0.969999
-0.00205374,0.202,-0.124396,0.452635,-0.0618427,0.362652,-0.140039,0.0070565,-0.202068,0.129742,0.47694,0.0647907,0.382666,0.134766,0.000460219,0.979999
-0.00206232,0.202008,-0.124396,0.452635,-0.0618427,0.36264,-0.140039,0.0070565,-0.202085,0.129755,0.47694,0.0647788,0.382642,0.134754,0.000434654,0.989999
-0.00206232,0.202008,-0.124383,0.452635,-0.0618665,0.36264,-0.140027,0.00701389,-0.202059,0.129742,0.476949,0.0648029,0.382642,0.134766,0.000434654,0.999999
-0.0020709,0.201991,-0.124396,0.452644,-0.0618665,0.36264,-0.140027,0.00701389,-0.202068,0.129742,0.476949,0.0647907,0.382642,0.134754,0.000460219,1.01
-0.00205374,0.201991,-0.12441,0.452635,-0.0618546,0.362628,-0.140027,0.00703945,-0.202051,0.129742,0.476949,0.0648029,0.382642,0.134754,0.000460219,1.02
-0.00204515,0.202,-0.124396,0.452635,-0.0618305,0.362664,-0.140027,0.00706502,-0.202059,0.129729,0.47694,0.0647669,0.382654,0.134754,0.000485785,1.03
-0.00203657,0.201991,-0.12441,0.452644,-0.0618784,0.362664,-0.140027,0.00707354,-0.202051,0.129742,0.476949,0.0647669,0.382654,0.134754,0.000460219,1.04
-0.0020113,0.202,-0.12441,0.452644,-0.0618427,0.362676,-0.140027,0.00707354,-0.202068,0.129729,0.47694,0.0647907,0.382642,0.134754,0.000460219,1.05
-0.00204515,0.201991,-0.12441,0.452635,-0.0618427,0.362652,-0.140015,0.00707354,-0.202068,0.129729,0.47694,0.0647788,0.382642,0.134766,0.000460219,1.06
-0.00204515,0.202,-0.12441,0.452626,-0.0618546,0.362688,-0.140027,0.0070565,-0.202068,0.129769,0.476966,0.0647788,0.382654,0.134754,0.000434654,1.07
-0.00206232,0.202,-0.12441,0.452635,-0.0618665,0.362688,-0.140027,0.0070565,-0.202076,0.129729,0.476966,0.0648029,0.382654,0.134754,0.000434654,1.08
-0.00206232,0.202,-0.124396,0.452635,-0.0618427,0.362664,-0.140015,0.00706502,-0.202076,0.129715,0.476957,0.0648029,0.382654,0.134766,0.000434654,1.09
-0.00206232,0.202008,-0.12441,0.452635,-0.0618665,0.362688,-0.140015,0.0070565,-0.202085,0.129742,0.476949,0.0648029,0.382642,0.134766,0.000434654,1.1
-0.00207949,0.202008,-0.124396,0.452635,-0.0618427,0.362688,-0.140027,0.00707354,-0.202068,0.129729,0.476966,0.0648029,0.382642,0.134766,0.000434654,1.11
-0.00206232,0.202,-0.12441,0.452635,-0.0618427,0.3627,-0.140039,0.00704797,-0.202068,0.129729,0.476949,0.0648029,0.382642,0.134766,0.000460219,1.12
-0.00206232,0.201991,-0.12441,0.452626,-0.0618546,0.362688,-0.140039,0.0070565,-0.202076,0.129755,0.476932,0.0647788,0.382666,0.134754,0.000434654,1.13
-0.00205374,0.201991,-0.124424,0.452644,-0.0618546,0.3627,-0.140039,0.00706502,-0.202076,0.129755,0.47694,0.0648029,0.382654,0.134766,0.000460219,1.14
-0.00206232,0.201991,-0.12445,0.452644,-0.0618665,0.3627,-0.140027,0.0070565,-0.202068,0.129729,0.47694,0.0648029,0.382642,0.134766,0.000434654,1.15
-0.00204515,0.201983,-0.12445,0.452635,-0.0618784,0.3627,-0.140039,0.00706502,-0.202076,0.129729,0.476957,0.0648029,0.382654,0.134766,0.000460219,1.16
-0.00205374,0.202,-0.124424,0.452652,-0.0618546,0.362748,-0.140051,0.0070565,-0.202042,0.129742,0.476957,0.0648029,0.382642,0.134742,0.000434654,1.17
-0.00205374,0.201991,-0.12441,0.452635,-0.0618546,0.362748,-0.140015,0.00706502,-0.202068,0.129729,0.476949,0.0648029,0.382642,0.134754,0.000485785,1.18
-0.0020709,0.202008,-0.12441,0.452635,-0.0618305,0.362748,-0.140039,0.00704797,-0.202051,0.129742,0.47694,0.0648029,0.382642,0.134754,0.000485785,1.19
-0.00207949,0.202008,-0.124396,0.452635,-0.0618665,0.362736,-0.140027,0.0070565,-0.202068,0.129742,0.47694,0.0648148,0.382654,0.134754,0.000460219,1.2
-0.0020709,0.202008,-0.12437,0.452635,-0.0618665,0.362736,-0.140027,0.00703093,-0.202093,0.129729,0.476949,0.0648267,0.382654,0.134754,0.000460219,1.21
-0.00207949,0.202008,-0.12441,0.452635,-0.0618546,0.362748,-0.140027,0.00701389,-0.202059,0.129742,0.47694,0.0648148,0.382642,0.134754,0.000460219,1.22
-0.00207949,0.202,-0.12441,0.452635,-0.0618546,0.36276,-0.140003,0.00703945,-0.202076,0.129729,0.476957,0.0648029,0.382642,0.134754,0.000460219,1.23
-0.0020709,0.202,-0.124424,0.452652,-0.0618665,0.362748,-0.140027,0.00704797,-0.202068,0.129729,0.47694,0.0648148,0.382642,0.134766,0.000434654,1.24
-0.00205374,0.202,-0.124437,0.452644,-0.0618546,0.362784,-0.140027,0.0070565,-0.202051,0.129729,0.47694,0.0648029,0.382642,0.134766,0.000434654,1.25
-0.00205374,0.201991,-0.124424,0.452626,-0.0618546,0.362772,-0.140027,0.00707354,-0.202076,0.129729,0.47694,0.0648029,0.382654,0.134754,0.000460219,1.26
-0.00204515,0.202008,-0.124424,0.452644,-0.0618665,0.362772,-0.140027,0.00708206,-0.202068,0.129729,0.47694,0.0648148,0.382666,0.134742,0.000434654,1.27
-0.00205374,0.201991,-0.12441,0.452644,-0.0618784,0.362784,-0.140027,0.00706502,-0.202068,0.129755,0.476957,0.0648029,0.382642,0.134754,0.000434654,1.28
-0.00205374,0.202,-0.124396,0.452644,-0.0618665,0.362784,-0.140039,0.00706502,-0.202068,0.129742,0.476957,0.0648029,0.382654,0.134766,0.000434654,1.29
-0.00205374,0.202,-0.124396,0.452644,-0.0618665,0.362784,-0.140039,0.0070565,-0.202059,0.129715,0.476949,0.0648148,0.38263,0.134742,0.000434654,1.3
-0.00206232,0.202008,-0.124396,0.452635,-0.0618305,0.362784,-0.140015,0.0070565,-0.202076,0.129729,0.476949,0.0648029,0.382642,0.134754,0.000460219,1.31
-0.00204515,0.202008,-0.124424,0.452635,-0.0618546,0.362784,-0.140027,0.00702241,-0.202076,0.129715,0.476949,0.0648029,0.382654,0.134754,0.000460219,1.32
-0.00207949,0.202,-0.12441,0.452635,-0.0618305,0.362784,-0.140027,0.00704797,-0.202085,0.129742,0.476957,0.0648029,0.382654,0.134766,0.000434654,1.33
-0.00206232,0.202008,-0.124437,0.452635,-0.0618427,0.362796,-0.140015,0.0070565,-0.202059,0.129742,0.47694,0.0648029,0.382654,0.134754,0.000460219,1.34
-0.00205374,0.202,-0.12441,0.452644,-0.0618665,0.362796,-0.140015,0.0070565,-0.202085,0.129755,0.476949,0.0648029,0.382642,0.134754,0.000434654,1.35
-0.00205374,0.202,-0.124383,0.452635,-0.0618427,0.362808,-0.140027,0.00704797,-0.202076,0.129742,0.47694,0.0648029,0.382642,0.134754,0.000460219,1.36
-0.0020709,0.202008,-0.124396,0.452635,-0.0618546,0.36282,-0.140039,0.00704797,-0.202059,0.129742,0.476949,0.0648029,0.38263,0.134766,0.000460219,1.37
-0.00205374,0.202,-0.12441,0.452635,-0.0618546,0.362808,-0.140027,0.00704797,-0.202068,0.129742,0.476957,0.0648029,0.382642,0.134754,0.000460219,1.38
-0.00206232,0.202,-0.124424,0.452635,-0.0618427,0.362832,-0.140027,0.00704797,-0.202076,0.129729,0.476949,0.0648029,0.382642,0.134766,0.000460219,1.39
-0.00204515,0.202,-0.124424,0.452635,-0.0618784,0.362856,-0.140039,0.00707354,-0.202076,0.129729,0.476949,0.0647788,0.382642,0.13473,0.000434654,1.4
-0.00204515,0.201991,-0.12441,0.452626,-0.0618305,0.362844,-0.140039,0.00707354,-0.202085,0.129742,0.476932,0.0648029,0.382666,0.134754,0.000460219,1.41
-0.00204515,0.202,-0.124424,0.452644,-0.0618665,0.362844,-0.140027,0.00706502,-0.202068,0.129729,0.476957,0.0648148,0.382642,0.134766,0.000409087,1.42
-0.00206232,0.202,-0.12441,0.452626,-0.0618427,0.362856,-0.140003,0.00706502,-0.202076,0.129755,0.476949,0.0648029,0.382654,0.134754,0.000434654,1.43
-0.0020709,0.202,-0.124396,0.452635,-0.0618427,0.362844,-0.140039,0.0070565,-0.202068,0.129742,0.476949,0.0648029,0.382654,0.134778,0.000434654,1.44
-0.00205374,0.202,-0.124396,0.452652,-0.0618546,0.362844,-0.140027,0.00706502,-0.202051,0.129755,0.476949,0.0648148,0.382642,0.134766,0.000460219,1.45
-0.00206232,0.202008,-0.124396,0.452644,-0.0618546,0.362844,-0.140027,0.00706502,-0.202059,0.129769,0.476957,0.0648029,0.382654,0.134754,0.000434654,1.46
-0.00206232,0.201991,-0.124424,0.452635,-0.0618546,0.362856,-0.140015,0.00704797,-0.202076,0.129742,0.47694,0.0648029,0.382654,0.134766,0.000434654,1.47
-0.00206232,0.202008,-0.12441,0.452644,-0.0618546,0.362856,-0.140027,0.0070565,-0.202068,0.129729,0.476949,0.0647907,0.382642,0.134766,0.000434654,1.48
-0.00204515,0.202,-0.124424,0.452635,-0.0618427,0.362868,-0.140027,0.00706502,-0.202076,0.129729,0.476949,0.0648029,0.382654,0.134754,0.000434654,1.49
-0.00203657,0.201991,-0.12441,0.452635,-0.0618665,0.362856,-0.140027,0.00707354,-0.202068,0.129755,0.47694,0.0648029,0.382654,0.134754,0.000460219,1.5
-0.00203657,0.202,-0.124424,0.452652,-0.0618546,0.362856,-0.140027,0.00706502,-0.202059,0.129742,0.476949,0.0647788,0.382654,0.134742,0.000434654,1.51
-0.0020709,0.202008,-0.12441,0.452644,-0.0618546,0.362856,-0.140027,0.00704797,-0.202076,0.129742,0.476957,0.0648029,0.382654,0.134766,0.000460219,1.52
-0.00205374,0.202,-0.12441,0.452652,-0.0618546,0.362856,-0.140015,0.00704797,-0.202076,0.129742,0.47694,0.0648029,0.382666,0.134754,0.000460219,1.53
-0.00205374,0.202,-0.12441,0.452635,-0.0618665,0.362868,-0.140003,0.00704797,-0.202068,0.129742,0.476949,0.0648148,0.382654,0.134742,0.000485785,1.54
-0.00206232,0.202,-0.12441,0.452635,-0.0618665,0.362868,-0.140027,0.00704797,-0.202076,0.129729,0.476949,0.0648029,0.382654,0.134754,0.000434654,1.55
-0.00205374,0.202008,-0.12441,0.452635,-0.0618546,0.36288,-0.140027,0.0070565,-0.202076,0.129755,0.476949,0.0648029,0.382654,0.134766,0.000460219,1.56
-0.00206232,0.202,-0.12441,0.452635,-0.0618546,0.362868,-0.140027,0.0070565,-0.202076,0.129715,0.47694,0.0648029,0.382654,0.134754,0.000434654,1.57
-0.00203657,0.202,-0.124437,0.452635,-0.0618546,0.362868,-0.140027,0.00707354,-0.202076,0.129729,0.476932,0.0648029,0.382642,0.134754,0.000460219,1.58
-0.00205374,0.202,-0.12441,0.452635,-0.0618427,0.362868,-0.140027,0.00707354,-0.202068,0.129742,0.476949,0.0648029,0.382666,0.134766,0.000434654,1.59
-0.00204515,0.202,-0.124396,0.452644,-0.0618427,0.362868,-0.140027,0.00706502,-0.202068,0.129742,0.476949,0.0648029,0.382654,0.134766,0.000460219,1.6
-0.00204515,0.202,-0.124396,0.452626,-0.0618546,0.36288,-0.140027,0.00706502,-0.202068,0.129742,0.476949,0.0648148,0.382666,0.134742,0.000460219,1.61
-0.00204515,0.202,-0.124424,0.452635,-0.0618546,0.36288,-0.140027,0.00703945,-0.202059,0.129755,0.476949,0.0648029,0.382654,0.134754,0.000460219,1.62
-0.00204515,0.202,-0.12441,0.452644,-0.0618427,0.362892,-0.140039,0.00706502,-0.202059,0.129715,0.476957,0.0648029,0.382654,0.134754,0.000434654,1.63
-0.00205374,0.201991,-0.12441,0.452635,-0.0618427,0.36288,-0.140039,0.00703945,-0.202076,0.129729,0.47694,0.0647788,0.382642,0.134754,0.000460219,1.64
-0.00206232,0.202,-0.12441,0.452652,-0.0618665,0.36288,-0.140027,0.00704797,-0.202085,0.129742,0.47694,0.0647788,0.382642,0.134754,0.000434654,1.65
-0.00203657,0.202008,-0.124396,0.452635,-0.0618546,0.36288,-0.140015,0.00707354,-0.202076,0.129729,0.47694,0.0647907,0.382642,0.134742,0.000434654,1.66
-0.00205374,0.202008,-0.124396,0.452635,-0.0618665,0.36288,-0.140027,0.00709058,-0.202059,0.129755,0.476966,0.0648029,0.382642,0.134754,0.000434654,1.67
-0.00203657,0.202,-0.124396,0.452635,-0.0618427,0.362868,-0.140039,0.00706502,-0.202059,0.129729,0.476949,0.0648029,0.382654,0.134742,0.000460219,1.68
-0.00205374,0.202008,-0.124396,0.452635,-0.0618665,0.362868,-0.140027,0.0070565,-0.202068,0.129729,0.47694,0.0648029,0.382654,0.134778,0.000460219,1.69
-0.00205374,0.202,-0.12441,0.452635,-0.0618665,0.362892,-0.140027,0.0070565,-0.202059,0.129742,0.476957,0.0648029,0.382654,0.134766,0.000460219,1.7
-0.00205374,0.201991,-0.12441,0.452652,-0.0618305,0.362868,-0.140027,0.00704797,-0.202085,0.129729,0.476949,0.0647669,0.38263,0.134754,0.000434654,1.71
-0.00205374,0.202,-0.12441,0.452626,-0.0618546,0.362868,-0.140027,0.00704797,-0.202085,0.129742,0.476966,0.0647788,0.382654,0.134766,0.000434654,1.72
-0.00205374,0.202,-0.124424,0.452635,-0.0618665,0.36288,-0.140027,0.00703945,-0.202076,0.129729,0.476949,0.0647907,0.382654,0.134754,0.000460219,1.73
-0.00205374,0.202,-0.12441,0.452644,-0.0618546,0.362892,-0.140003,0.00704797,-0.202068,0.129742,0.476932,0.0648029,0.38263,0.134766,0.000434654,1.74
-0.00204515,0.202,-0.12441,0.452635,-0.0618665,0.36288,-0.140027,0.00702241,-0.202059,0.129755,0.476949,0.0647669,0.382642,0.134754,0.000460219,1.75
-0.00206232,0.202008,-0.124396,0.452652,-0.0618546,0.362868,-0.140027,0.00703093,-0.202068,0.129729,0.47694,0.0647788,0.382642,0.134766,0.000434654,1.76
-0.00205374,0.202,-0.12441,0.452644,-0.0618305,0.362856,-0.140027,0.00703945,-0.202068,0.129715,0.476957,0.0647669,0.382654,0.134754,0.000460219,1.77
-0.00203657,0.202008,-0.12441,0.452635,-0.0618546,0.36288,-0.140027,0.00706502,-0.202059,0.129729,0.47694,0.0647788,0.382654,0.134742,0.000460219,1.78
-0.00205374,0.202008,-0.124383,0.452635,-0.0618665,0.362856,-0.140027,0.00704797,-0.202059,0.129742,0.476949,0.0648029,0.382642,0.134754,0.000460219,1.79
-0.00204515,0.202,-0.124396,0.452635,-0.0618427,0.362868,-0.140027,0.00707354,-0.202068,0.129742,0.476949,0.0647907,0.382666,0.134766,0.000460219,1.8
-0.00206232,0.202,-0.124424,0.452644,-0.0618546,0.36288,-0.140027,0.00706502,-0.202068,0.129742,0.476949,0.0647907,0.382654,0.134754,0.000434654,1.81
-0.00205374,0.202,-0.124396,0.452635,-0.0618546,0.362868,-0.140027,0.0070565,-0.202076,0.129729,0.476949,0.0647907,0.382666,0.134754,0.000460219,1.82
-0.00204515,0.201991,-0.124424,0.452661,-0.0618305,0.362892,-0.140027,0.00703945,-0.202068,0.129715,0.47694,0.0647788,0.38263,0.134778,0.000434654,1.83
-0.00205374,0.202,-0.12441,0.452635,-0.0618665,0.36288,-0.140027,0.00703945,-0.202068,0.129742,0.476949,0.0648029,0.382618,0.134754,0.000434654,1.84
-0.00205374,0.202,-0.12441,0.452635,-0.0618427,0.36288,-0.140015,0.00704797,-0.202059,0.129742,0.476949,0.0648029,0.382642,0.134766,0.000434654,1.85
-0.00206232,0.202,-0.124424,0.452644,-0.0618665,0.36288,-0.140039,0.0070565,-0.202068,0.129742,0.47694,0.0648029,0.38263,0.134766,0.000434654,1.86
-0.0020709,0.202,-0.124396,0.452635,-0.0618665,0.362868,-0.140027,0.00706502,-0.202076,0.129742,0.476949,0.0648029,0.382654,0.134766,0.000460219,1.87
-0.00205374,0.202,-0.12441,0.452635,-0.0618665,0.362868,-0.140027,0.00706502,-0.202093,0.129729,0.476949,0.0648029,0.382654,0.134766,0.000434654,1.88
-0.00203657,0.202,-0.12441,0.452644,-0.0618427,0.36288,-0.140027,0.00708206,-0.202059,0.129715,0.476949,0.0648029,0.382654,0.134754,0.000434654,1.89
-0.00203657,0.202,-0.124396,0.452635,-0.0618546,0.36288,-0.140027,0.00707354,-0.202076,0.129729,0.476949,0.0648029,0.382642,0.134742,0.000434654,1.9
-0.00205374,0.202,-0.12441,0.452652,-0.0618665,0.362868,-0.140027,0.00707354,-0.202068,0.129742,0.476949,0.0647907,0.382666,0.134742,0.000434654,1.91
-0.0020709,0.202,-0.12441,0.452626,-0.0618546,0.362856,-0.140039,0.0070565,-0.202059,0.129742,0.476949,0.0648029,0.382654,0.134778,0.000460219,1.92
-0.0020709,0.202008,-0.124396,0.452635,-0.0618546,0.362892,-0.140027,0.00703945,-0.202076,0.129742,0.476949,0.0647788,0.382654,0.134754,0.000460219,1.93
-0.00206232,0.202,-0.124396,0.452644,-0.0618546,0.362892,-0.140027,0.00702241,-0.202068,0.129729,0.47694,0.0647788,0.382642,0.134766,0.000460219,1.94
-0.00205374,0.201991,-0.12441,0.452635,-0.0618305,0.36288,-0.140015,0.00703945,-0.202076,0.129729,0.476949,0.0647907,0.382654,0.134754,0.000460219,1.95
-0.00203657,0.202,-0.12441,0.452644,-0.0618546,0.362892,-0.140027,0.00703945,-0.202059,0.129742,0.476949,0.0648029,0.38263,0.134742,0.000460219,1.96
-0.00204515,0.202,-0.124424,0.452635,-0.0618305,0.362868,-0.140027,0.00703945,-0.202068,0.129742,0.476966,0.0647669,0.38263,0.134754,0.000460219,1.97
-0.00203657,0.202,-0.124424,0.452644,-0.0618665,0.36288,-0.140027,0.00703945,-0.202068,0.129742,0.476966,0.0647669,0.382642,0.134754,0.000460219,1.98
-0.00207949,0.202,-0.124396,0.452652,-0.0618546,0.36288,-0.140027,0.00706502,-0.202085,0.129742,0.476949,0.0647788,0.382642,0.134754,0.000460219,1.99
-0.0020709,0.202,-0.124396,0.452635,-0.0618784,0.36288,-0.140027,0.0070565,-0.202076,0.129729,0.47694,0.0647907,0.382654,0.134766,0.000460219,2
-0.00205374,0.202,-0.124396,0.452635,-0.0618546,0.362868,-0.140039,0.00703945,-0.202059,0.129729,0.476957,0.0647907,0.382642,0.134742,0.000460219,2.01
-0.00206232,0.202,-0.124396,0.452652,-0.0618427,0.362868,-0.140039,0.0070565,-0.202068,0.129729,0.476957,0.0647788,0.382642,0.134754,0.000434654,2.02
-0.00203657,0.202,-0.124396,0.452635,-0.0618427,0.362892,-0.140027,0.00706502,-0.202076,0.129742,0.47694,0.0647788,0.382642,0.134754,0.000409087,2.03
-0.00204515,0.202008,-0.124383,0.452635,-0.0618427,0.362892,-0.140027,0.00707354,-0.202076,0.129742,0.476949,0.0648029,0.382654,0.134766,0.000409087,2.04
-0.00205374,0.201991,-0.124396,0.452635,-0.0618546,0.36288,-0.140027,0.00707354,-0.202076,0.129742,0.476949,0.0647788,0.382654,0.134766,0.000460219,2.05
-0.0020709,0.201991,-0.12441,0.452644,-0.0618546,0.362868,-0.140027,0.0070565,-0.202051,0.129729,0.47694,0.0647788,0.382654,0.13473,0.000460219,2.06
-0.00205374,0.201991,-0.12445,0.452644,-0.0618665,0.362868,-0.140015,0.00703945,-0.202068,0.129742,0.476957,0.0647788,0.382654,0.134754,0.000434654,2.07
-0.00204515,0.201991,-0.12441,0.452652,-0.0618427,0.362868,-0.140039,0.00701389,-0.202059,0.129729,0.476949,0.0647788,0.382642,0.134766,0.000409087,2.08
-0.00204515,0.202,-0.12441,0.452644,-0.0618427,0.362892,-0.140027,0.00702241,-0.202068,0.129729,0.476949,0.0647907,0.382642,0.134766,0.000434654,2.09
-0.00205374,0.201991,-0.12441,0.452635,-0.0618546,0.362892,-0.140015,0.00703093,-0.202059,0.129742,0.476957,0.0647788,0.382654,0.134754,0.000434654,2.1
-0.00205374,0.201991,-0.124396,0.452635,-0.0618427,0.36288,-0.140027,0.00703093,-0.202068,0.129742,0.476949,0.0647788,0.382654,0.134766,0.000434654,2.11
-0.00205374,0.202008,-0.124396,0.452635,-0.0618665,0.362892,-0.140027,0.00707354,-0.202059,0.129729,0.476957,0.0647907,0.382654,0.134754,0.000434654,2.12
-0.00205374,0.202008,-0.124383,0.452644,-0.0618427,0.362856,-0.140039,0.00707354,-0.202059,0.129729,0.476957,0.0648029,0.382654,0.134766,0.000485785,2.13
-0.00205374,0.202008,-0.124383,0.452635,-0.0618665,0.362892,-0.140027,0.0070565,-0.202051,0.129755,0.47694,0.0648029,0.382642,0.134766,0.000485785,2.14
-0.00203657,0.202008,-0.124396,0.452652,-0.0618305,0.362868,-0.140027,0.00704797,-0.202059,0.129729,0.476957,0.0647907,0.382666,0.134754,0.000485785,2.15
-0.00205374,0.202025,-0.124424,0.452652,-0.0618546,0.362856,-0.140027,0.00702241,-0.202068,0.129742,0.476949,0.0647907,0.38263,0.134766,0.000460219,2.16
-0.00206232,0.202,-0.12441,0.452644,-0.0618546,0.36288,-0.140027,0.00700536,-0.202093,0.129755,0.476966,0.0647788,0.382642,0.134754,0.000434654,2.17
-0.00204515,0.201983,-0.124437,0.452644,-0.0618427,0.362856,-0.140015,0.00702241,-0.202076,0.129715,0.476949,0.0648029,0.382654,0.134766,0.000409087,2.18
-0.00204515,0.201974,-0.124424,0.452635,-0.0618546,0.362868,-0.140027,0.00702241,-0.202076,0.129715,0.476949,0.0647788,0.382654,0.134754,0.000434654,2.19
-0.00205374,0.201974,-0.124437,0.452644,-0.0618546,0.362868,-0.140039,0.00702241,-0.202076,0.129702,0.476957,0.0647907,0.382654,0.134766,0.000409087,2.2
-0.00204515,0.201983,-0.12441,0.452644,-0.0618665,0.362868,-0.140015,0.00707354,-0.202076,0.129742,0.476966,0.0648029,0.382654,0.134754,0.000434654,2.21
-0.00204515,0.202,-0.12441,0.452635,-0.0618665,0.362868,-0.140027,0.00707354,-0.202051,0.129755,0.476923,0.0647907,0.382666,0.134766,0.000434654,2.22
-0.00205374,0.202008,-0.124383,0.452635,-0.0618427,0.362892,-0.140027,0.00707354,-0.202025,0.129755,0.476966,0.0647788,0.382666,0.134778,0.000460219,2.23
-0.00204515,0.202017,-0.124383,0.452635,-0.0618427,0.362868,-0.140039,0.00707354,-0.202042,0.129755,0.47694,0.0647788,0.382654,0.134742,0.000460219,2.24
-0.00205374,0.202,-0.124396,0.452635,-0.0618427,0.362892,-0.140027,0.00706502,-0.202051,0.129742,0.476949,0.0647907,0.382654,0.134754,0.000434654,2.25
-0.00203657,0.202008,-0.124396,0.452652,-0.0618665,0.36288,-0.140039,0.00703945,-0.202059,0.129715,0.476949,0.0647669,0.382654,0.134754,0.000434654,2.26
-0.00205374,0.201991,-0.12441,0.452635,-0.0618665,0.36288,-0.140039,0.00703093,-0.202068,0.129729,0.47694,0.0647788,0.382654,0.134754,0.000434654,2.27
-0.00203657,0.201991,-0.124424,0.452635,-0.0618665,0.36288,-0.140027,0.00702241,-0.202068,0.129715,0.47694,0.0647788,0.382642,0.134742,0.000434654,2.28
-0.00204515,0.201991,-0.12449,0.452652,-0.0618665,0.362892,-0.140015,0.00703945,-0.202068,0.129715,0.47694,0.0648029,0.382642,0.134766,0.000434654,2.29
-0.00203657,0.201991,-0.12441,0.452626,-0.0618784,0.362892,-0.140027,0.0070565,-0.202051,0.129715,0.476949,0.0647788,0.382642,0.134754,0.000434654,2.3
-0.00205374,0.201966,-0.12441,0.452635,-0.0618665,0.36288,-0.140027,0.0070565,-0.202042,0.129742,0.476966,0.0647907,0.382666,0.134766,0.000485785,2.31
-0.00204515,0.201991,-0.124383,0.452635,-0.0618427,0.362868,-0.140027,0.0070565,-0.202016,0.129729,0.476957,0.0647907,0.382666,0.134754,0.000485785,2.32
-0.00205374,0.202,-0.124396,0.452626,-0.0618546,0.362856,-0.140027,0.00707354,-0.202042,0.129755,0.476957,0.0647788,0.382666,0.134754,0.000434654,2.33
-0.00206232,0.202008,-0.124396,0.452652,-0.0618546,0.362868,-0.140027,0.00703945,-0.202042,0.129742,0.476949,0.0648029,0.382642,0.13473,0.000460219,2.34
-0.00205374,0.202,-0.124396,0.452644,-0.0618427,0.362868,-0.140027,0.00704797,-0.202042,0.129729,0.476957,0.0648029,0.382642,0.134742,0.000434654,2.35
-0.00204515,0.202008,-0.124396,0.452652,-0.0618665,0.36288,-0.140027,0.00703093,-0.202042,0.129742,0.47694,0.0647907,0.382654,0.134766,0.000434654,2.36
-0.00204515,0.202,-0.12441,0.452635,-0.0618546,0.362856,-0.140027,0.00704797,-0.202051,0.129729,0.476949,0.0647907,0.382642,0.134742,0.000434654,2.37
-0.00205374,0.201991,-0.12445,0.452661,-0.0618665,0.36288,-0.140027,0.00702241,-0.202051,0.129742,0.476957,0.0647907,0.382642,0.134754,0.000460219,2.38
-0.00205374,0.201983,-0.124437,0.452644,-0.0618665,0.362892,-0.140039,0.00703945,-0.202051,0.129742,0.47694,0.0648029,0.382654,0.134766,0.000460219,2.39
-0.00204515,0.201991,-0.124424,0.452644,-0.0618665,0.362868,-0.140027,0.0070565,-0.202042,0.129755,0.476949,0.0647788,0.382654,0.134742,0.000460219,2.4
-0.00204515,0.201991,-0.12445,0.452644,-0.0618784,0.362868,-0.140027,0.00704797,-0.202042,0.129742,0.476949,0.0648029,0.382654,0.134754,0.000460219,2.41
-0.00203657,0.201991,-0.12441,0.452644,-0.0618784,0.36288,-0.140027,0.0070565,-0.202042,0.129729,0.476932,0.0648029,0.382654,0.134766,0.000460219,2.42
-0.00204515,0.201991,-0.12441,0.452635,-0.0618546,0.362868,-0.140027,0.0070565,-0.202068,0.129742,0.47694,0.0647907,0.382642,0.134754,0.000434654,2.43
-0.00205374,0.201983,-0.124383,0.452635,-0.0618665,0.362868,-0.140027,0.0070565,-0.202051,0.129715,0.476957,0.0648029,0.382642,0.134766,0.000434654,2.44
-0.00206232,0.202,-0.12441,0.452635,-0.0618305,0.362868,-0.140039,0.0070565,-0.202059,0.129729,0.476957,0.0648029,0.382654,0.134766,0.000409087,2.45
-0.00204515,0.202008,-0.124396,0.452635,-0.0618427,0.36288,-0.140027,0.0070565,-0.202042,0.129742,0.47694,0.0648029,0.382666,0.134766,0.000485785,2.46
-0.00202847,0.202017,-0.124396,0.452661,-0.0618546,0.362892,-0.140015,0.0070565,-0.202051,0.129742,0.47694,0.0648029,0.382642,0.134754,0.000460219,2.47
-0.0020709,0.202008,-0.124396,0.452652,-0.0618427,0.362868,-0.140027,0.00704797,-0.202059,0.129742,0.476949,0.0648029,0.382654,0.134754,0.000511352,2.48
-0.00203657,0.202008,-0.12441,0.452644,-0.0618305,0.362868,-0.140027,0.00703945,-0.202051,0.129729,0.476949,0.0648029,0.382642,0.134754,0.000434654,2.49
-0.00203657,0.201991,-0.124424,0.452635,-0.0618665,0.362868,-0.140015,0.00703093,-0.202042,0.129729,0.476949,0.0648029,0.382666,0.134742,0.000460219,2.5
-0.00203657,0.201974,-0.124424,0.452644,-0.0618665,0.36288,-0.140027,0.00704797,-0.202034,0.129715,0.47694,0.0648029,0.382642,0.134766,0.000409087,2.51
-0.00203657,0.201974,-0.124437,0.452635,-0.0618665,0.362868,-0.140027,0.00703945,-0.202051,0.129715,0.476949,0.0647788,0.382654,0.134766,0.000434654,2.52
-0.00205374,0.201991,-0.124437,0.452635,-0.0618427,0.362892,-0.140027,0.00704797,-0.202042,0.129715,0.476949,0.0648029,0.38263,0.134754,0.000434654,2.53
-0.00204515,0.201991,-0.124424,0.452635,-0.0618546,0.362892,-0.140027,0.0070565,-0.202042,0.129742,0.476932,0.0648029,0.382666,0.134766,0.000485785,2.54
-0.00204515,0.201991,-0.12441,0.452644,-0.0618427,0.362892,-0.140027,0.00704797,-0.202034,0.129755,0.476966,0.0648029,0.382642,0.134766,0.000511352,2.55
-0.00204515,0.202017,-0.124396,0.452644,-0.0618546,0.362892,-0.140027,0.0070565,-0.202042,0.129729,0.476949,0.0648029,0.382654,0.134754,0.000460219,2.56
-0.00205374,0.202017,-0.124396,0.452644,-0.0618546,0.362868,-0.140027,0.0070565,-0.202042,0.129729,0.476949,0.0648029,0.382642,0.134754,0.000460219,2.57
-0.00204515,0.202008,-0.124396,0.452635,-0.0618427,0.36288,-0.140039,0.00706502,-0.202025,0.129729,0.47694,0.0647788,0.382654,0.134742,0.000460219,2.58
-0.00203657,0.202,-0.12441,0.452626,-0.0618546,0.362868,-0.140027,0.00708206,-0.202051,0.129742,0.476949,0.0648029,0.382666,0.134754,0.000434654,2.59
-0.00204515,0.202,-0.124424,0.452626,-0.0618665,0.362856,-0.140027,0.00704797,-0.202068,0.129729,0.476957,0.0647907,0.382666,0.134754,0.000434654,2.6
-0.00204515,0.202,-0.124424,0.452635,-0.0618665,0.362892,-0.140027,0.00707354,-0.202051,0.129715,0.476949,0.0648029,0.382642,0.134742,0.000409087,2.61
-0.00207949,0.201991,-0.124424,0.452635,-0.0618427,0.362892,-0.140003,0.00703945,-0.202025,0.129742,0.47694,0.0648029,0.382654,0.134754,0.000434654,2.62
-0.00207949,0.202008,-0.124424,0.452626,-0.0618546,0.36288,-0.140027,0.00700536,-0.202042,0.129755,0.47694,0.0648029,0.382654,0.134766,0.000460219,2.63
-0.00207949,0.202008,-0.124396,0.452635,-0.0618546,0.36288,-0.140027,0.00702241,-0.202034,0.129742,0.476949,0.0648029,0.38263,0.134754,0.000434654,2.64
-0.00206232,0.202,-0.124396,0.452626,-0.0618784,0.362892,-0.140039,0.00702241,-0.202016,0.129729,0.476957,0.0648029,0.382642,0.134766,0.000460219,2.65
-0.00207949,0.202,-0.12441,0.452652,-0.0618546,0.362856,-0.140015,0.00703093,-0.202042,0.129742,0.476949,0.0648029,0.382666,0.134766,0.000460219,2.66
-0.00204515,0.202,-0.12441,0.452644,-0.0618546,0.362892,-0.140027,0.00704797,-0.202042,0.129769,0.476957,0.0648029,0.382654,0.134766,0.000434654,2.67
-0.00205374,0.202,-0.12441,0.452644,-0.0618546,0.362892,-0.140027,0.00706502,-0.202042,0.129729,0.476957,0.0648029,0.382654,0.134766,0.000434654,2.68
-0.00203657,0.202,-0.12441,0.452652,-0.0618427,0.36288,-0.140027,0.00706502,-0.202051,0.129742,0.476957,0.0647907,0.382654,0.134766,0.000434654,2.69
-0.00204515,0.202,-0.12441,0.452626,-0.0618427,0.36288,-0.140027,0.00703945,-0.202034,0.129742,0.476949,0.0647907,0.382654,0.134766,0.000434654,2.7
-0.00206232,0.201991,-0.12441,0.452652,-0.0618427,0.36288,-0.140027,0.00702241,-0.202042,0.129715,0.476949,0.0647788,0.382666,0.134754,0.000460219,2.71
-0.00206232,0.202,-0.12441,0.452635,-0.0618546,0.362868,-0.140015,0.00703093,-0.202034,0.129742,0.476949,0.0648029,0.382642,0.134754,0.000485785,2.72
-0.00206232,0.202,-0.12441,0.452635,-0.0618665,0.362868,-0.140027,0.00703093,-0.202042,0.129742,0.476957,0.0648029,0.382642,0.134766,0.000460219,2.73
-0.00205374,0.201991,-0.12441,0.452652,-0.0618665,0.362868,-0.140027,0.00703945,-0.202042,0.129769,0.476957,0.0648029,0.382654,0.134766,0.000460219,2.74
-0.00204515,0.202,-0.12441,0.452644,-0.0618665,0.36288,-0.140039,0.00703093,-0.202042,0.129742,0.476949,0.0648029,0.382654,0.134754,0.000460219,2.75
-0.00205374,0.202,-0.12441,0.452669,-0.0618546,0.362892,-0.140027,0.00704797,-0.202051,0.129715,0.476966,0.0648029,0.382654,0.134754,0.000460219,2.76
-0.00203657,0.202,-0.12441,0.452652,-0.0618305,0.362892,-0.140027,0.00706502,-0.202051,0.129715,0.47694,0.0647788,0.382654,0.134742,0.000434654,2.77
-0.00206232,0.202,-0.124396,0.452644,-0.0618546,0.362868,-0.140027,0.0070565,-0.202051,0.129729,0.476957,0.0647907,0.382654,0.134766,0.000460219,2.78
-0.00206232,0.202,-0.12441,0.452652,-0.0618305,0.36288,-0.140027,0.00703945,-0.202042,0.129715,0.47694,0.0647788,0.382654,0.134742,0.000434654,2.79
-0.00205374,0.202,-0.12441,0.452652,-0.0618665,0.362856,-0.140027,0.00703945,-0.202042,0.129742,0.476949,0.0647907,0.382654,0.134754,0.000434654,2.8
-0.00205374,0.202,-0.12441,0.452644,-0.0618665,0.362892,-0.140015,0.00704797,-0.202042,0.129729,0.476957,0.0648029,0.382642,0.134778,0.000434654,2.81
-0.00205374,0.201991,-0.12441,0.452652,-0.0618546,0.36288,-0.140027,0.00704797,-0.202051,0.129729,0.476949,0.0648029,0.382666,0.134742,0.000434654,2.82
-0.00204515,0.202,-0.12441,0.452635,-0.0618665,0.362892,-0.140027,0.0070565,-0.202042,0.129742,0.476966,0.0648029,0.382654,0.134766,0.000409087,2.83
-0.00205374,0.201991,-0.124437,0.452635,-0.0618546,0.36288,-0.140027,0.00704797,-0.202042,0.129729,0.476949,0.0647907,0.382642,0.134766,0.00038352,2.84
-0.00206232,0.202,-0.12441,0.452652,-0.0618665,0.362856,-0.140027,0.00704797,-0.202042,0.129742,0.476932,0.0648029,0.382666,0.134766,0.000434654,2.85
-0.0020709,0.202008,-0.124396,0.452644,-0.0618546,0.36288,-0.140027,0.00704797,-0.202042,0.129755,0.47694,0.0648148,0.382654,0.134754,0.000460219,2.86
-0.0020709,0.202008,-0.12441,0.452652,-0.0618427,0.362868,-0.140027,0.00704797,-0.202034,0.129755,0.476949,0.0647788,0.382654,0.134766,0.000460219,2.87
-0.00205374,0.202,-0.12441,0.452635,-0.0618546,0.36288,-0.140027,0.00706502,-0.202034,0.129702,0.476949,0.0648029,0.382642,0.134766,0.000485785,2.88
-0.00205374,0.202,-0.124396,0.452635,-0.0618305,0.362892,-0.140027,0.0070565,-0.202034,0.129742,0.476949,0.0648029,0.382642,0.134766,0.000434654,2.89
-0.00204515,0.202,-0.124383,0.452652,-0.0618784,0.362868,-0.140027,0.00703945,-0.202051,0.129742,0.47694,0.0647788,0.382642,0.134742,0.000434654,2.9
-0.00205374,0.201991,-0.12441,0.452644,-0.0618546,0.36288,-0.140039,0.00703945,-0.202051,0.129729,0.47694,0.0648029,0.382666,0.134766,0.000434654,2.91
-0.00204515,0.202,-0.12441,0.452644,-0.0618546,0.36288,-0.140027,0.00703945,-0.202034,0.129729,0.476949,0.0648029,0.382654,0.134754,0.000460219,2.92
-0.00204515,0.202,-0.124437,0.452635,-0.0618665,0.362892,-0.140027,0.00704797,-0.202051,0.129729,0.476949,0.0648029,0.382642,0.134766,0.000434654,2.93
-0.00204515,0.202,-0.124424,0.452644,-0.0618546,0.362892,-0.140027,0.00704797,-0.202042,0.129755,0.47694,0.0647788,0.382654,0.134766,0.000434654,2.94
-0.00203657,0.202008,-0.124424,0.452652,-0.0618546,0.36288,-0.140027,0.00703945,-0.202051,0.129729,0.47694,0.0648148,0.382642,0.134754,0.000460219,2.95
-0.00204515,0.202008,-0.12441,0.452635,-0.0618665,0.36288,-0.140027,0.00703945,-0.202042,0.129742,0.476949,0.0648029,0.382654,0.134766,0.000460219,2.96
-0.00204515,0.202,-0.12441,0.452644,-0.0618665,0.36288,-0.140039,0.0070565,-0.202042,0.129729,0.47694,0.0648029,0.382642,0.134766,0.000434654,2.97
-0.00204515,0.202008,-0.12441,0.452644,-0.0618665,0.36288,-0.140027,0.00706502,-0.202034,0.129729,0.476957,0.0647788,0.382654,0.134754,0.000434654,2.98
-0.00206232,0.202,-0.124424,0.452644,-0.0618784,0.36288,-0.140027,0.0070565,-0.202051,0.129729,0.476957,0.0647788,0.382642,0.134766,0.000434654,2.99
-0.00205374,0.202008,-0.124396,0.452635,-0.0618427,0.36288,-0.140027,0.0070565,-0.202042,0.129729,0.476949,0.0648029,0.382642,0.134766,0.000460219,3
-0.00206232,0.202008,-0.12441,0.452652,-0.0618546,0.362868,-0.140027,0.00704797,-0.202059,0.129729,0.476949,0.0648029,0.382642,0.134742,0.000434654,3.01
-0.00205374,0.202,-0.12441,0.452635,-0.0618546,0.362892,-0.140039,0.00702241,-0.202034,0.129742,0.47694,0.0648029,0.382654,0.134754,0.000434654,3.02
-0.00205374,0.201991,-0.124396,0.452635,-0.0618665,0.362892,-0.140027,0.00703945,-0.202042,0.129742,0.476949,0.0648029,0.382654,0.134754,0.000434654,3.03
-0.00205374,0.201991,-0.124424,0.452635,-0.0618665,0.36288,-0.140027,0.00704797,-0.202051,0.129729,0.476957,0.0648148,0.382654,0.134766,0.000434654,3.04
-0.00204515,0.201991,-0.124424,0.452652,-0.0618427,0.362892,-0.140027,0.00706502,-0.202042,0.129729,0.476949,0.0648029,0.382654,0.134754,0.000460219,3.05
-0.00205374,0.201991,-0.124437,0.452635,-0.0618427,0.362892,-0.140039,0.00706502,-0.202034,0.129742,0.476957,0.0648029,0.382654,0.134766,0.000434654,3.06
-0.00204515,0.202008,-0.124424,0.452644,-0.0618427,0.36288,-0.140027,0.0070565,-0.202025,0.129755,0.476949,0.0648148,0.382654,0.134754,0.000434654,3.07
-0.00205374,0.201991,-0.12441,0.452661,-0.0618665,0.362892,-0.140027,0.0070565,-0.202042,0.129742,0.476957,0.0648148,0.382654,0.134754,0.000409087,3.08
-0.00206232,0.201991,-0.12441,0.452635,-0.0618427,0.362892,-0.140027,0.0070565,-0.202051,0.129742,0.476966,0.0648029,0.382654,0.134754,0.000434654,3.09
-0.00205374,0.202,-0.124396,0.452635,-0.0618546,0.362916,-0.140027,0.00706502,-0.202051,0.129742,0.476932,0.0648029,0.382642,0.134754,0.000460219,3.1
-0.0020709,0.202008,-0.124424,0.452626,-0.0618665,0.362868,-0.140015,0.00704797,-0.202051,0.129729,0.476966,0.0648029,0.382642,0.134766,0.000460219,3.11
-0.00205374,0.202,-0.12441,0.452635,-0.0618665,0.362868,-0.140039,0.00703945,-0.202042,0.129755,0.47694,0.0648029,0.382678,0.134754,0.000434654,3.12
-0.00205374,0.202008,-0.12441,0.452644,-0.0618546,0.362892,-0.140015,0.00703945,-0.202042,0.129742,0.476957,0.0648029,0.382654,0.134766,0.000434654,3.13
-0.00205374,0.202,-0.12441,0.452661,-0.0618546,0.362868,-0.140027,0.00704797,-0.202034,0.129729,0.476957,0.0648029,0.382666,0.134766,0.000460219,3.14
-0.00205374,0.201991,-0.124424,0.452644,-0.0618665,0.36288,-0.140015,0.00703945,-0.202051,0.129755,0.476966,0.0648029,0.382666,0.134754,0.000460219,3.15
-0.00206232,0.202,-0.12441,0.452652,-0.0618784,0.36288,-0.140015,0.00704797,-0.202042,0.129742,0.476957,0.0647788,0.382654,0.134766,0.000460219,3.16
-0.00204515,0.202008,-0.12441,0.452635,-0.0618546,0.362892,-0.140015,0.00707354,-0.202034,0.129769,0.47694,0.0648029,0.382654,0.134766,0.000434654,3.17
-0.00205374,0.202008,-0.12441,0.452644,-0.0618665,0.362892,-0.140015,0.0070565,-0.202034,0.129742,0.476957,0.0648029,0.382654,0.134754,0.000434654,3.18
-0.00206232,0.201991,-0.124396,0.452652,-0.0618546,0.362868,-0.140027,0.0070565,-0.202051,0.129742,0.476932,0.0648029,0.382654,0.134778,0.000434654,3.19
-0.00205374,0.202,-0.12441,0.452626,-0.0618665,0.362892,-0.140027,0.00703093,-0.202042,0.129755,0.476932,0.0647788,0.382654,0.134754,0.000460219,3.2
-0.00205374,0.201991,-0.12441,0.452635,-0.0618784,0.362892,-0.140027,0.00702241,-0.202051,0.129742,0.47694,0.0647907,0.382666,0.134754,0.000434654,3.21
-0.00206232,0.202,-0.12441,0.452644,-0.0618665,0.362868,-0.140015,0.00703093,-0.202042,0.129729,0.47694,0.0648029,0.382666,0.13473,0.000409087,3.22
-0.00206232,0.201991,-0.12441,0.452652,-0.0618784,0.362904,-0.140027,0.00703945,-0.202034,0.129742,0.476949,0.0648029,0.382654,0.134766,0.000460219,3.23
-0.00205374,0.202,-0.12441,0.452635,-0.0618546,0.362892,-0.140015,0.00704797,-0.202034,0.129729,0.476957,0.0648029,0.382654,0.134766,0.000460219,3.24
-0.00205374,0.201991,-0.124424,0.452652,-0.0618665,0.362892,-0.140027,0.0070565,-0.202042,0.129755,0.476966,0.0647788,0.382654,0.134754,0.000460219,3.25
-0.00205374,0.201991,-0.12441,0.452644,-0.0618546,0.362892,-0.140027,0.00709058,-0.202042,0.129729,0.476949,0.0648029,0.382654,0.134754,0.000460219,3.26
-0.00206232,0.202008,-0.12441,0.452635,-0.0618665,0.362892,-0.140027,0.00706502,-0.202025,0.129755,0.476949,0.0647788,0.382666,0.134754,0.000460219,3.27
-0.00205374,0.202,-0.12441,0.452661,-0.0618665,0.36288,-0.140039,0.00706502,-0.202034,0.129742,0.47694,0.0648029,0.382654,0.134766,0.000434654,3.28
-0.00205374,0.201983,-0.124437,0.452652,-0.0618427,0.362868,-0.140015,0.00704797,-0.202042,0.129715,0.476949,0.0648029,0.382654,0.134766,0.000434654,3.29
-0.00204515,0.202,-0.12441,0.452635,-0.0618665,0.36288,-0.140027,0.00703093,-0.202042,0.129755,0.476957,0.0647788,0.382654,0.134754,0.000460219,3.3
-0.00204515,0.202,-0.12441,0.452652,-0.0618305,0.36288,-0.140039,0.00704797,-0.202042,0.129729,0.476949,0.0648029,0.382654,0.134754,0.000460219,3.31
-0.00204515,0.202,-0.12441,0.452652,-0.0618546,0.362892,-0.140015,0.00707354,-0.202025,0.129742,0.476949,0.0648029,0.382654,0.134766,0.000460219,3.32
-0.00204515,0.202,-0.12441,0.452635,-0.0618427,0.362868,-0.140027,0.00706502,-0.202042,0.129742,0.476966,0.0648148,0.382642,0.134742,0.000434654,3.33
-0.00204515,0.201991,-0.124424,0.452635,-0.0618186,0.36288,-0.140027,0.00706502,-0.202016,0.129729,0.476932,0.0648029,0.382666,0.134754,0.000485785,3.34
-0.00206232,0.202,-0.12441,0.452644,-0.0618427,0.362892,-0.140027,0.00703945,-0.202042,0.129742,0.476949,0.0648029,0.382642,0.134766,0.000485785,3.35
-0.00204515,0.202008,-0.124424,0.452652,-0.0618546,0.362892,-0.140027,0.00703093,-0.202051,0.129742,0.47694,0.0648029,0.382654,0.134742,0.000434654,3.36
-0.00205374,0.202008,-0.124424,0.452635,-0.0618665,0.362892,-0.140039,0.00702241,-0.202051,0.129755,0.47694,0.0648029,0.382666,0.134766,0.000409087,3.37
-0.00205374,0.201991,-0.12441,0.452644,-0.0618665,0.36288,-0.140039,0.00702241,-0.202051,0.129702,0.476949,0.0648029,0.382654,0.134766,0.000434654,3.38
-0.00205374,0.202,-0.12441,0.452635,-0.0618665,0.362892,-0.140027,0.00703093,-0.202051,0.129715,0.476949,0.0648029,0.382654,0.134742,0.000460219,3.39
-0.00205374,0.202008,-0.12441,0.452635,-0.0618665,0.362892,-0.140027,0.00704797,-0.202068,0.129742,0.476974,0.0648029,0.382654,0.134754,0.000434654,3.4
-0.00205374,0.202008,-0.124424,0.452635,-0.0618665,0.36288,-0.140027,0.0070565,-0.202042,0.129742,0.476966,0.0648029,0.382654,0.134754,0.000460219,3.41
-0.00205374,0.202,-0.12441,0.452635,-0.0618546,0.362868,-0.140015,0.00706502,-0.202051,0.129742,0.476949,0.0648148,0.382654,0.134754,0.000460219,3.42
-0.00205374,0.202008,-0.124396,0.452635,-0.0618427,0.362892,-0.140027,0.00704797,-0.202042,0.129755,0.476949,0.0648029,0.382654,0.134766,0.000460219,3.43
-0.00205374,0.202,-0.12441,0.452635,-0.0618546,0.362892,-0.140039,0.00703093,-0.202034,0.129742,0.47694,0.0647907,0.382654,0.134766,0.000460219,3.44
-0.00205374,0.202008,-0.12441,0.452652,-0.0618546,0.362892,-0.140051,0.00702241,-0.202051,0.129742,0.476949,0.0648029,0.382654,0.134742,0.000460219,3.45
-0.00206232,0.201991,-0.124424,0.452635,-0.0618546,0.362868,-0.140015,0.00703093,-0.202051,0.129729,0.476957,0.0648029,0.382654,0.134754,0.000434654,3.46
-0.00206232,0.201991,-0.124424,0.452635,-0.0618665,0.362868,-0.140027,0.00702241,-0.202059,0.129729,0.476957,0.0648029,0.382642,0.134754,0.000434654,3.47
-0.00205374,0.201991,-0.12441,0.452635,-0.0618546,0.362892,-0.140027,0.00702241,-0.202051,0.129715,0.476949,0.0647788,0.382666,0.134754,0.000434654,3.48
-0.00204515,0.201991,-0.124396,0.452635,-0.0618546,0.362892,-0.140027,0.00703945,-0.202042,0.129742,0.476957,0.0648029,0.382654,0.134766,0.000460219,3.49
-0.00204515,0.202008,-0.12441,0.452644,-0.0618546,0.362892,-0.140027,0.00703945,-0.202034,0.129729,0.476957,0.0647788,0.382666,0.134754,0.000460219,3.5
-0.00204515,0.202,-0.12441,0.452652,-0.0618665,0.362892,-0.140015,0.0070565,-0.202042,0.129742,0.47694,0.0648029,0.382654,0.134754,0.000460219,3.51
-0.00204515,0.201983,-0.12441,0.452652,-0.0618546,0.362892,-0.140027,0.00703945,-0.202016,0.129742,0.476957,0.0648029,0.382654,0.134766,0.000460219,3.52
-0.00204515,0.202,-0.124424,0.452652,-0.0618665,0.36288,-0.140027,0.0070565,-0.202051,0.129742,0.476949,0.0648029,0.382654,0.134766,0.000434654,3.53
-0.00205374,0.201991,-0.124396,0.452677,-0.0618665,0.362868,-0.140015,0.0070565,-0.202059,0.129742,0.47694,0.0647907,0.382666,0.134754,0.000434654,3.54
-0.00204515,0.201991,-0.12441,0.452635,-0.0618546,0.362892,-0.140027,0.0070565,-0.202051,0.129742,0.476957,0.0648029,0.382654,0.134754,0.000434654,3.55
-0.00204515,0.202,-0.12441,0.452652,-0.0618665,0.362892,-0.140039,0.00703945,-0.202051,0.129715,0.476949,0.0648029,0.382666,0.134754,0.000409087,3.56
-0.00204515,0.201983,-0.12441,0.452635,-0.0618305,0.362868,-0.140027,0.00703093,-0.202051,0.129715,0.476949,0.0647907,0.382654,0.134754,0.000434654,3.57
-0.00204515,0.202008,-0.124424,0.452644,-0.0618784,0.36288,-0.140027,0.00702241,-0.202042,0.129729,0.476949,0.0647788,0.382654,0.134766,0.000460219,3.58
-0.00205374,0.202,-0.12441,0.452644,-0.0618784,0.362868,-0.140039,0.00703093,-0.202051,0.129729,0.476949,0.0648029,0.382666,0.134754,0.000460219,3.59
-0.00205374,0.202017,-0.12441,0.452644,-0.0618665,0.362892,-0.140027,0.00703945,-0.202051,0.129742,0.476949,0.0647788,0.382654,0.134766,0.000434654,3.6
-0.00206232,0.202,-0.124396,0.452635,-0.0618546,0.362904,-0.140027,0.00704797,-0.202051,0.129715,0.476949,0.0648029,0.382654,0.134766,0.000460219,3.61
-0.00205374,0.202008,-0.12441,0.452652,-0.0618665,0.362892,-0.140027,0.0070565,-0.202034,0.129742,0.476957,0.0647788,0.382678,0.134766,0.000434654,3.62
-0.00206232,0.202,-0.124424,0.452635,-0.0618546,0.36288,-0.140027,0.00704797,-0.202051,0.129729,0.476957,0.0647788,0.382666,0.134766,0.000434654,3.63
-0.00205374,0.202,-0.124396,0.452635,-0.0618546,0.362892,-0.140027,0.00703945,-0.202051,0.129729,0.476949,0.0647907,0.382642,0.134766,0.000434654,3.64
-0.00203657,0.202,-0.12441,0.452644,-0.0618427,0.362892,-0.140027,0.00704797,-0.202042,0.129742,0.476957,0.0648029,0.382654,0.134754,0.000434654,3.65
-0.00205374,0.201991,-0.12441,0.452635,-0.0618665,0.362892,-0.140039,0.00703945,-0.202051,0.129755,0.476957,0.0648029,0.382666,0.134766,0.000485785,3.66
-0.00206232,0.202,-0.124396,0.452635,-0.0618546,0.362904,-0.140027,0.00703093,-0.202034,0.129729,0.476949,0.0648029,0.382654,0.134754,0.000485785,3.67
-0.00206232,0.202008,-0.12441,0.452635,-0.0618546,0.362868,-0.140027,0.0070565,-0.202034,0.129755,0.476966,0.0648029,0.382654,0.134754,0.000485785,3.68
-0.00206232,0.202008,-0.12441,0.452626,-0.0618665,0.362892,-0.140015,0.00704797,-0.202016,0.129742,0.476974,0.0648029,0.382666,0.134754,0.000485785,3.69
-0.00205374,0.202008,-0.12441,0.452652,-0.0618427,0.36288,-0.140027,0.00704797,-0.202051,0.129689,0.476957,0.0647788,0.382654,0.134778,0.000460219,3.7
-0.00205374,0.201991,-0.124437,0.452635,-0.0618427,0.362868,-0.140027,0.00706502,-0.202042,0.129729,0.476932,0.0647907,0.382654,0.134766,0.000460219,3.71
-0.00205374,0.202,-0.124424,0.452635,-0.0618665,0.362892,-0.140015,0.00703945,-0.202034,0.129715,0.47694,0.0648029,0.382654,0.134754,0.000434654,3.72
-0.00204515,0.201991,-0.12441,0.452635,-0.0618427,0.362892,-0.140027,0.00703945,-0.202025,0.129729,0.476949,0.0648029,0.382654,0.134766,0.000460219,3.73
-0.00205374,0.202,-0.12441,0.452635,-0.0618665,0.362892,-0.140039,0.0070565,-0.202042,0.129742,0.476949,0.0648148,0.382654,0.134754,0.000434654,3.74
-0.00206232,0.202,-0.124396,0.452635,-0.0618665,0.362868,-0.140027,0.0070565,-0.202034,0.129755,0.476949,0.0648029,0.382666,0.134754,0.000460219,3.75
-0.00205374,0.201991,-0.12441,0.452644,-0.0618427,0.362868,-0.140027,0.0070565,-0.202025,0.129729,0.47694,0.0648148,0.382666,0.134754,0.000460219,3.76
-0.00205374,0.202008,-0.124396,0.452652,-0.0618665,0.362892,-0.140039,0.00703945,-0.202059,0.129729,0.476949,0.0647907,0.382666,0.134766,0.000460219,3.77
-0.00205374,0.202008,-0.124424,0.452652,-0.0618546,0.362892,-0.140027,0.00703945,-0.202025,0.129729,0.476957,0.0648029,0.382666,0.134754,0.000434654,3.78
-0.00205374,0.202008,-0.12441,0.452635,-0.0618546,0.362868,-0.140027,0.00704797,-0.202042,0.129729,0.476949,0.0648029,0.382642,0.134766,0.000460219,3.79
-0.00204515,0.202,-0.12441,0.452644,-0.0618427,0.362892,-0.140015,0.00704797,-0.202042,0.129729,0.47694,0.0648029,0.382654,0.134754,0.000434654,3.8
-0.00205374,0.202,-0.12441,0.452635,-0.0618546,0.362892,-0.140015,0.0070565,-0.202042,0.129742,0.476949,0.0648029,0.382654,0.134778,0.000434654,3.81
-0.00204515,0.202,-0.124396,0.452635,-0.0618427,0.362892,-0.140015,0.00703945,-0.202042,0.129769,0.47694,0.0648029,0.382654,0.134754,0.000460219,3.82
-0.00203657,0.202,-0.124396,0.452635,-0.0618546,0.362892,-0.140027,0.00702241,-0.202034,0.129742,0.476949,0.0648029,0.382654,0.134766,0.000460219,3.83
-0.00205374,0.202008,-0.124396,0.452635,-0.0618546,0.362892,-0.140027,0.00703093,-0.202042,0.129742,0.47694,0.0648029,0.382654,0.134754,0.000460219,3.84
-0.00204515,0.202008,-0.12441,0.452626,-0.0618546,0.362868,-0.140027,0.00703945,-0.202034,0.129729,0.47694,0.0648029,0.382666,0.134778,0.000460219,3.85
-0.00203657,0.202,-0.124424,0.452635,-0.0618665,0.362868,-0.140039,0.00703945,-0.202051,0.129715,0.476957,0.0648029,0.382654,0.134766,0.000460219,3.86
-0.00205374,0.202,-0.124424,0.452644,-0.0618546,0.362892,-0.140039,0.00706502,-0.202051,0.129715,0.476966,0.0647788,0.382654,0.134754,0.000434654,3.87
-0.00204515,0.201991,-0.12441,0.452626,-0.0618546,0.362868,-0.140027,0.00707354,-0.202059,0.129729,0.47694,0.0648029,0.382654,0.134766,0.000460219,3.88
-0.00202847,0.202,-0.124437,0.452635,-0.0618546,0.36288,-0.140015,0.00706502,-0.202042,0.129742,0.476957,0.0648148,0.382654,0.134754,0.000434654,3.89
-0.00203657,0.202,-0.12441,0.452644,-0.0618427,0.362856,-0.140027,0.00707354,-0.202034,0.129729,0.476957,0.0648029,0.382678,0.134778,0.000434654,3.9
-0.00203657,0.202,-0.124396,0.452635,-0.0618427,0.362892,-0.140015,0.00707354,-0.202042,0.129729,0.476957,0.0648029,0.382654,0.134754,0.000460219,3.91
-0.00205374,0.202008,-0.124396,0.452644,-0.0618305,0.362892,-0.140027,0.00704797,-0.202034,0.129729,0.47694,0.0647788,0.382666,0.134754,0.000485785,3.92
-0.00205374,0.201991,-0.124396,0.452635,-0.0618546,0.362856,-0.140015,0.00701389,-0.202025,0.129729,0.47694,0.0648029,0.382654,0.134766,0.000460219,3.93
-0.00206232,0.202008,-0.12441,0.452644,-0.0618665,0.362868,-0.140027,0.00702241,-0.202059,0.129742,0.476949,0.0648029,0.382654,0.134766,0.000460219,3.94
-0.00205374,0.201991,-0.12441,0.452635,-0.0618546,0.362892,-0.140027,0.00702241,-0.202051,0.129729,0.476966,0.0648029,0.382654,0.134766,0.000409087,3.95
-0.00205374,0.201991,-0.124424,0.452635,-0.0618665,0.362904,-0.140027,0.00703093,-0.202042,0.129715,0.47694,0.0647788,0.382654,0.134766,0.000434654,3.96
-0.00204515,0.202,-0.12441,0.452644,-0.0618665,0.362892,-0.140027,0.00703093,-0.202042,0.129715,0.476957,0.0648148,0.382642,0.134754,0.000460219,3.97
-0.00205374,0.201991,-0.12441,0.452635,-0.0618665,0.362892,-0.140027,0.00706502,-0.202042,0.129715,0.476957,0.0648148,0.382666,0.134754,0.000434654,3.98
-0.00204515,0.202,-0.12441,0.452635,-0.0618427,0.362892,-0.140015,0.00703945,-0.202034,0.129729,0.476949,0.0648029,0.382666,0.134778,0.000434654,3.99
-0.00205374,0.202,-0.12441,0.452644,-0.0618665,0.362892,-0.140027,0.0070565,-0.202025,0.129729,0.476957,0.0648029,0.382654,0.134778,0.000460219,4
-0.00206232,0.202,-0.124396,0.452635,-0.0618546,0.362892,-0.140027,0.00703945,-0.202016,0.129742,0.476949,0.0648148,0.382642,0.134778,0.000434654,4.01
-0.00204515,0.202,-0.124424,0.452635,-0.0618305,0.362892,-0.140027,0.00703093,-0.202042,0.129715,0.47694,0.0648029,0.382666,0.134754,0.000460219,4.02
-0.00205374,0.202,-0.124424,0.452635,-0.0618546,0.362892,-0.140027,0.00703945,-0.202051,0.129729,0.47694,0.0648029,0.382654,0.134766,0.000409087,4.03
-0.00204515,0.202,-0.12441,0.452626,-0.0618546,0.362892,-0.140027,0.00703945,-0.202051,0.129755,0.47694,0.0648029,0.382666,0.134754,0.000434654,4.04
-0.00204515,0.201991,-0.124396,0.452626,-0.0618305,0.362868,-0.140027,0.00702241,-0.202076,0.129742,0.47694,0.0648029,0.382666,0.134754,0.000409087,4.05
-0.00206232,0.201983,-0.124396,0.452626,-0.0618546,0.362868,-0.140015,0.00703093,-0.202042,0.129729,0.476949,0.0648029,0.382666,0.134766,0.000434654,4.06
-0.00205374,0.202008,-0.124396,0.452635,-0.0618665,0.36288,-0.140027,0.00703945,-0.202042,0.129742,0.476949,0.0648029,0.382678,0.134754,0.000460219,4.07
-0.00205374,0.202008,-0.124396,0.452635,-0.0618665,0.36288,-0.140027,0.00703093,-0.202042,0.129742,0.476949,0.0648148,0.382654,0.134766,0.000460219,4.08
-0.00206232,0.202,-0.12441,0.452644,-0.0618427,0.362904,-0.140015,0.00703093,-0.202016,0.129742,0.476949,0.0648029,0.382654,0.134766,0.000460219,4.09
-0.00204515,0.201991,-0.12441,0.452652,-0.0618427,0.362892,-0.140015,0.00703945,-0.202034,0.129742,0.476932,0.0648029,0.382666,0.134766,0.000460219,4.1
-0.00205374,0.201991,-0.124424,0.452635,-0.0618546,0.362892,-0.140015,0.00703093,-0.202016,0.129729,0.476957,0.0648029,0.382654,0.134766,0.000460219,4.11
-0.00205374,0.202017,-0.124396,0.452644,-0.0618665,0.362868,-0.140027,0.00704797,-0.202051,0.129715,0.476932,0.0648029,0.382654,0.134766,0.000434654,4.12
-0.00206232,0.201991,-0.124424,0.452644,-0.0618305,0.362892,-0.140051,0.0070565,-0.202025,0.129729,0.47694,0.0648029,0.382666,0.134754,0.000460219,4.13
-0.00205374,0.201991,-0.12441,0.452635,-0.0618427,0.362904,-0.140039,0.00703945,-0.202042,0.129755,0.476949,0.0648148,0.382666,0.134766,0.000434654,4.14
-0.00204515,0.202,-0.124424,0.452652,-0.0618665,0.362892,-0.140039,0.0070565,-0.202034,0.129742,0.476949,0.0648029,0.382678,0.134766,0.000460219,4.15
-0.00204515,0.202008,-0.124396,0.452635,-0.0618546,0.362868,-0.140027,0.0070565,-0.202042,0.129715,0.476949,0.0648267,0.382666,0.134754,0.000460219,4.16
-0.00203657,0.202008,-0.12441,0.452635,-0.0618665,0.362892,-0.140027,0.0070565,-0.202034,0.129755,0.476957,0.0648148,0.382666,0.134754,0.000485785,4.17
-0.00204515,0.202,-0.12441,0.452644,-0.0618546,0.362868,-0.140015,0.0070565,-0.202042,0.129742,0.476949,0.0648148,0.382666,0.134754,0.000460219,4.18
-0.00204515,0.202,-0.124396,0.452635,-0.0618427,0.36288,-0.140027,0.00703093,-0.202025,0.129742,0.476966,0.0648029,0.382678,0.134754,0.000434654,4.19
-0.00205374,0.201991,-0.12441,0.452635,-0.0618546,0.362892,-0.140027,0.00702241,-0.202059,0.129729,0.476957,0.0648029,0.382666,0.134778,0.000434654,4.2
-0.00205374,0.201991,-0.12441,0.452635,-0.0618546,0.36288,-0.140027,0.00702241,-0.202051,0.129742,0.476949,0.0648029,0.382654,0.134742,0.000434654,4.21
-0.00203657,0.202,-0.12441,0.452635,-0.0618546,0.362892,-0.140027,0.00703093,-0.202042,0.129742,0.476974,0.0648029,0.382654,0.134766,0.000434654,4.22
-0.00205374,0.202,-0.124396,0.452635,-0.0618546,0.362892,-0.140027,0.00704797,-0.202042,0.129742,0.47694,0.0648029,0.382678,0.134754,0.000460219,4.23
-0.00203657,0.201991,-0.12441,0.452644,-0.0618186,0.362892,-0.140027,0.00706502,-0.202016,0.129742,0.47694,0.0648029,0.382654,0.134766,0.000460219,4.24
-0.00205374,0.202008,-0.12441,0.452669,-0.0618546,0.362892,-0.140027,0.00704797,-0.202008,0.129755,0.476949,0.0648148,0.382654,0.134754,0.000460219,4.25
-0.00203657,0.202,-0.12441,0.452661,-0.0618546,0.36288,-0.140027,0.0070565,-0.202042,0.129742,0.476957,0.0648029,0.382666,0.134766,0.000485785,4.26
-0.00204515,0.202008,-0.12441,0.452652,-0.0618665,0.36288,-0.140027,0.0070565,-0.202034,0.129742,0.476966,0.0647788,0.382678,0.134766,0.000434654,4.27
-0.00205374,0.202,-0.124396,0.452635,-0.0618665,0.362892,-0.140027,0.00702241,-0.202042,0.129715,0.476949,0.0648029,0.382654,0.134766,0.000434654,4.28
-0.00205374,0.202,-0.124396,0.452635,-0.0618546,0.362892,-0.140027,0.00703945,-0.202034,0.129742,0.47694,0.0648029,0.382654,0.134766,0.000460219,4.29
-0.00204515,0.202,-0.12441,0.452644,-0.0618427,0.362892,-0.140015,0.00704797,-0.202034,0.129715,0.476957,0.0648029,0.382666,0.134778,0.000460219,4.3
-0.00205374,0.201991,-0.124396,0.452635,-0.0618427,0.36288,-0.140027,0.00702241,-0.202025,0.129729,0.47694,0.0648029,0.382666,0.134766,0.000434654,4.31
-0.00204515,0.202008,-0.124396,0.452635,-0.0618546,0.36288,-0.140027,0.00703945,-0.202034,0.129715,0.476966,0.0648148,0.382666,0.134766,0.000434654,4.32
-0.00206232,0.202,-0.124396,0.452635,-0.0618665,0.362904,-0.140027,0.00703093,-0.202051,0.129742,0.476957,0.0648029,0.382666,0.134754,0.000434654,4.33
-0.00205374,0.202,-0.12441,0.452635,-0.0618427,0.362892,-0.140015,0.00704797,-0.202059,0.129715,0.476949,0.0648029,0.382666,0.134766,0.000434654,4.34
-0.00205374,0.202,-0.12441,0.452635,-0.0618665,0.36288,-0.140015,0.0070565,-0.202025,0.129755,0.47694,0.0648029,0.382666,0.134754,0.000434654,4.35
-0.00206232,0.201991,-0.124396,0.452644,-0.0618305,0.362892,-0.140015,0.0070565,-0.202042,0.129742,0.47694,0.0648029,0.382654,0.134766,0.000434654,4.36
-0.00205374,0.202,-0.124424,0.452661,-0.0618427,0.362892,-0.140039,0.00703945,-0.202034,0.129742,0.476966,0.0648029,0.382666,0.134754,0.000434654,4.37001
-0.00206232,0.202008,-0.124383,0.452644,-0.0618427,0.362856,-0.140027,0.00703945,-0.202042,0.129742,0.476949,0.0648029,0.382678,0.134766,0.000434654,4.38001
-0.00204515,0.202008,-0.12441,0.452635,-0.0618427,0.36288,-0.140027,0.0070565,-0.202042,0.129742,0.476949,0.0648029,0.382666,0.134766,0.000460219,4.39001
-0.00205374,0.202,-0.12441,0.452644,-0.0618546,0.362868,-0.140027,0.0070565,-0.202051,0.129742,0.47694,0.0648029,0.382678,0.134766,0.000434654,4.40001
-0.00204515,0.201991,-0.12441,0.452626,-0.0618427,0.362892,-0.140015,0.0070565,-0.202042,0.129742,0.476932,0.0647788,0.382666,0.134766,0.000460219,4.41001
-0.00203657,0.201991,-0.12441,0.452644,-0.0618305,0.362868,-0.140015,0.00703945,-0.202042,0.129742,0.476957,0.0648029,0.382666,0.134766,0.000409087,4.42001
-0.00204515,0.202,-0.12441,0.452644,-0.0618546,0.362892,-0.140027,0.00704797,-0.202042,0.129715,0.476932,0.0647788,0.382678,0.134778,0.000460219,4.43001
-0.00204515,0.202008,-0.124396,0.452635,-0.0618427,0.36288,-0.140027,0.00702241,-0.202042,0.129742,0.47694,0.0648029,0.382654,0.134754,0.000434654,4.44001
-0.00205374,0.202,-0.124396,0.452635,-0.0618305,0.362904,-0.140027,0.00704797,-0.202042,0.129729,0.47694,0.0648029,0.382678,0.134766,0.000460219,4.45001
-0.00204515,0.202,-0.124396,0.452635,-0.0618305,0.362868,-0.140015,0.00703093,-0.202042,0.129742,0.476949,0.0648029,0.382666,0.134766,0.000460219,4.46001
-0.00204515,0.202,-0.124396,0.452644,-0.0618305,0.36288,-0.140039,0.00703093,-0.202059,0.129729,0.476966,0.0648029,0.382654,0.134766,0.000460219,4.47001
-0.00205374,0.201991,-0.12441,0.452635,-0.0618427,0.362868,-0.140027,0.00703945,-0.202034,0.129715,0.476957,0.0648029,0.382654,0.134766,0.000434654,4.48001
-0.00206232,0.201991,-0.12441,0.452652,-0.0618665,0.36288,-0.140027,0.00703945,-0.202051,0.129715,0.476949,0.0648029,0.382666,0.134766,0.000434654,4.49001
-0.00204515,0.201991,-0.12441,0.452626,-0.0618546,0.362892,-0.140027,0.00703945,-0.202034,0.129715,0.476949,0.0647788,0.382666,0.134766,0.000434654,4.50001
-0.00204515,0.201991,-0.124424,0.452644,-0.0618665,0.362892,-0.140027,0.00707354,-0.202034,0.129729,0.476957,0.0648029,0.382654,0.134754,0.000460219,4.51001
-0.00205374,0.201991,-0.124396,0.452635,-0.0618546,0.36288,-0.140039,0.00707354,-0.202042,0.129742,0.476949,0.0648029,0.382666,0.134754,0.000460219,4.52001
-0.00205374,0.202,-0.12441,0.452635,-0.0618427,0.362892,-0.140027,0.00706502,-0.202034,0.129742,0.47694,0.0648029,0.382654,0.134754,0.000434654,4.53001
-0.00202847,0.202008,-0.124424,0.452635,-0.0618427,0.362916,-0.140027,0.00704797,-0.202016,0.129729,0.476949,0.0648029,0.382666,0.134754,0.000434654,4.54001
-0.00203657,0.202008,-0.12441,0.452626,-0.0618546,0.36288,-0.140027,0.00703945,-0.202034,0.129742,0.47694,0.0648029,0.382678,0.134754,0.000434654,4.55001
-0.00206232,0.201991,-0.12441,0.452635,-0.0618665,0.362868,-0.140027,0.00702241,-0.202059,0.129729,0.47694,0.0648029,0.382666,0.134766,0.000434654,4.56001
-0.00206232,0.202008,-0.12441,0.452635,-0.0618427,0.362868,-0.140039,0.00702241,-0.202051,0.129742,0.476949,0.0648029,0.382654,0.134766,0.000434654,4.57001
-0.00206232,0.201991,-0.12441,0.452626,-0.0618546,0.362892,-0.140027,0.00703945,-0.202051,0.129755,0.47694,0.0648029,0.382642,0.134766,0.000434654,4.58001
-0.0020709,0.202,-0.124424,0.452635,-0.0618665,0.362868,-0.140027,0.0070565,-0.202025,0.129715,0.47694,0.0647788,0.382666,0.134766,0.000434654,4.59001
-0.00206232,0.202,-0.12441,0.452644,-0.0618427,0.362892,-0.140027,0.0070565,-0.202042,0.129729,0.47694,0.0648148,0.382666,0.134742,0.000434654,4.60001
-0.00204515,0.202,-0.12441,0.452635,-0.0618427,0.362892,-0.140015,0.00706502,-0.202042,0.129742,0.476949,0.0648029,0.382678,0.134754,0.000434654,4.61001
-0.00204515,0.201991,-0.12441,0.452635,-0.0618546,0.362892,-0.140027,0.0070565,-0.202059,0.129729,0.476949,0.0648029,0.382666,0.134778,0.000434654,4.62001
-0.00205374,0.202008,-0.12441,0.452635,-0.0618427,0.362892,-0.140027,0.0070565,-0.202025,0.129742,0.476949,0.0648148,0.382654,0.134766,0.000460219,4.63001
-0.00205374,0.202,-0.12441,0.452635,-0.0618427,0.362868,-0.140027,0.00703093,-0.202042,0.129729,0.47694,0.0648148,0.382654,0.134754,0.000460219,4.64001
-0.00204515,0.202,-0.12441,0.452644,-0.0618546,0.362868,-0.140027,0.00704797,-0.202042,0.129729,0.476957,0.0648029,0.382654,0.134766,0.000460219,4.65001
-0.00205374,0.201991,-0.12441,0.452652,-0.0618427,0.362892,-0.140027,0.00703093,-0.202042,0.129715,0.476966,0.0647907,0.382654,0.134766,0.000434654,4.66001
-0.00203657,0.202008,-0.12441,0.452635,-0.0618427,0.362868,-0.140027,0.00702241,-0.202042,0.129715,0.476949,0.0647788,0.382666,0.134766,0.000460219,4.67001
-0.00204515,0.202,-0.124424,0.452669,-0.0618665,0.362892,-0.140027,0.0070565,-0.202042,0.129729,0.476957,0.0647788,0.382666,0.134754,0.000434654,4.68001
-0.00204515,0.201991,-0.12441,0.452644,-0.0618546,0.362868,-0.140027,0.0070565,-0.202051,0.129729,0.476957,0.0647788,0.382678,0.134754,0.000434654,4.69001
-0.00204515,0.202,-0.124424,0.452635,-0.0618427,0.362892,-0.140027,0.0070565,-0.202034,0.129729,0.476949,0.0648029,0.382654,0.134778,0.000434654,4.70001
-0.00205374,0.202,-0.124396,0.452635,-0.0618546,0.362892,-0.140027,0.0070565,-0.202016,0.129755,0.476966,0.0648029,0.382666,0.134766,0.000485785,4.71001
-0.00204515,0.202,-0.12441,0.452626,-0.0618427,0.362892,-0.140027,0.00703093,-0.202042,0.129742,0.476949,0.0648148,0.382678,0.134766,0.000460219,4.72001
-0.00205374,0.202,-0.12441,0.452635,-0.0618546,0.36288,-0.140027,0.00702241,-0.202025,0.129729,0.476957,0.0648029,0.382654,0.13473,0.000460219,4.73001
-0.00203657,0.202,-0.12441,0.452626,-0.0618427,0.362892,-0.140027,0.00701389,-0.202059,0.129729,0.476949,0.0648029,0.382666,0.134754,0.000434654,4.74001
-0.00203657,0.201991,-0.12441,0.452635,-0.0618546,0.362892,-0.140027,0.00702241,-0.202051,0.129702,0.476957,0.0648029,0.382666,0.134766,0.000409087,4.75001
-0.00204515,0.202,-0.12445,0.452644,-0.0618546,0.362892,-0.140039,0.00703093,-0.202042,0.129715,0.476957,0.0648029,0.382666,0.134754,0.000434654,4.76001
-0.00204515,0.201991,-0.12441,0.452652,-0.0618305,0.362868,-0.140039,0.00704797,-0.202034,0.129715,0.476957,0.0648029,0.382666,0.134754,0.000434654,4.77001
-0.00204515,0.202,-0.124396,0.452635,-0.0618665,0.362856,-0.140027,0.00707354,-0.202034,0.129729,0.47694,0.0648029,0.382666,0.134766,0.000434654,4.78001
-0.00202847,0.202008,-0.12441,0.452635,-0.0618427,0.36288,-0.140027,0.0070565,-0.202034,0.129729,0.476966,0.0648029,0.382666,0.134766,0.000460219,4.79001
-0.00204515,0.202,-0.124383,0.452652,-0.0618546,0.362892,-0.140039,0.0070565,-0.202034,0.129769,0.476949,0.0648029,0.382678,0.134766,0.000460219,4.80001
-0.00205374,0.202008,-0.12441,0.452652,-0.0618427,0.362892,-0.140039,0.00704797,-0.202042,0.129755,0.476949,0.0647907,0.382666,0.134754,0.000460219,4.81002
-0.00205374,0.201991,-0.124424,0.452644,-0.0618546,0.362904,-0.140027,0.00703093,-0.202042,0.129702,0.476957,0.0648029,0.382689,0.134754,0.000409087,4.82002
-0.00206232,0.202,-0.124437,0.452644,-0.0618665,0.362892,-0.140027,0.0070565,-0.202042,0.129742,0.47694,0.0647907,0.382666,0.134754,0.000434654,4.83002
-0.00205374,0.202,-0.124424,0.452644,-0.0618665,0.362868,-0.140015,0.00703093,-0.202051,0.129742,0.476949,0.0647788,0.382654,0.134742,0.000434654,4.84002
-0.00205374,0.202,-0.124424,0.452644,-0.0618305,0.362892,-0.140027,0.00703093,-0.202042,0.129729,0.476949,0.0648029,0.382654,0.134778,0.000460219,4.85002
-0.00204515,0.202008,-0.12441,0.452644,-0.0618546,0.362892,-0.140027,0.00703945,-0.202042,0.129755,0.47694,0.0648029,0.382678,0.134766,0.000460219,4.86002
-0.00204515,0.202008,-0.12441,0.452652,-0.0618546,0.362904,-0.140027,0.00703945,-0.202016,0.129742,0.47694,0.0647788,0.382654,0.134742,0.000460219,4.87002
-0.00204515,0.202,-0.12441,0.452635,-0.0618546,0.362904,-0.140027,0.0070565,-0.202034,0.129715,0.47694,0.0648029,0.382654,0.134778,0.000434654,4.88002
-0.00204515,0.202008,-0.12441,0.452644,-0.0618427,0.362892,-0.140027,0.00703945,-0.202059,0.129742,0.476949,0.0648029,0.382678,0.134754,0.000460219,4.89002
-0.00204515,0.201991,-0.12441,0.452635,-0.0618427,0.36288,-0.140027,0.00703093,-0.202025,0.129769,0.476957,0.0648029,0.382666,0.134766,0.000460219,4.90002
-0.00204515,0.201991,-0.12441,0.452644,-0.0618305,0.362892,-0.140015,0.00703945,-0.202034,0.129729,0.476949,0.0648029,0.382654,0.134754,0.000460219,4.91002
-0.00206232,0.202008,-0.124396,0.452644,-0.0618546,0.362892,-0.140039,0.00703093,-0.202034,0.129702,0.476957,0.0647788,0.382666,0.134766,0.000460219,4.92002
-0.00205374,0.201991,-0.12441,0.452652,-0.0618427,0.362856,-0.140027,0.00702241,-0.202051,0.129755,0.476949,0.0647788,0.382654,0.134766,0.000434654,4.93002
-0.00204515,0.201991,-0.124396,0.452644,-0.0618427,0.36288,-0.140027,0.00701389,-0.202042,0.129715,0.476949,0.0647788,0.382654,0.134754,0.000434654,4.94002
-0.00206232,0.202,-0.12441,0.452635,-0.0618305,0.362868,-0.140027,0.00703945,-0.202042,0.129729,0.476957,0.0648029,0.382666,0.134754,0.000460219,4.95002
-0.00203657,0.202,-0.124383,0.452652,-0.0618427,0.362892,-0.140027,0.0070565,-0.202034,0.129715,0.476949,0.0647788,0.382666,0.134754,0.000434654,4.96002
-0.00204515,0.202,-0.124396,0.452644,-0.0618665,0.362868,-0.140039,0.0070565,-0.202034,0.129769,0.47694,0.0648029,0.382666,0.134766,0.000460219,4.97002
-0.00204515,0.202008,-0.124396,0.452644,-0.0618546,0.36288,-0.140027,0.00703945,-0.202051,0.129769,0.476949,0.0648029,0.382654,0.134754,0.000434654,4.98002
-0.00205374,0.202,-0.12441,0.452635,-0.0618546,0.362892,-0.140027,0.00702241,-0.202034,0.129755,0.476949,0.0648148,0.382678,0.134778,0.000434654,4.99002
-0.00205374,0.201991,-0.12441,0.452635,-0.0618186,0.362892,-0.140039,0.00703945,-0.202042,0.129729,0.47694,0.0648029,0.382654,0.134766,0.000434654,5.00002
-0.00205374,0.202,-0.12441,0.452626,-0.0618546,0.362892,-0.140015,0.00702241,-0.202042,0.129742,0.476957,0.0648029,0.382666,0.134766,0.000434654,5.01002
-0.00205374,0.202,-0.12441,0.452635,-0.0618546,0.362892,-0.140039,0.00703945,-0.202051,0.129729,0.476949,0.0648029,0.382678,0.134766,0.000460219,5.02002
-0.00206232,0.202,-0.124424,0.452635,-0.0618427,0.362904,-0.140027,0.00703945,-0.202059,0.129742,0.476966,0.0648029,0.382666,0.134754,0.000434654,5.03002
-0.00204515,0.202,-0.12441,0.452635,-0.0618546,0.362868,-0.140039,0.00704797,-0.202025,0.129729,0.476949,0.0648029,0.382666,0.134754,0.000434654,5.04002
-0.00205374,0.202,-0.124424,0.452644,-0.0618665,0.362892,-0.140027,0.00704797,-0.202042,0.129742,0.476949,0.0648029,0.382666,0.134754,0.000434654,5.05002
-0.00206232,0.202,-0.12441,0.452644,-0.0618546,0.362868,-0.140015,0.00703945,-0.202042,0.129729,0.476957,0.0648029,0.382654,0.134766,0.000434654,5.06002
-0.00203657,0.202,-0.12441,0.452635,-0.0618427,0.362892,-0.140027,0.0070565,-0.202042,0.129742,0.476949,0.0648029,0.382642,0.134754,0.000460219,5.07002
-0.00204515,0.202008,-0.12441,0.452635,-0.0618427,0.362892,-0.140027,0.00703093,-0.202016,0.129742,0.476949,0.0648029,0.382666,0.134754,0.000460219,5.08002
-0.00206232,0.202,-0.12441,0.452635,-0.0618546,0.362892,-0.140015,0.00703093,-0.202042,0.129742,0.47694,0.0647907,0.382654,0.134766,0.000460219,5.09002
-0.00205374,0.202008,-0.12441,0.452635,-0.0618427,0.362892,-0.140039,0.00703945,-0.202059,0.129729,0.476949,0.0647669,0.382666,0.134742,0.000460219,5.10002
-0.00204515,0.201991,-0.12441,0.452644,-0.0618546,0.36288,-0.140039,0.00703093,-0.202059,0.129755,0.476949,0.0647788,0.382666,0.134754,0.000460219,5.11002
-0.00204515,0.202,-0.12445,0.452644,-0.0618665,0.362892,-0.140015,0.0070565,-0.202042,0.129715,0.476957,0.0647788,0.382654,0.134766,0.000460219,5.12002
-0.00205374,0.202,-0.12441,0.452635,-0.0618546,0.362892,-0.140015,0.00703945,-0.202042,0.129755,0.476949,0.0648029,0.382654,0.134754,0.000434654,5.13002
-0.00204515,0.202,-0.12441,0.452635,-0.0618427,0.362892,-0.140027,0.0070565,-0.202025,0.129755,0.476966,0.0648029,0.382666,0.134754,0.000460219,5.14002
-0.00204515,0.202,-0.124424,0.452626,-0.0618665,0.362892,-0.140027,0.00703093,-0.202025,0.129715,0.476949,0.0648029,0.382654,0.134766,0.000434654,5.15002
-0.00205374,0.201991,-0.124396,0.452652,-0.0618546,0.362868,-0.140027,0.00702241,-0.202051,0.129755,0.476957,0.0648148,0.382678,0.134754,0.000434654,5.16002
-0.00204515,0.202008,-0.12441,0.452635,-0.0618305,0.362868,-0.140027,0.00702241,-0.202042,0.129729,0.47694,0.0648029,0.382666,0.13473,0.000434654,5.17002
-0.00206232,0.202,-0.12441,0.452652,-0.0618546,0.36288,-0.140027,0.00702241,-0.202025,0.129715,0.47694,0.0648029,0.382666,0.134754,0.000460219,5.18002
-0.00206232,0.201991,-0.124396,0.452644,-0.0618546,0.362904,-0.140015,0.00702241,-0.202025,0.129742,0.47694,0.0648029,0.382654,0.134754,0.000434654,5.19002
-0.00205374,0.201991,-0.124424,0.452644,-0.0618665,0.362868,-0.140027,0.0070565,-0.202051,0.129729,0.47694,0.0648029,0.382666,0.134742,0.000409087,5.20002
-0.00205374,0.202,-0.124424,0.452644,-0.0618427,0.362892,-0.140015,0.00703945,-0.202051,0.129715,0.476949,0.0647788,0.382666,0.13473,0.000434654,5.21002
-0.00204515,0.201991,-0.12441,0.452661,-0.0618546,0.362868,-0.140039,0.00706502,-0.202051,0.129729,0.476949,0.0647788,0.382666,0.134766,0.000409087,5.22002
-0.00204515,0.201991,-0.124424,0.452635,-0.0618546,0.362904,-0.140027,0.00707354,-0.202059,0.129742,0.476957,0.0648029,0.382666,0.134754,0.000434654,5.23002
-0.00203657,0.201991,-0.12441,0.452635,-0.0618427,0.36288,-0.140027,0.00704797,-0.202051,0.129742,0.476949,0.0648029,0.382666,0.134754,0.000434654,5.24003
-0.00204515,0.202,-0.12441,0.452644,-0.0618546,0.36288,-0.140027,0.00704797,-0.202025,0.129729,0.476966,0.0648029,0.382666,0.134766,0.000434654,5.25003
-0.00206232,0.202008,-0.12441,0.452644,-0.0618665,0.362892,-0.140027,0.00704797,-0.202034,0.129742,0.476949,0.0648029,0.382678,0.134766,0.000460219,5.26003
-0.00206232,0.202,-0.12441,0.452644,-0.0618665,0.362868,-0.140027,0.00703945,-0.202034,0.129742,0.47694,0.0648029,0.382666,0.13473,0.000434654,5.27003
-0.00202847,0.202,-0.12441,0.452644,-0.0618305,0.362904,-0.140027,0.0070565,-0.202051,0.129715,0.476957,0.0648148,0.382678,0.134766,0.000460219,5.28003
-0.00205374,0.201991,-0.12441,0.452644,-0.0618546,0.362892,-0.140027,0.00703945,-0.202042,0.129742,0.476949,0.0648029,0.382666,0.134742,0.000434654,5.29003
-0.00205374,0.201991,-0.12441,0.452661,-0.0618427,0.36288,-0.140027,0.00702241,-0.202051,0.129729,0.476949,0.0648148,0.382654,0.134754,0.000460219,5.30003
-0.00206232,0.201991,-0.12441,0.452652,-0.0618665,0.362892,-0.140027,0.00702241,-0.202051,0.129715,0.47694,0.0648029,0.382654,0.134754,0.000460219,5.31003
-0.00203657,0.201983,-0.12441,0.452635,-0.0618546,0.362904,-0.140027,0.00703093,-0.202042,0.129715,0.47694,0.0648029,0.382666,0.134742,0.000434654,5.32003
-0.00204515,0.202008,-0.12441,0.452661,-0.0618546,0.362892,-0.140039,0.00703093,-0.202042,0.129742,0.476949,0.0648029,0.382678,0.134766,0.000460219,5.33003
-0.00205374,0.202,-0.12441,0.452635,-0.0618186,0.362904,-0.140027,0.00703945,-0.202034,0.129729,0.476949,0.0648267,0.382654,0.134754,0.000460219,5.34003
-0.00205374,0.202,-0.124396,0.452635,-0.0618665,0.362892,-0.140027,0.00703093,-0.202025,0.129742,0.476949,0.0648267,0.382666,0.134766,0.000460219,5.35003
-0.00204515,0.202008,-0.124396,0.452644,-0.0618665,0.362892,-0.140027,0.00703945,-0.202034,0.129742,0.476949,0.0648029,0.382666,0.134754,0.000460219,5.36003
-0.00205374,0.202,-0.124424,0.452652,-0.0618305,0.362904,-0.140027,0.00701389,-0.202042,0.129742,0.47694,0.0648029,0.382666,0.134766,0.000460219,5.37003
-0.00204515,0.202008,-0.12441,0.452644,-0.0618546,0.362868,-0.140027,0.00702241,-0.202051,0.129715,0.476949,0.0648148,0.382678,0.134754,0.000434654,5.38003
-0.00204515,0.202,-0.124424,0.452644,-0.0618427,0.362892,-0.140027,0.0070565,-0.202051,0.129715,0.476949,0.0648148,0.382666,0.134754,0.000409087,5.39003
-0.00204515,0.201991,-0.124383,0.452644,-0.0618546,0.362892,-0.140027,0.00707354,-0.202059,0.129729,0.476957,0.0648029,0.382678,0.134754,0.00038352,5.40003
-0.00204515,0.201991,-0.124424,0.452644,-0.0618665,0.362904,-0.140027,0.00704797,-0.202025,0.129729,0.476957,0.0648029,0.382666,0.134754,0.000434654,5.41003
-0.00206232,0.202,-0.12441,0.452652,-0.0618665,0.362892,-0.140039,0.00707354,-0.202034,0.129742,0.47694,0.0648029,0.382678,0.134766,0.000434654,5.42003
-0.00206232,0.201991,-0.124396,0.452652,-0.0618546,0.362892,-0.140027,0.0070565,-0.202016,0.129755,0.476949,0.0648267,0.382666,0.134766,0.000460219,5.43003
-0.00204515,0.202,-0.12441,0.452635,-0.0618305,0.362892,-0.140027,0.00706502,-0.202016,0.129742,0.476949,0.0648029,0.382666,0.134766,0.000460219,5.44003
-0.00206232,0.201991,-0.12441,0.452644,-0.0618427,0.362892,-0.140039,0.00704797,-0.202042,0.129742,0.476966,0.0648029,0.382654,0.134754,0.000409087,5.45003
-0.00204515,0.202008,-0.12441,0.452626,-0.0618546,0.36288,-0.140027,0.00703945,-0.202042,0.129742,0.476957,0.0648148,0.382654,0.134766,0.000460219,5.46003
-0.00204515,0.202008,-0.124437,0.452644,-0.0618665,0.362892,-0.140027,0.0070565,-0.202051,0.129715,0.476949,0.0648029,0.382654,0.13473,0.000434654,5.47003
-0.00204515,0.201991,-0.124396,0.452635,-0.0618305,0.362904,-0.140015,0.00704797,-0.202051,0.129715,0.47694,0.0648029,0.382666,0.134766,0.000409087,5.48003
-0.00207949,0.202008,-0.124396,0.452626,-0.0618427,0.362892,-0.140027,0.00702241,-0.202034,0.129715,0.47694,0.0648148,0.382666,0.134754,0.000460219,5.49003
-0.00207949,0.202008,-0.124396,0.452635,-0.0618546,0.362904,-0.140027,0.00703945,-0.202034,0.129715,0.47694,0.0648148,0.382678,0.134754,0.000485785,5.50003
-0.00206232,0.202008,-0.124383,0.452635,-0.0618546,0.362892,-0.140027,0.00703945,-0.202025,0.129729,0.476957,0.0648029,0.382678,0.134754,0.000511352,5.51003
-0.00203657,0.202,-0.12441,0.452661,-0.0618665,0.362892,-0.140027,0.00703945,-0.202034,0.129715,0.476957,0.0648148,0.382666,0.134754,0.000485785,5.52003
-0.00203657,0.202008,-0.12441,0.452652,-0.0618427,0.362892,-0.140015,0.0070565,-0.202042,0.129742,0.47694,0.0648029,0.382666,0.134754,0.000485785,5.53003
-0.0020113,0.201991,-0.12441,0.452652,-0.0618305,0.362892,-0.140015,0.00706502,-0.202059,0.129715,0.476957,0.0648148,0.382666,0.134754,0.000460219,5.54003
-0.00203657,0.201991,-0.124424,0.452626,-0.0618546,0.362892,-0.140027,0.00707354,-0.202042,0.129729,0.476949,0.0648029,0.382678,0.134754,0.000434654,5.55003
-0.00204515,0.201991,-0.12441,0.452644,-0.0618665,0.362868,-0.140039,0.00707354,-0.202051,0.129755,0.476949,0.0648029,0.382666,0.134766,0.000460219,5.56003
-0.00204515,0.202,-0.124396,0.452652,-0.0618546,0.362868,-0.140027,0.00703093,-0.202059,0.129715,0.476949,0.0648029,0.382678,0.134778,0.000460219,5.57003
-0.00208807,0.202008,-0.12441,0.452626,-0.0618427,0.362868,-0.140015,0.00703945,-0.202042,0.129715,0.476932,0.0648148,0.382666,0.134766,0.000485785,5.58003
-0.0020709,0.202008,-0.124383,0.452644,-0.0618427,0.362892,-0.140027,0.00699684,-0.202034,0.129742,0.47694,0.0648148,0.382666,0.134766,0.000460219,5.59003
-0.00206232,0.201991,-0.124396,0.452652,-0.0618427,0.362904,-0.140027,0.00699684,-0.202042,0.129729,0.47694,0.0648029,0.382666,0.134766,0.000434654,5.60003
-0.00205374,0.201991,-0.124424,0.452644,-0.0618427,0.362892,-0.140027,0.00699684,-0.202034,0.129715,0.476949,0.0648029,0.382678,0.134766,0.000434654,5.61003
-0.00205374,0.201991,-0.124396,0.452635,-0.0618665,0.362892,-0.140027,0.00703093,-0.202042,0.129715,0.476949,0.0648029,0.382666,0.134754,0.000409087,5.62003
-0.0020709,0.201983,-0.12441,0.452635,-0.0618784,0.362868,-0.140027,0.00706502,-0.202034,0.129729,0.47694,0.0648029,0.382666,0.134766,0.000409087,5.63003
-0.00207949,0.201991,-0.12441,0.452652,-0.0618546,0.362892,-0.140027,0.0070565,-0.202042,0.129729,0.476957,0.0648029,0.382678,0.134754,0.000460219,5.64003
-0.00206232,0.202008,-0.12441,0.452635,-0.0618665,0.362892,-0.140027,0.00707354,-0.202016,0.129742,0.476957,0.0648148,0.382666,0.134766,0.000485785,5.65003
-0.00204515,0.202,-0.12441,0.452644,-0.0618546,0.362892,-0.140027,0.00707354,-0.202034,0.129782,0.476957,0.0648029,0.382678,0.134754,0.000460219,5.66003
-0.00203657,0.202,-0.124396,0.452652,-0.0618665,0.362868,-0.140027,0.0070565,-0.202016,0.129755,0.476957,0.0648029,0.382666,0.134754,0.000460219,5.67003
-0.00203657,0.202008,-0.12441,0.452652,-0.0618305,0.362904,-0.140015,0.00704797,-0.202034,0.129742,0.476957,0.0648029,0.382654,0.134754,0.000434654,5.68004
-0.00205374,0.201991,-0.124437,0.452644,-0.0618784,0.362868,-0.140015,0.00704797,-0.202059,0.129702,0.476966,0.0648029,0.382666,0.134754,0.000434654,5.69004
-0.00203657,0.201991,-0.12441,0.452626,-0.0618427,0.362892,-0.140027,0.0070565,-0.202059,0.129715,0.476966,0.0648029,0.382666,0.134754,0.000434654,5.70004
-0.00205374,0.201991,-0.124396,0.452644,-0.0618665,0.362892,-0.140027,0.00703945,-0.202051,0.129715,0.47694,0.0648148,0.382654,0.134766,0.000434654,5.71004
-0.00203657,0.202,-0.12441,0.452635,-0.0618665,0.362892,-0.140015,0.00703945,-0.202042,0.129729,0.47694,0.0648029,0.382654,0.134766,0.000434654,5.72004
-0.00206232,0.202,-0.12441,0.452635,-0.0618546,0.362892,-0.140027,0.00700536,-0.202034,0.129742,0.476966,0.0648148,0.382666,0.134766,0.000434654,5.73004
-0.00205374,0.201991,-0.124396,0.452652,-0.0618427,0.362892,-0.140015,0.00703093,-0.202016,0.129729,0.47694,0.0648148,0.382666,0.134766,0.000434654,5.74004
-0.00206232,0.202,-0.124396,0.452635,-0.0618546,0.362892,-0.140039,0.00703945,-0.202034,0.129755,0.476949,0.0648029,0.382666,0.134766,0.000460219,5.75004
-0.00205374,0.201991,-0.12441,0.452635,-0.0618546,0.36288,-0.140015,0.0070565,-0.202042,0.129742,0.47694,0.0648148,0.382689,0.134778,0.000434654,5.76004
-0.00205374,0.202,-0.12441,0.452626,-0.0618546,0.36288,-0.140027,0.0070565,-0.202042,0.129729,0.476949,0.0647788,0.382666,0.134766,0.000434654,5.77004
-0.00205374,0.202008,-0.12441,0.452644,-0.0618665,0.362892,-0.140027,0.00704797,-0.202051,0.129729,0.476966,0.0647788,0.382666,0.134742,0.000434654,5.78004
-0.00204515,0.202,-0.124424,0.452635,-0.0618665,0.362892,-0.140027,0.00703945,-0.202051,0.129755,0.476966,0.0648148,0.382654,0.134754,0.000460219,5.79004
-0.00205374,0.201991,-0.12441,0.452644,-0.0618546,0.36288,-0.140039,0.00703945,-0.202034,0.129742,0.476957,0.0648148,0.382654,0.134754,0.000460219,5.80004
-0.00204515,0.202008,-0.124437,0.452635,-0.0618665,0.362892,-0.140039,0.00703093,-0.202051,0.129742,0.476974,0.0648029,0.382666,0.134754,0.000434654,5.81004
-0.00205374,0.201991,-0.12441,0.452635,-0.0618546,0.362892,-0.140027,0.00702241,-0.202042,0.129715,0.47694,0.0648029,0.382666,0.134754,0.000434654,5.82004
-0.00205374,0.201991,-0.124396,0.452635,-0.0618665,0.362892,-0.140027,0.00703945,-0.202034,0.129742,0.476957,0.0648148,0.382678,0.134766,0.000434654,5.83004
-0.00206232,0.201991,-0.124424,0.452626,-0.0618665,0.362892,-0.140015,0.00703093,-0.202034,0.129742,0.476949,0.0648029,0.382666,0.134742,0.000434654,5.84004
-0.00205374,0.201991,-0.12441,0.452635,-0.0618546,0.362892,-0.140015,0.00703945,-0.202051,0.129742,0.476957,0.0648029,0.382666,0.134766,0.000434654,5.85004
-0.00206232,0.202025,-0.12441,0.452644,-0.0618665,0.362892,-0.140015,0.00704797,-0.202051,0.129742,0.476949,0.0648148,0.382678,0.134778,0.000434654,5.86004
-0.00205374,0.202008,-0.124424,0.452635,-0.0618546,0.36288,-0.140027,0.00704797,-0.202042,0.129729,0.47694,0.0648029,0.382642,0.134754,0.000409087,5.87004
-0.00205374,0.202,-0.124396,0.452635,-0.0618665,0.362868,-0.140027,0.00703945,-0.202034,0.129729,0.47694,0.0648029,0.382666,0.134766,0.000460219,5.88004
-0.00205374,0.202,-0.12441,0.452635,-0.0618305,0.362892,-0.140027,0.0070565,-0.202025,0.129715,0.476949,0.0648148,0.382666,0.134766,0.000460219,5.89004
-0.00205374,0.202,-0.12441,0.452644,-0.0618427,0.362868,-0.140027,0.00707354,-0.202025,0.129742,0.476966,0.0647788,0.382678,0.134766,0.000485785,5.90004
-0.00203657,0.202008,-0.124424,0.452635,-0.0618665,0.362892,-0.140039,0.00706502,-0.202042,0.129742,0.47694,0.0648148,0.382654,0.134778,0.000460219,5.91004
-0.00202847,0.201991,-0.124424,0.452652,-0.0618665,0.36288,-0.140015,0.0070565,-0.202051,0.129729,0.476966,0.0648029,0.382678,0.134766,0.000434654,5.92004
-0.00202847,0.202,-0.124437,0.452635,-0.0618305,0.362868,-0.140027,0.00704797,-0.202051,0.129729,0.476949,0.0648029,0.382678,0.13473,0.000434654,5.93004
-0.00203657,0.201991,-0.124424,0.452635,-0.0618546,0.362892,-0.140027,0.0070565,-0.202042,0.129715,0.476949,0.0648148,0.382666,0.134754,0.000434654,5.94004
-0.00206232,0.202,-0.124396,0.452644,-0.0618546,0.362892,-0.140027,0.00703093,-0.202042,0.129729,0.476957,0.0648029,0.382666,0.134754,0.000434654,5.95004
-0.00207949,0.202,-0.124424,0.452635,-0.0618665,0.36288,-0.140027,0.00703093,-0.202025,0.129742,0.476957,0.0648029,0.382654,0.134754,0.000460219,5.96004
-0.00208807,0.202,-0.12441,0.452626,-0.0618665,0.36288,-0.140027,0.0070565,-0.201991,0.129769,0.476966,0.0648029,0.382654,0.134754,0.000460219,5.97004
-0.0020709,0.202008,-0.124437,0.452635,-0.0619025,0.362868,-0.140027,0.0070565,-0.202025,0.129755,0.476957,0.0648148,0.382678,0.134754,0.000460219,5.98004
-0.00207949,0.202008,-0.124424,0.452661,-0.0618546,0.362892,-0.140039,0.00703093,-0.202008,0.129809,0.477008,0.0647669,0.382821,0.134742,0.000460219,5.99004
-0.00205374,0.201991,-0.12441,0.452644,-0.0619025,0.362868,-0.140027,0.00703945,-0.202008,0.129715,0.477,0.0648029,0.382725,0.134754,0.000434654,6.00004
-0.00204515,0.201983,-0.124437,0.452686,-0.0618784,0.362904,-0.140039,0.00704797,-0.202025,0.129755,0.477077,0.064755,0.382845,0.134742,0.000434654,6.01004
-0.00205374,0.201983,-0.12445,0.452677,-0.0618906,0.362904,-0.140027,0.00707354,-0.202016,0.129729,0.477077,0.0647669,0.382845,0.134754,0.000434654,6.02004
-0.00203657,0.201991,-0.124437,0.452644,-0.0619264,0.362892,-0.140039,0.00707354,-0.202025,0.129702,0.477077,0.0648029,0.382845,0.134766,0.000434654,6.03004
-0.00203657,0.201991,-0.124464,0.452677,-0.0619025,0.362904,-0.140027,0.00707354,-0.202025,0.129715,0.477077,0.0648029,0.382833,0.134778,0.000460219,6.04004
-0.00203657,0.201983,-0.12441,0.452652,-0.0619025,0.362892,-0.140027,0.0070565,-0.202016,0.129755,0.477085,0.0647788,0.382857,0.134766,0.000434654,6.05004
-0.00204515,0.202,-0.12441,0.452669,-0.0618906,0.362892,-0.140015,0.00706502,-0.202008,0.129742,0.477094,0.0648029,0.382833,0.134766,0.000485785,6.06004
-0.00205374,0.202,-0.12441,0.452661,-0.0618784,0.362892,-0.140039,0.0070565,-0.201982,0.129755,0.477077,0.0648029,0.382845,0.134766,0.000460219,6.07004
-0.00204515,0.202008,-0.124437,0.452661,-0.0619025,0.362904,-0.140027,0.00704797,-0.201982,0.129742,0.477068,0.0648029,0.382833,0.134766,0.000485785,6.08004
-0.00205374,0.202,-0.124437,0.452669,-0.0619025,0.362904,-0.140027,0.00704797,-0.201982,0.129742,0.477077,0.0647788,0.382833,0.134766,0.000434654,6.09004
-0.00205374,0.201991,-0.124437,0.452677,-0.0619144,0.362892,-0.140039,0.00704797,-0.202016,0.129742,0.477085,0.0648029,0.382833,0.134766,0.000434654,6.10004
-0.00203657,0.201991,-0.124437,0.452652,-0.0618906,0.362892,-0.140039,0.00704797,-0.202034,0.129729,0.477077,0.0648029,0.382857,0.134766,0.000434654,6.11004
-0.00205374,0.201991,-0.124437,0.452677,-0.0619144,0.362904,-0.140039,0.00703945,-0.202016,0.129742,0.477077,0.0647788,0.382845,0.134766,0.000434654,6.12005
-0.00205374,0.201991,-0.124424,0.452661,-0.0619025,0.362892,-0.140027,0.0070565,-0.201991,0.129782,0.477077,0.0648029,0.382857,0.134766,0.000485785,6.13005
-0.00204515,0.202,-0.124424,0.452669,-0.0618906,0.362904,-0.140015,0.00704797,-0.201982,0.129769,0.477085,0.0648148,0.382845,0.134778,0.000460219,6.14005
-0.00203657,0.202,-0.12445,0.452661,-0.0619025,0.362904,-0.140039,0.00704797,-0.201991,0.129742,0.477077,0.0648148,0.382869,0.134766,0.000460219,6.15005
-0.00204515,0.201991,-0.124437,0.452661,-0.0619264,0.362892,-0.140027,0.00704797,-0.201991,0.129755,0.477085,0.0648148,0.382833,0.134778,0.000460219,6.16005
-0.00204515,0.201991,-0.124424,0.452669,-0.0619144,0.362904,-0.140015,0.0070565,-0.202016,0.129755,0.477077,0.0648148,0.382857,0.134766,0.000434654,6.17005
-0.00203657,0.201991,-0.12445,0.452644,-0.0619144,0.362904,-0.140027,0.0070565,-0.202,0.129742,0.477085,0.0648267,0.382833,0.134778,0.000434654,6.18005
-0.00203657,0.201991,-0.12445,0.452669,-0.0619144,0.362904,-0.140039,0.00708206,-0.202008,0.129742,0.477077,0.0648267,0.382845,0.134778,0.000434654,6.19005
-0.00205374,0.201991,-0.124424,0.452652,-0.0619144,0.362892,-0.140027,0.0070565,-0.202008,0.129755,0.477085,0.0648389,0.382857,0.134766,0.000434654,6.20005
-0.00205374,0.201991,-0.124424,0.452652,-0.0619144,0.362904,-0.140027,0.00704797,-0.201991,0.129742,0.477077,0.0648389,0.382857,0.134778,0.000434654,6.21005
-0.00205374,0.201983,-0.124396,0.452669,-0.0618906,0.362916,-0.140015,0.00702241,-0.202008,0.129729,0.477068,0.0648389,0.382857,0.134766,0.000434654,6.22005
-0.00204515,0.202008,-0.124424,0.452652,-0.0619025,0.362904,-0.140027,0.00700536,-0.202025,0.129729,0.477077,0.0648389,0.382857,0.134766,0.000409087,6.23005
-0.00204515,0.201991,-0.124437,0.452669,-0.0619144,0.362892,-0.140039,0.00701389,-0.202025,0.129729,0.477085,0.0648389,0.382857,0.134766,0.000434654,6.24005
-0.00205374,0.201991,-0.124424,0.452652,-0.0619025,0.362904,-0.140003,0.00707354,-0.201982,0.129742,0.477094,0.0648627,0.382833,0.13479,0.000460219,6.25005
-0.00203657,0.201991,-0.12445,0.452669,-0.0618906,0.362904,-0.140027,0.00704797,-0.202,0.129742,0.477085,0.0648389,0.382869,0.134766,0.000434654,6.26005
-0.00204515,0.201991,-0.12441,0.452661,-0.0619504,0.36288,-0.140027,0.00706502,-0.201991,0.129782,0.477085,0.0648627,0.382869,0.134778,0.000485785,6.27005
-0.00204515,0.201991,-0.12441,0.452652,-0.0619385,0.362916,-0.140027,0.00707354,-0.201982,0.129769,0.477094,0.0648746,0.382857,0.13479,0.000485785,6.28005
-0.00204515,0.201991,-0.124424,0.452669,-0.0619264,0.362916,-0.140027,0.00706502,-0.201982,0.129742,0.477085,0.0648508,0.382857,0.134778,0.000485785,6.29005
-0.00203657,0.202008,-0.124437,0.452669,-0.0619504,0.362904,-0.140039,0.00703945,-0.201991,0.129742,0.477085,0.0648508,0.382857,0.134778,0.000460219,6.30005
-0.00205374,0.202008,-0.124424,0.452669,-0.0619264,0.362904,-0.140039,0.00703945,-0.202008,0.129742,0.477085,0.0648746,0.382845,0.13479,0.000434654,6.31005
-0.00203657,0.201991,-0.124437,0.452669,-0.0619385,0.362904,-0.140051,0.00703945,-0.202,0.129689,0.477068,0.0648508,0.382845,0.134778,0.000434654,6.32005
-0.00202847,0.201991,-0.124424,0.452652,-0.0619385,0.362904,-0.140039,0.00703093,-0.202016,0.129715,0.477085,0.0648389,0.382833,0.13479,0.000434654,6.33005
-0.00204515,0.201991,-0.124437,0.452669,-0.0619385,0.362904,-0.140039,0.00700536,-0.202042,0.129742,0.477094,0.0648389,0.382845,0.134802,0.000434654,6.34005
-0.00204515,0.201991,-0.12441,0.452661,-0.0619504,0.362892,-0.140027,0.00701389,-0.202008,0.129742,0.477085,0.0648627,0.382833,0.13479,0.000434654,6.35005
-0.00205374,0.202008,-0.124437,0.452669,-0.0619385,0.362904,-0.140027,0.00701389,-0.201982,0.129702,0.477085,0.0648746,0.382881,0.13479,0.000434654,6.36005
-0.00204515,0.202008,-0.124437,0.452669,-0.0619385,0.362904,-0.140039,0.00703093,-0.201974,0.129769,0.477085,0.0648627,0.382869,0.13479,0.000434654,6.37005
-0.00204515,0.202008,-0.124437,0.452669,-0.0619144,0.362904,-0.140027,0.00707354,-0.201982,0.129742,0.477085,0.0648746,0.382869,0.134802,0.000434654,6.38005
-0.00203657,0.201991,-0.124437,0.452661,-0.0619385,0.362904,-0.140027,0.00709058,-0.201991,0.129729,0.477094,0.0648508,0.382869,0.13479,0.000434654,6.39005
-0.00204515,0.202,-0.124437,0.452677,-0.0619624,0.362916,-0.140051,0.00707354,-0.201965,0.129729,0.477085,0.0648627,0.382881,0.13479,0.000409087,6.40005
-0.00204515,0.201991,-0.12445,0.452669,-0.0619385,0.362892,-0.140039,0.00706502,-0.202008,0.129755,0.477094,0.0648746,0.382845,0.134814,0.000434654,6.41005
-0.00202847,0.201991,-0.124424,0.452669,-0.0619385,0.362892,-0.140039,0.0070565,-0.202008,0.129742,0.477077,0.0648746,0.382881,0.134778,0.000409087,6.42005
-0.00205374,0.202,-0.124424,0.452652,-0.0619264,0.362904,-0.140039,0.0070565,-0.201991,0.129742,0.477085,0.0648508,0.382869,0.134778,0.000460219,6.43005
-0.00204515,0.201991,-0.124437,0.452669,-0.0619504,0.362904,-0.140039,0.0070565,-0.201991,0.129755,0.477077,0.0648746,0.382869,0.13479,0.000485785,6.44005
-0.00203657,0.202008,-0.124424,0.452661,-0.0619264,0.362916,-0.140039,0.00703945,-0.201991,0.129769,0.477085,0.0648627,0.382869,0.134778,0.000485785,6.45005
-0.00203657,0.202,-0.124424,0.452669,-0.0619385,0.362916,-0.140039,0.0070565,-0.202008,0.129742,0.477077,0.0648389,0.382869,0.134802,0.000460219,6.46005
-0.00204515,0.201991,-0.124424,0.452669,-0.0619264,0.362904,-0.140051,0.00703945,-0.202008,0.129715,0.477094,0.0648508,0.382857,0.134814,0.000460219,6.47005
-0.00202847,0.201991,-0.12445,0.452652,-0.0619504,0.362904,-0.140039,0.00703945,-0.202016,0.129755,0.477077,0.0648627,0.382869,0.13479,0.000460219,6.48005
-0.00204515,0.201991,-0.124437,0.452652,-0.0619504,0.362916,-0.140039,0.0070565,-0.202008,0.129742,0.477085,0.0648508,0.382869,0.134802,0.000434654,6.49005
-0.00205374,0.201991,-0.124437,0.452661,-0.0619504,0.362904,-0.140027,0.0070565,-0.201991,0.129729,0.477085,0.0648627,0.382893,0.134802,0.000409087,6.50005
-0.00203657,0.201991,-0.124424,0.452669,-0.0619385,0.362892,-0.140027,0.00706502,-0.201974,0.129742,0.477085,0.0648508,0.382869,0.13479,0.000460219,6.51005
-0.00205374,0.202,-0.12441,0.452669,-0.0619264,0.362904,-0.140027,0.00706502,-0.201974,0.129769,0.477077,0.0648746,0.382869,0.13479,0.000485785,6.52005
